; HEADER_BLOCK_START
; generated by OrcaSlicer 2.3.1 on 2025-10-15 at 22:36:33
; total layer number: 99
; filament_density: 1.24,1.02,1.02,1.24,1.24,1.24
; filament_diameter: 1.75,1.75,1.75,1.75,1.75,1.75
; max_z_height: 19.80
; HEADER_BLOCK_END

; THUMBNAIL_BLOCK_START

;
; THUMBNAIL_BLOCK_END

; external perimeters extrusion width = 0.42mm
; perimeters extrusion width = 0.45mm
; infill extrusion width = 0.45mm
; solid infill extrusion width = 0.42mm
; top infill extrusion width = 0.42mm
; first layer extrusion width = 0.44mm

; EXECUTABLE_BLOCK_START
EXCLUDE_OBJECT_DEFINE NAME=1.8_TFT_-_knob.step_id_0_copy_0 CENTER=135,135 POLYGON=[[125,135],[125.006,134.655],[125.024,134.31],[125.054,133.966],[125.095,133.623],[125.149,133.282],[125.214,132.943],[125.291,132.607],[125.379,132.273],[125.479,131.943],[125.59,131.616],[125.712,131.293],[125.846,130.975],[125.99,130.661],[126.145,130.353],[126.311,130.05],[126.487,129.753],[126.673,129.462],[126.869,129.178],[127.075,128.901],[127.29,128.631],[127.515,128.369],[127.748,128.114],[127.99,127.868],[128.241,127.63],[128.499,127.402],[128.765,127.182],[129.039,126.971],[129.319,126.77],[129.607,126.579],[129.901,126.398],[130.201,126.227],[130.506,126.067],[130.817,125.917],[131.133,125.778],[131.454,125.65],[131.779,125.533],[132.107,125.427],[132.44,125.333],[132.775,125.251],[133.113,125.18],[133.453,125.12],[133.795,125.073],[134.138,125.037],[134.482,125.013],[134.827,125.001],[135.173,125.001],[135.518,125.013],[135.862,125.037],[136.205,125.073],[136.547,125.12],[136.887,125.18],[137.225,125.251],[137.56,125.333],[137.893,125.427],[138.221,125.533],[138.546,125.65],[138.867,125.778],[139.183,125.917],[139.494,126.067],[139.799,126.227],[140.099,126.398],[140.393,126.579],[140.681,126.77],[140.961,126.971],[141.235,127.182],[141.501,127.402],[141.759,127.63],[142.01,127.868],[142.252,128.114],[142.485,128.369],[142.71,128.631],[142.925,128.901],[143.131,129.178],[143.327,129.462],[143.513,129.753],[143.689,130.05],[143.855,130.353],[144.01,130.661],[144.154,130.975],[144.288,131.293],[144.41,131.616],[144.521,131.943],[144.621,132.273],[144.709,132.607],[144.786,132.943],[144.851,133.282],[144.905,133.623],[144.946,133.966],[144.976,134.31],[144.994,134.655],[145,135],[144.994,135.345],[144.976,135.69],[144.946,136.034],[144.905,136.377],[144.851,136.718],[144.786,137.057],[144.709,137.393],[144.621,137.727],[144.521,138.057],[144.41,138.384],[144.288,138.707],[144.154,139.025],[144.01,139.339],[143.855,139.647],[143.689,139.95],[143.513,140.247],[143.327,140.538],[143.131,140.822],[142.925,141.099],[142.71,141.369],[142.485,141.631],[142.252,141.886],[142.01,142.132],[141.759,142.37],[141.501,142.598],[141.235,142.818],[140.961,143.029],[140.681,143.23],[140.393,143.421],[140.099,143.602],[139.799,143.773],[139.494,143.933],[139.183,144.083],[138.867,144.222],[138.546,144.35],[138.221,144.467],[137.893,144.573],[137.56,144.667],[137.225,144.749],[136.887,144.82],[136.547,144.88],[136.205,144.927],[135.862,144.963],[135.518,144.987],[135.173,144.999],[134.827,144.999],[134.482,144.987],[134.138,144.963],[133.795,144.927],[133.453,144.88],[133.113,144.82],[132.775,144.749],[132.44,144.667],[132.107,144.573],[131.779,144.467],[131.454,144.35],[131.133,144.222],[130.817,144.083],[130.506,143.933],[130.201,143.773],[129.901,143.602],[129.607,143.421],[129.319,143.23],[129.039,143.029],[128.765,142.818],[128.499,142.598],[128.241,142.37],[127.99,142.132],[127.748,141.886],[127.515,141.631],[127.29,141.369],[127.075,141.099],[126.869,140.822],[126.673,140.538],[126.487,140.247],[126.311,139.95],[126.145,139.647],[125.99,139.339],[125.846,139.025],[125.712,138.707],[125.59,138.384],[125.479,138.057],[125.379,137.727],[125.291,137.393],[125.214,137.057],[125.149,136.718],[125.095,136.377],[125.054,136.034],[125.024,135.69],[125.006,135.345],[125,135]]
M73 P0 R14
M106 S0
M106 P2 S0
;TYPE:Custom
PRINT_START BED=55 HOTEND=220 CHAMBER=0 EXTRUDER=0
SET_PRINT_STATS_INFO TOTAL_LAYER=99
M83
M140 S55
M104 S220
M141 S0
G4 P3000
T0
G1 X108.000 Y1 F30000
G0 Z0.2 F600
;G1 E3 F1800
G90
M83
G0 X128 E8  F452.496
G0 X133 E.3742  F754.159
G0 X138 E.3742  F3016.64
G0 X143 E.3742  F754.159
G0 X148 E.3742  F3016.64
G0 X153 E.3742  F754.159
G91
G1 X1 Z-0.300
G1 X4
G1 Z1 F1200
G90
M400
G1 X108.000 Y2.5 F30000
G0 Z0.2 F600
M83
G0 X128 E10  F452.496
G0 X133 E.3742  F754.159
G0 X138 E.3742  F3016.64
G0 X143 E.3742  F754.159
G0 X148 E.3742  F3016.64
M73 P1 R14
G0 X153 E.3742  F754.159
G91
G1 X1 Z-0.300
G1 X4
G1 Z1 F1200
G90
M400
G1 Z1 F600
G90
G21
M83 ; use relative distances for extrusion
; Filament gcode
T0
M106 P2 S0
;LAYER_CHANGE
;Z:0.2
;HEIGHT:0.2
;BEFORE_LAYER_CHANGE
;0.2
G92 E0

G1 E-.8 F1800
 ; timelapse without wipe tower
TIMELAPSE_TAKE_FRAME

G92 E0
SET_PRINT_STATS_INFO CURRENT_LAYER=1
;_SET_FAN_SPEED_CHANGING_LAYER
SET_VELOCITY_LIMIT ACCEL=500
G1 X126.887 Y126.698 F30000
G1 Z.6
G1 Z.2
G1 E.8 F1800
;TYPE:Skirt
;WIDTH:0.44
G1 F3000
G1 X127.006 Y126.572 E.00544
G1 X127.885 Y125.818 E.03631
G1 X128.913 Y125.106 E.03923
G1 X130.836 Y124.156 E.06727
G1 X132.064 Y123.761 E.04045
G1 X132.99 Y123.559 E.02974
G1 X134.083 Y123.42 E.03456
G1 X135.267 Y123.387 E.03715
G1 X136.513 Y123.483 E.03921
G1 X137.628 Y123.685 E.03554
G1 X138.634 Y123.967 E.03277
G1 X139.799 Y124.421 E.03923
G1 X140.912 Y125.001 E.03936
G1 X141.911 Y125.663 E.0376
G1 X143.517 Y127.101 E.06764
G1 X144.333 Y128.085 E.04009
G1 X144.87 Y128.873 E.02991
G1 X145.468 Y129.964 E.039
G1 X145.887 Y130.948 E.03356
G1 X146.24 Y132.066 E.03677
G1 X146.489 Y133.286 E.03907
G1 X146.61 Y135.384 E.06589
G1 X146.495 Y136.673 E.04062
G1 X146.318 Y137.617 E.03011
G1 X145.962 Y138.845 E.0401
G1 X145.507 Y139.952 E.03754
G1 X144.996 Y140.918 E.03428
G1 X144.401 Y141.824 E.03399
G1 X143.726 Y142.668 E.03389
G1 X142.91 Y143.507 E.03673
G1 X141.185 Y144.833 E.06823
G1 X140.066 Y145.453 E.04013
G1 X138.962 Y145.92 E.0376
G1 X137.822 Y146.268 E.03739
G1 X136.798 Y146.476 E.03278
G1 X134.654 Y146.611 E.06738
G1 X133.618 Y146.534 E.03258
G1 X132.477 Y146.339 E.03633
G1 X131.565 Y146.097 E.02959
G1 X130.392 Y145.663 E.03923
G1 X129.271 Y145.105 E.03926
G1 X128.264 Y144.464 E.03746
G1 X127.506 Y143.875 E.03011
G1 X126.574 Y142.996 E.04017
G1 X125.246 Y141.308 E.06738
G1 X124.627 Y140.229 E.03901
G1 X124.188 Y139.248 E.03374
G1 X123.817 Y138.14 E.03663
G1 X123.543 Y136.915 E.0394
G1 X123.405 Y135.691 E.03864
G1 X123.387 Y134.736 E.02995
G1 X123.636 Y132.594 E.06763
G1 X123.969 Y131.359 E.04013
G1 X124.403 Y130.243 E.03754
G1 X124.9 Y129.262 E.03449
G1 X125.474 Y128.352 E.03376
G1 X126.137 Y127.491 E.0341
G1 X126.86 Y126.727 E.03298
G1 X127.143 Y127.001 F30000
G1 F3000
G1 X127.275 Y126.864 E.00596
G1 X128.132 Y126.128 E.03541
G1 X129.126 Y125.442 E.03789
G1 X130.983 Y124.524 E.06498
G1 X132.17 Y124.144 E.03909
G1 X133.055 Y123.951 E.02841
G1 X134.112 Y123.816 E.03342
G1 X135.263 Y123.784 E.03613
G1 X136.467 Y123.877 E.03787
G1 X137.544 Y124.073 E.03433
G1 X138.504 Y124.342 E.03129
G1 X139.63 Y124.781 E.03789
G1 X140.705 Y125.34 E.038
G1 X141.679 Y125.986 E.03667
G1 X143.23 Y127.376 E.06532
G1 X144.531 Y129.08 E.06726
G1 X145.111 Y130.139 E.03786
G1 X145.513 Y131.083 E.03219
G1 X145.857 Y132.172 E.03581
G1 X146.097 Y133.351 E.03775
G1 X146.213 Y135.376 E.06363
G1 X146.101 Y136.622 E.03923
G1 X145.932 Y137.522 E.02872
G1 X145.588 Y138.71 E.03879
G1 X145.145 Y139.79 E.03662
G1 X144.076 Y141.595 E.0658
G1 X143.43 Y142.403 E.03243
G1 X142.635 Y143.22 E.03577
G1 X140.978 Y144.494 E.06556
G1 X139.898 Y145.093 E.03875
G1 X138.821 Y145.548 E.03667
G1 X137.721 Y145.884 E.03606
G1 X136.74 Y146.084 E.03141
G1 X134.669 Y146.214 E.06511
G1 X132.57 Y145.953 E.06634
G1 X130.554 Y145.301 E.06645
G1 X129.472 Y144.763 E.03792
G1 X128.49 Y144.137 E.03653
G1 X127.766 Y143.576 E.02872
G1 X126.865 Y142.726 E.03885
G1 X125.581 Y141.095 E.0651
G1 X124.98 Y140.048 E.03786
G1 X124.559 Y139.106 E.03237
G1 X124.201 Y138.04 E.03527
G1 X123.933 Y136.844 E.03844
G1 X123.784 Y134.751 E.06582
G1 X124.023 Y132.682 E.06532
G1 X124.345 Y131.487 E.03881
G1 X124.768 Y130.399 E.03663
G1 X125.277 Y129.402 E.03511
G1 X125.859 Y128.496 E.03377
G1 X126.584 Y127.581 E.03663
G1 X127.116 Y127.029 E.02402
; printing object 1.8 TFT - knob.step id:0 copy 0
G1 E-.56 F1800
;WIPE_START
G1 F3000
G1 X127.275 Y126.864 E-.05524
G1 X127.86 Y126.362 E-.18476
;WIPE_END
EXCLUDE_OBJECT_START NAME=1.8_TFT_-_knob.step_id_0_copy_0
G1 X128.984 Y133.912 Z.6 F30000
G1 X129.957 Y140.449 Z.6
G1 Z.2
G1 E.8 F1800
;TYPE:Inner wall
;WIDTH:0.439999
G1 F3000
G1 X129.757 Y140.262 E.0086
G1 X129.327 Y139.808 E.0196
G1 X128.758 Y139.042 E.02992
G1 X128.423 Y138.47 E.02082
G1 X128.084 Y137.734 E.0254
G1 X127.853 Y137.053 E.02256
G1 X127.66 Y136.193 E.02765
G1 X127.575 Y135.405 E.02487
G1 X127.564 Y134.861 E.01705
G1 X127.594 Y134.322 E.01694
G1 X127.718 Y133.498 E.02613
G1 X127.998 Y132.496 E.03263
G1 X128.232 Y131.918 E.01958
G1 X128.549 Y131.3 E.02176
G1 X128.92 Y130.717 E.02168
G1 X129.308 Y130.214 E.01994
G1 X129.861 Y129.625 E.02533
G1 X130.469 Y129.104 E.02511
G1 X131.139 Y128.644 E.0255
G1 X131.594 Y128.389 E.01636
G1 X132.375 Y128.042 E.02682
G1 X132.858 Y127.879 E.01597
G1 X133.7 Y127.678 E.02716
G1 X134.397 Y127.588 E.02204
G1 X135.2 Y127.567 E.0252
G1 X136.002 Y127.632 E.02524
G1 X136.718 Y127.764 E.02283
G1 X137.289 Y127.925 E.01862
G1 X138.045 Y128.216 E.0254
G1 X138.504 Y128.452 E.01619
G1 X139.02 Y128.749 E.01868
G1 X139.456 Y129.052 E.01667
G1 X139.893 Y129.406 E.01761
G1 X140.35 Y129.841 E.0198
G1 X140.758 Y130.294 E.01913
G1 X141.316 Y131.075 E.0301
G1 X141.639 Y131.649 E.02065
G1 X141.962 Y132.387 E.0253
G1 X142.202 Y133.151 E.0251
G1 X142.36 Y133.936 E.02512
G1 X142.409 Y134.49 E.01746
G1 X142.432 Y135.263 E.02426
G1 X142.353 Y136.115 E.02681
G1 X142.257 Y136.625 E.01628
G1 X141.956 Y137.628 E.03287
G1 X141.709 Y138.208 E.01976
G1 X141.384 Y138.814 E.02158
G1 X140.999 Y139.395 E.02186
G1 X140.605 Y139.887 E.01977
G1 X140.19 Y140.314 E.01868
G1 X139.656 Y140.799 E.02262
G1 X138.736 Y141.43 E.03501
G1 X138.282 Y141.673 E.01613
G1 X137.504 Y142.002 E.0265
G1 X136.779 Y142.221 E.02375
G1 X136.174 Y142.344 E.01939
G1 X135.465 Y142.422 E.02237
G1 X134.791 Y142.434 E.02112
G1 X134.137 Y142.386 E.02059
G1 X133.417 Y142.266 E.02287
G1 X132.838 Y142.115 E.01878
G1 X132.077 Y141.838 E.02539
G1 X131.348 Y141.479 E.02549
G1 X130.901 Y141.205 E.01646
G1 X130.226 Y140.701 E.02641
G1 X129.986 Y140.476 E.01031
G1 X129.685 Y140.739 F30000
G1 F3000
G1 X129.485 Y140.551 E.0086
G1 X129.019 Y140.06 E.02126
G1 X128.427 Y139.262 E.03117
G1 X128.07 Y138.653 E.02211
G1 X127.715 Y137.881 E.02666
G1 X127.47 Y137.161 E.02388
G1 X127.268 Y136.258 E.02901
G1 X127.178 Y135.43 E.02612
G1 X127.167 Y134.854 E.01807
G1 X127.199 Y134.282 E.01798
G1 X127.329 Y133.415 E.02748
G1 X127.622 Y132.368 E.0341
G1 X127.871 Y131.752 E.02084
G1 X128.204 Y131.103 E.0229
G1 X128.595 Y130.489 E.02282
G1 X129.006 Y129.956 E.0211
G1 X129.586 Y129.338 E.02661
G1 X130.226 Y128.789 E.02645
G1 X130.929 Y128.306 E.02673
G1 X131.416 Y128.034 E.0175
G1 X132.231 Y127.671 E.02798
G1 X132.748 Y127.497 E.01712
G1 X133.628 Y127.287 E.02839
G1 X134.366 Y127.192 E.02333
G1 X135.211 Y127.169 E.02651
G1 X136.055 Y127.237 E.02655
G1 X136.808 Y127.377 E.02403
G1 X137.415 Y127.547 E.01977
G1 X138.208 Y127.853 E.02666
G1 X138.686 Y128.099 E.01686
G1 X139.233 Y128.414 E.01981
G1 X139.694 Y128.734 E.01759
G1 X140.153 Y129.106 E.01854
G1 X140.632 Y129.561 E.02073
G1 X141.071 Y130.048 E.02056
G1 X141.652 Y130.862 E.03135
G1 X141.994 Y131.471 E.02194
G1 X142.334 Y132.248 E.02659
G1 X142.588 Y133.052 E.02644
G1 X142.753 Y133.879 E.02646
G1 X142.805 Y134.455 E.01813
G1 X142.829 Y135.282 E.02596
G1 X142.746 Y136.17 E.02797
G1 X142.643 Y136.719 E.01751
G1 X142.33 Y137.764 E.03422
G1 X142.068 Y138.38 E.02102
G1 X141.725 Y139.018 E.02272
G1 X141.32 Y139.63 E.023
G1 X140.903 Y140.15 E.02093
G1 X140.305 Y140.765 E.02691
G1 X139.898 Y141.114 E.0168
G1 X138.942 Y141.77 E.03636
G1 X138.454 Y142.032 E.01739
G1 X137.639 Y142.376 E.02774
G1 X136.876 Y142.606 E.02499
G1 X136.235 Y142.736 E.02053
G1 X135.49 Y142.819 E.02351
G1 X134.78 Y142.831 E.02226
G1 X134.09 Y142.781 E.02172
G1 X133.335 Y142.655 E.02401
G1 X132.72 Y142.495 E.01994
G1 X131.921 Y142.203 E.02666
G1 X131.157 Y141.827 E.02673
G1 X130.678 Y141.534 E.01761
G1 X129.97 Y141.006 E.02769
G1 X129.715 Y140.766 E.011
G1 X129.414 Y141.028 F30000
G1 F3000
G1 X129.214 Y140.841 E.0086
G1 X128.711 Y140.311 E.02292
G1 X128.095 Y139.481 E.03242
G1 X127.718 Y138.837 E.0234
G1 X127.346 Y138.028 E.02792
G1 X127.087 Y137.268 E.02519
G1 X126.876 Y136.323 E.03038
G1 X126.781 Y135.455 E.02737
G1 X126.77 Y134.847 E.01909
G1 X126.803 Y134.241 E.01903
G1 X126.94 Y133.332 E.02884
G1 X127.245 Y132.24 E.03557
G1 X127.509 Y131.587 E.02209
G1 X127.859 Y130.905 E.02404
G1 X128.269 Y130.261 E.02396
G1 X128.703 Y129.698 E.02227
G1 X129.312 Y129.05 E.02789
G1 X129.984 Y128.473 E.0278
G1 X130.719 Y127.969 E.02797
G1 X131.238 Y127.678 E.01864
G1 X132.086 Y127.301 E.02913
G1 X132.638 Y127.115 E.01827
G1 X133.557 Y126.896 E.02962
G1 X134.335 Y126.795 E.02462
G1 X135.222 Y126.772 E.02782
G1 X136.107 Y126.843 E.02786
G1 X136.898 Y126.99 E.02523
G1 X137.54 Y127.17 E.02091
G1 X138.37 Y127.49 E.02792
G1 X138.867 Y127.746 E.01754
G1 X139.447 Y128.079 E.02095
G1 X139.932 Y128.416 E.01852
G1 X140.414 Y128.806 E.01947
G1 X140.914 Y129.282 E.02165
G1 X141.383 Y129.802 E.02198
G1 X141.987 Y130.648 E.0326
G1 X142.35 Y131.294 E.02323
G1 X142.707 Y132.108 E.02788
G1 X142.973 Y132.953 E.02778
G1 X143.147 Y133.822 E.0278
G1 X143.2 Y134.419 E.0188
G1 X143.226 Y135.301 E.02766
G1 X143.14 Y136.225 E.02912
G1 X143.03 Y136.812 E.01875
G1 X142.704 Y137.899 E.03557
G1 X142.426 Y138.552 E.02227
G1 X142.066 Y139.222 E.02386
G1 X141.641 Y139.864 E.02413
G1 X141.201 Y140.414 E.02209
G1 X140.577 Y141.055 E.02807
G1 X140.141 Y141.429 E.01803
G1 X139.149 Y142.109 E.03771
G1 X138.625 Y142.39 E.01864
G1 X137.774 Y142.75 E.02898
G1 X136.974 Y142.992 E.02623
M73 P2 R14
G1 X136.296 Y143.129 E.02167
G1 X135.515 Y143.216 E.02465
G1 X134.769 Y143.228 E.0234
G1 X134.043 Y143.176 E.02286
G1 X133.252 Y143.044 E.02515
G1 X132.601 Y142.874 E.02109
G1 X131.765 Y142.569 E.02792
G1 X130.965 Y142.175 E.02797
G1 X130.455 Y141.863 E.01875
G1 X129.715 Y141.311 E.02896
G1 X129.443 Y141.056 E.0117
G1 X129.128 Y141.334 F30000
;TYPE:Outer wall
G1 F3000
G1 X128.741 Y140.971 E.01663
G1 X128.386 Y140.576 E.01665
G1 X127.745 Y139.712 E.03374
G1 X127.346 Y139.031 E.02477
G1 X126.957 Y138.184 E.02925
G1 X126.684 Y137.382 E.02657
G1 X126.462 Y136.391 E.03182
G1 X126.363 Y135.482 E.02869
G1 X126.351 Y134.839 E.02017
G1 X126.387 Y134.198 E.02013
G1 X126.53 Y133.244 E.03026
G1 X126.848 Y132.104 E.03712
G1 X127.128 Y131.412 E.02342
G1 X127.496 Y130.697 E.02524
G1 X127.927 Y130.02 E.02516
G1 X128.384 Y129.427 E.02349
G1 X129.022 Y128.747 E.02924
G1 X129.729 Y128.141 E.02921
G1 X130.498 Y127.613 E.02927
G1 X131.05 Y127.304 E.01984
G1 X131.934 Y126.911 E.03034
G1 X132.522 Y126.712 E.01948
G1 X133.481 Y126.484 E.03092
G1 X134.303 Y126.378 E.02598
G1 X135.233 Y126.353 E.02919
G1 X136.162 Y126.428 E.02924
G1 X136.993 Y126.582 E.02649
G1 X137.672 Y126.772 E.02213
G1 X138.542 Y127.108 E.02925
G1 X139.373 Y127.536 E.02933
G1 X139.915 Y127.881 E.02013
G1 X140.429 Y128.265 E.02015
G1 X140.915 Y128.687 E.02018
G1 X141.368 Y129.145 E.02021
G1 X141.713 Y129.543 E.01652
G1 X142.341 Y130.424 E.03392
G1 X142.725 Y131.107 E.02459
G1 X143.099 Y131.961 E.02924
G1 X143.379 Y132.849 E.0292
G1 X143.562 Y133.762 E.02922
G1 X143.617 Y134.382 E.01951
G1 X143.645 Y135.32 E.02945
G1 X143.555 Y136.283 E.03034
G1 X143.437 Y136.912 E.02005
G1 X143.098 Y138.041 E.037
G1 X142.804 Y138.733 E.02359
G1 X142.426 Y139.437 E.02506
G1 X141.98 Y140.111 E.02533
G1 X141.515 Y140.691 E.02332
G1 X140.864 Y141.36 E.0293
G1 X140.396 Y141.761 E.01933
G1 X139.367 Y142.467 E.03914
G1 X138.806 Y142.768 E.01997
G1 X137.917 Y143.144 E.03029
G1 X137.076 Y143.398 E.02754
G1 X136.361 Y143.543 E.02287
G1 X135.542 Y143.634 E.02585
G1 X134.758 Y143.647 E.0246
