; HEADER_BLOCK_START
; generated by OrcaSlicer 2.3.1 on 2025-10-15 at 22:55:58
; total layer number: 99
; filament_density: 1.24,1.02,1.02,1.24,1.24,1.24
; filament_diameter: 1.75,1.75,1.75,1.75,1.75,1.75
; max_z_height: 19.80
; HEADER_BLOCK_END

; THUMBNAIL_BLOCK_START

;
; THUMBNAIL_BLOCK_END

; external perimeters extrusion width = 0.42mm
; perimeters extrusion width = 0.45mm
; infill extrusion width = 0.45mm
; solid infill extrusion width = 0.42mm
; top infill extrusion width = 0.42mm
; first layer extrusion width = 0.44mm

; EXECUTABLE_BLOCK_START
EXCLUDE_OBJECT_DEFINE NAME=1.8_TFT_-_knob_1_.step_id_0_copy_0 CENTER=135,135 POLYGON=[[125,135],[125.006,134.655],[125.024,134.31],[125.054,133.966],[125.095,133.623],[125.149,133.282],[125.214,132.943],[125.291,132.607],[125.379,132.273],[125.479,131.943],[125.59,131.616],[125.712,131.293],[125.846,130.975],[125.99,130.661],[126.145,130.353],[126.311,130.05],[126.487,129.753],[126.673,129.462],[126.869,129.178],[127.075,128.901],[127.29,128.631],[127.515,128.369],[127.748,128.114],[127.99,127.868],[128.241,127.63],[128.499,127.402],[128.765,127.182],[129.039,126.971],[129.319,126.77],[129.607,126.579],[129.901,126.398],[130.201,126.227],[130.506,126.067],[130.817,125.917],[131.133,125.778],[131.454,125.65],[131.779,125.533],[132.107,125.427],[132.44,125.333],[132.775,125.251],[133.113,125.18],[133.453,125.12],[133.795,125.073],[134.138,125.037],[134.482,125.013],[134.827,125.001],[135.173,125.001],[135.518,125.013],[135.862,125.037],[136.205,125.073],[136.547,125.12],[136.887,125.18],[137.225,125.251],[137.56,125.333],[137.893,125.427],[138.221,125.533],[138.546,125.65],[138.867,125.778],[139.183,125.917],[139.494,126.067],[139.799,126.227],[140.099,126.398],[140.393,126.579],[140.681,126.77],[140.961,126.971],[141.235,127.182],[141.501,127.402],[141.759,127.63],[142.01,127.868],[142.252,128.114],[142.485,128.369],[142.71,128.631],[142.925,128.901],[143.131,129.178],[143.327,129.462],[143.513,129.753],[143.689,130.05],[143.855,130.353],[144.01,130.661],[144.154,130.975],[144.288,131.293],[144.41,131.616],[144.521,131.943],[144.621,132.273],[144.709,132.607],[144.786,132.943],[144.851,133.282],[144.905,133.623],[144.946,133.966],[144.976,134.31],[144.994,134.655],[145,135],[144.994,135.345],[144.976,135.69],[144.946,136.034],[144.905,136.377],[144.851,136.718],[144.786,137.057],[144.709,137.393],[144.621,137.727],[144.521,138.057],[144.41,138.384],[144.288,138.707],[144.154,139.025],[144.01,139.339],[143.855,139.647],[143.689,139.95],[143.513,140.247],[143.327,140.538],[143.131,140.822],[142.925,141.099],[142.71,141.369],[142.485,141.631],[142.252,141.886],[142.01,142.132],[141.759,142.37],[141.501,142.598],[141.235,142.818],[140.961,143.029],[140.681,143.23],[140.393,143.421],[140.099,143.602],[139.799,143.773],[139.494,143.933],[139.183,144.083],[138.867,144.222],[138.546,144.35],[138.221,144.467],[137.893,144.573],[137.56,144.667],[137.225,144.749],[136.887,144.82],[136.547,144.88],[136.205,144.927],[135.862,144.963],[135.518,144.987],[135.173,144.999],[134.827,144.999],[134.482,144.987],[134.138,144.963],[133.795,144.927],[133.453,144.88],[133.113,144.82],[132.775,144.749],[132.44,144.667],[132.107,144.573],[131.779,144.467],[131.454,144.35],[131.133,144.222],[130.817,144.083],[130.506,143.933],[130.201,143.773],[129.901,143.602],[129.607,143.421],[129.319,143.23],[129.039,143.029],[128.765,142.818],[128.499,142.598],[128.241,142.37],[127.99,142.132],[127.748,141.886],[127.515,141.631],[127.29,141.369],[127.075,141.099],[126.869,140.822],[126.673,140.538],[126.487,140.247],[126.311,139.95],[126.145,139.647],[125.99,139.339],[125.846,139.025],[125.712,138.707],[125.59,138.384],[125.479,138.057],[125.379,137.727],[125.291,137.393],[125.214,137.057],[125.149,136.718],[125.095,136.377],[125.054,136.034],[125.024,135.69],[125.006,135.345],[125,135]]
M73 P0 R16
M106 S0
M106 P2 S0
;TYPE:Custom
PRINT_START BED=55 HOTEND=220 CHAMBER=0 EXTRUDER=0
SET_PRINT_STATS_INFO TOTAL_LAYER=99
M83
M140 S55
M104 S220
M141 S0
G4 P3000
T0
G1 X108.000 Y1 F30000
G0 Z0.2 F600
;G1 E3 F1800
G90
M83
G0 X128 E8  F452.496
G0 X133 E.3742  F754.159
G0 X138 E.3742  F3016.64
G0 X143 E.3742  F754.159
G0 X148 E.3742  F3016.64
G0 X153 E.3742  F754.159
G91
G1 X1 Z-0.300
G1 X4
G1 Z1 F1200
G90
M400
G1 X108.000 Y2.5 F30000
G0 Z0.2 F600
M83
G0 X128 E10  F452.496
G0 X133 E.3742  F754.159
G0 X138 E.3742  F3016.64
G0 X143 E.3742  F754.159
G0 X148 E.3742  F3016.64
G0 X153 E.3742  F754.159
G91
G1 X1 Z-0.300
G1 X4
G1 Z1 F1200
M73 P1 R16
G90
M400
G1 Z1 F600
G90
G21
M83 ; use relative distances for extrusion
; Filament gcode
T0
M106 P2 S0
;LAYER_CHANGE
;Z:0.2
;HEIGHT:0.2
;BEFORE_LAYER_CHANGE
;0.2
G92 E0

G1 E-.8 F1800
 ; timelapse without wipe tower
TIMELAPSE_TAKE_FRAME

G92 E0
SET_PRINT_STATS_INFO CURRENT_LAYER=1
;_SET_FAN_SPEED_CHANGING_LAYER
SET_VELOCITY_LIMIT ACCEL=500
G1 X126.203 Y125.986 F30000
G1 Z.6
G1 Z.2
G1 E.8 F1800
;TYPE:Skirt
;WIDTH:0.44
G1 F3000
G1 X127.182 Y125.125 E.0409
G1 X128.171 Y124.417 E.03816
G1 X129.3 Y123.768 E.04083
G1 X130.492 Y123.239 E.0409
G1 X132.665 Y122.623 E.07084
G1 X133.959 Y122.448 E.04097
G1 X135.175 Y122.406 E.03816
G1 X136.474 Y122.491 E.04083
G1 X137.759 Y122.711 E.0409
G1 X139.911 Y123.402 E.07091
G1 X141.084 Y123.972 E.0409
G1 X142.192 Y124.66 E.0409
G1 X143.156 Y125.402 E.03816
G1 X144.103 Y126.295 E.04083
G1 X145.512 Y128.062 E.07091
G1 X146.132 Y129.107 E.03809
G1 X146.681 Y130.289 E.0409
G1 X147.106 Y131.522 E.0409
G1 X147.4 Y132.792 E.0409
G1 X147.595 Y135.045 E.07091
G1 X147.532 Y136.258 E.03809
G1 X147.335 Y137.546 E.0409
G1 X147.006 Y138.808 E.04088
G1 X146.548 Y140.029 E.04091
G1 X145.966 Y141.196 E.0409
G1 X145.267 Y142.296 E.0409
G1 X143.797 Y144.014 E.07091
G1 X142.818 Y144.875 E.0409
G1 X141.831 Y145.582 E.03809
G1 X139.827 Y146.634 E.07096
G1 X138.6 Y147.07 E.04084
G1 X137.333 Y147.377 E.0409
G1 X136.13 Y147.544 E.03809
G1 X134.827 Y147.594 E.0409
G1 X133.526 Y147.509 E.0409
G1 X132.241 Y147.29 E.04089
G1 X130.089 Y146.598 E.07092
G1 X128.994 Y146.071 E.03809
G1 X127.882 Y145.391 E.0409
G1 X126.846 Y144.6 E.0409
G1 X125.897 Y143.705 E.04088
G1 X124.488 Y141.938 E.07092
G1 X123.827 Y140.814 E.0409
G1 X123.318 Y139.709 E.03816
G1 X122.894 Y138.478 E.04083
G1 X122.6 Y137.207 E.0409
G1 X122.405 Y134.955 E.07091
G1 X122.477 Y133.653 E.04091
G1 X122.683 Y132.366 E.04088
G1 X122.994 Y131.192 E.03809
G1 X123.452 Y129.971 E.0409
G1 X124.537 Y127.988 E.07091
G1 X125.318 Y126.944 E.0409
G1 X126.176 Y126.015 E.03964
G1 X126.467 Y126.284 F30000
G1 F3000
G1 X126.476 Y126.274 E.00043
G1 X127.424 Y125.439 E.03961
G1 X128.391 Y124.747 E.0373
G1 X129.485 Y124.12 E.03954
G1 X130.639 Y123.608 E.03961
G1 X132.733 Y123.014 E.06827
G1 X133.911 Y122.85 E.0373
G1 X135.175 Y122.803 E.03968
G1 X136.433 Y122.886 E.03954
G1 X137.677 Y123.099 E.03961
G1 X139.752 Y123.765 E.06833
G1 X140.821 Y124.28 E.03723
G1 X141.898 Y124.94 E.03961
G1 X142.903 Y125.708 E.03968
G1 X143.82 Y126.573 E.03954
G1 X145.178 Y128.277 E.06833
G1 X145.819 Y129.365 E.03961
G1 X146.315 Y130.443 E.03723
G1 X146.726 Y131.637 E.03961
G1 X147.01 Y132.867 E.03961
G1 X147.198 Y135.038 E.06834
G1 X147.137 Y136.223 E.03723
G1 X146.945 Y137.472 E.03961
G1 X146.626 Y138.693 E.0396
G1 X146.182 Y139.875 E.03962
G1 X145.618 Y141.005 E.03961
G1 X144.94 Y142.071 E.03961
G1 X143.524 Y143.726 E.06833
G1 X142.576 Y144.561 E.03961
G1 X141.611 Y145.252 E.03723
G1 X139.68 Y146.265 E.06839
G1 X138.492 Y146.688 E.03955
G1 X137.265 Y146.986 E.03961
G1 X136.089 Y147.15 E.03723
G1 X134.827 Y147.197 E.03961
G1 X133.567 Y147.114 E.03961
G1 X132.323 Y146.901 E.0396
G1 X130.248 Y146.235 E.06835
G1 X129.179 Y145.72 E.03723
G1 X128.102 Y145.061 E.03961
G1 X127.099 Y144.293 E.03961
G1 X126.181 Y143.427 E.0396
G1 X124.822 Y141.723 E.06835
G1 X124.181 Y140.635 E.03961
G1 X123.684 Y139.555 E.0373
G1 X123.274 Y138.363 E.03954
G1 X122.99 Y137.133 E.03961
G1 X122.802 Y134.962 E.06833
G1 X122.863 Y133.777 E.03723
G1 X123.055 Y132.528 E.03961
G1 X123.374 Y131.307 E.03961
G1 X123.818 Y130.125 E.03961
G1 X124.864 Y128.213 E.06834
G1 X125.62 Y127.202 E.03961
G1 X126.44 Y126.313 E.03792
; printing object 1.8 TFT - knob (1).step id:0 copy 0
G1 E-.56 F1800
;WIPE_START
G1 F3000
G1 X126.476 Y126.274 E-.01292
G1 X127.187 Y125.649 E-.22708
;WIPE_END
EXCLUDE_OBJECT_START NAME=1.8_TFT_-_knob_1_.step_id_0_copy_0
G1 X134.085 Y128.914 Z.6 F30000
G1 X143.211 Y133.232 Z.6
G1 Z.2
G1 E.8 F1800
;TYPE:Inner wall
;WIDTH:0.439999
G1 F3000
G1 X143.343 Y133.987 E.02404
G1 X143.411 Y135.301 E.04126
G1 X143.372 Y135.858 E.0175
G1 X143.235 Y136.731 E.02771
G1 X143.012 Y137.573 E.02732
G1 X142.703 Y138.387 E.02733
G1 X142.312 Y139.166 E.02733
G1 X141.842 Y139.899 E.02733
G1 X141.292 Y140.589 E.02766
G1 X140.908 Y140.994 E.0175
G1 X140.247 Y141.579 E.02771
G1 X139.539 Y142.087 E.02733
G1 X138.772 Y142.523 E.02766
G1 X138.264 Y142.757 E.01755
G1 X137.434 Y143.056 E.02766
G1 X136.588 Y143.264 E.02733
G1 X135.725 Y143.384 E.02733
G1 X134.855 Y143.414 E.02733
G1 X133.986 Y143.354 E.02733
G1 X133.127 Y143.204 E.02733
G1 X132.289 Y142.967 E.02732
G1 X131.48 Y142.644 E.02733
G1 X130.698 Y142.233 E.02771
G1 X130.229 Y141.933 E.01745
G1 X129.529 Y141.394 E.02772
G1 X128.897 Y140.794 E.02733
G1 X128.331 Y140.132 E.02733
G1 X127.837 Y139.417 E.02727
G1 X127.412 Y138.64 E.02776
G1 X127.188 Y138.13 E.0175
G1 X126.904 Y137.295 E.02766
G1 X126.71 Y136.445 E.02733
G1 X126.605 Y135.581 E.02733
G1 X126.589 Y134.699 E.02766
G1 X126.628 Y134.142 E.0175
G1 X126.765 Y133.269 E.02771
G1 X126.988 Y132.427 E.02732
G1 X127.297 Y131.613 E.02733
G1 X127.688 Y130.834 E.02733
G1 X128.158 Y130.101 E.02733
G1 X128.701 Y129.42 E.02733
G1 X129.312 Y128.798 E.02733
G1 X129.993 Y128.236 E.02771
G1 X130.452 Y127.919 E.0175
G1 X131.218 Y127.482 E.02766
G1 X132.016 Y127.132 E.02733
G1 X132.845 Y126.865 E.02733
G1 X133.698 Y126.686 E.02733
G1 X134.577 Y126.595 E.02771
G1 X135.134 Y126.585 E.0175
G1 X136.014 Y126.646 E.02766
G1 X136.873 Y126.796 E.02733
G1 X137.711 Y127.033 E.02732
G1 X138.52 Y127.356 E.02733
G1 X139.291 Y127.761 E.02733
G1 X140.027 Y128.25 E.02771
G1 X140.463 Y128.598 E.0175
G1 X141.103 Y129.205 E.02766
G1 X141.669 Y129.867 E.02733
G1 X142.013 Y130.366 E.01899
G1 X142.309 Y130.836 E.01743
G1 X142.634 Y131.485 E.02276
G1 X142.956 Y132.293 E.02729
G1 X143.193 Y133.13 E.02729
G1 X143.204 Y133.193 E.00201
G1 X143.602 Y133.164 F30000
G1 F3000
G1 X143.737 Y133.94 E.02468
G1 X143.808 Y135.312 E.04309
G1 X143.767 Y135.902 E.01858
G1 X143.625 Y136.812 E.0289
G1 X143.391 Y137.694 E.02862
G1 X143.067 Y138.547 E.02862
G1 X142.657 Y139.363 E.02862
G1 X142.165 Y140.131 E.02862
G1 X141.592 Y140.85 E.02885
G1 X141.184 Y141.279 E.01858
G1 X140.495 Y141.89 E.0289
G1 X139.753 Y142.421 E.02862
G1 X138.954 Y142.877 E.02884
G1 X138.415 Y143.125 E.01863
G1 X137.549 Y143.436 E.02884
G1 X136.663 Y143.655 E.02862
G1 X135.76 Y143.78 E.02862
G1 X134.848 Y143.812 E.02862
G1 X133.938 Y143.749 E.02862
G1 X133.039 Y143.592 E.02862
G1 X132.161 Y143.343 E.02862
G1 X131.314 Y143.005 E.02862
G1 X130.498 Y142.577 E.0289
G1 X130.001 Y142.258 E.01852
G1 X129.271 Y141.696 E.0289
G1 X128.609 Y141.068 E.02862
G1 X128.016 Y140.375 E.02862
G1 X127.499 Y139.626 E.02856
G1 X127.055 Y138.816 E.02895
G1 X126.817 Y138.274 E.01857
G1 X126.521 Y137.403 E.02885
G1 X126.318 Y136.514 E.02862
G1 X126.208 Y135.608 E.02862
G1 X126.192 Y134.688 E.02885
G1 X126.233 Y134.098 E.01858
G1 X126.375 Y133.188 E.02889
G1 X126.609 Y132.306 E.02862
G1 X126.933 Y131.453 E.02862
G1 X127.343 Y130.637 E.02862
G1 X127.835 Y129.869 E.02862
G1 X128.403 Y129.156 E.02862
G1 X129.043 Y128.505 E.02862
G1 X129.753 Y127.919 E.0289
G1 X130.241 Y127.582 E.01858
G1 X131.04 Y127.127 E.02885
G1 X131.875 Y126.76 E.02862
G1 X132.744 Y126.481 E.02862
G1 X133.636 Y126.293 E.02862
G1 X134.553 Y126.198 E.02889
G1 X135.145 Y126.188 E.01858
G1 X136.062 Y126.251 E.02885
G1 X136.961 Y126.408 E.02862
G1 X137.839 Y126.657 E.02862
G1 X138.686 Y126.995 E.02862
G1 X139.494 Y127.419 E.02862
G1 X140.261 Y127.929 E.0289
G1 X140.724 Y128.298 E.01858
G1 X141.391 Y128.932 E.02885
G1 X141.984 Y129.625 E.02862
G1 X142.34 Y130.14 E.01963
G1 X142.654 Y130.64 E.01851
G1 X142.994 Y131.319 E.02383
G1 X143.332 Y132.165 E.02858
G1 X143.58 Y133.042 E.02858
G1 X143.595 Y133.125 E.00266
G1 X143.993 Y133.096 F30000
G1 F3000
G1 X144.131 Y133.892 E.02533
G1 X144.205 Y135.322 E.04492
G1 X144.162 Y135.947 E.01965
G1 X144.014 Y136.894 E.03008
G1 X143.77 Y137.816 E.02991
G1 X143.431 Y138.708 E.02991
G1 X143.003 Y139.559 E.02991
G1 X142.489 Y140.362 E.02991
G1 X141.892 Y141.111 E.03003
G1 X141.461 Y141.565 E.01965
G1 X140.743 Y142.201 E.03008
G1 X139.967 Y142.756 E.02991
G1 X139.136 Y143.23 E.03003
G1 X138.565 Y143.493 E.01971
G1 X137.664 Y143.817 E.03003
G1 X136.738 Y144.045 E.02991
G1 X135.794 Y144.176 E.02991
G1 X134.841 Y144.209 E.02991
G1 X133.89 Y144.143 E.02991
G1 X132.95 Y143.98 E.02991
G1 X132.033 Y143.72 E.02991
G1 X131.148 Y143.366 E.02991
G1 X130.298 Y142.921 E.03008
G1 X129.772 Y142.584 E.0196
G1 X129.012 Y141.999 E.03008
G1 X128.321 Y141.342 E.02991
G1 X127.701 Y140.618 E.02991
G1 X127.16 Y139.834 E.02985
G1 X126.699 Y138.991 E.03013
G1 X126.447 Y138.418 E.01965
G1 X126.138 Y137.512 E.03003
G1 X125.926 Y136.582 E.02991
G1 X125.811 Y135.635 E.02991
G1 X125.795 Y134.678 E.03003
G1 X125.838 Y134.053 E.01965
G1 X125.986 Y133.106 E.03008
G1 X126.23 Y132.184 E.02991
G1 X126.569 Y131.293 E.02991
G1 X126.997 Y130.441 E.02991
G1 X127.511 Y129.638 E.02991
G1 X128.106 Y128.892 E.02991
G1 X128.774 Y128.212 E.02991
G1 X129.513 Y127.601 E.03008
G1 X130.029 Y127.246 E.01965
G1 X130.861 Y126.772 E.03003
G1 X131.734 Y126.388 E.02991
G1 X132.642 Y126.096 E.02991
G1 X133.575 Y125.9 E.02991
G1 X134.529 Y125.801 E.03008
G1 X135.155 Y125.79 E.01965
G1 X136.11 Y125.857 E.03003
G1 X137.05 Y126.02 E.02991
G1 X137.967 Y126.28 E.02991
G1 X138.853 Y126.634 E.02991
G1 X139.697 Y127.077 E.02991
G1 X140.495 Y127.608 E.03008
G1 X140.985 Y127.999 E.01965
G1 X141.679 Y128.658 E.03003
G1 X142.299 Y129.382 E.02991
G1 X142.666 Y129.915 E.02028
G1 X142.999 Y130.443 E.01958
G1 X143.355 Y131.153 E.0249
G1 X143.708 Y132.037 E.02987
G1 X143.968 Y132.953 E.02987
G1 X143.986 Y133.057 E.0033
G1 X144.414 Y133.026 F30000
;TYPE:Outer wall
G1 F3000
G1 X144.487 Y133.346 E.01028
G1 X144.607 Y134.336 E.03127
G1 X144.624 Y135.333 E.03128
G1 X144.578 Y135.994 E.02079
G1 X144.424 Y136.98 E.03133
G1 X144.169 Y137.944 E.03127
G1 X143.815 Y138.876 E.03127
G1 X143.367 Y139.767 E.03127
G1 X142.829 Y140.606 E.03127
G1 X142.208 Y141.386 E.03127
G1 X141.752 Y141.866 E.02079
G1 X141.004 Y142.529 E.03133
G1 X140.193 Y143.109 E.03127
G1 X139.327 Y143.603 E.03127
G1 X138.724 Y143.881 E.02084
G1 X137.785 Y144.218 E.03128
G1 X136.817 Y144.457 E.03127
G1 X135.83 Y144.594 E.03127
G1 X134.834 Y144.628 E.03127
G1 X133.839 Y144.559 E.03127
G1 X132.857 Y144.388 E.03127
G1 X131.898 Y144.116 E.03127
G1 X130.972 Y143.747 E.03127
G1 X130.088 Y143.283 E.03133
G1 X129.531 Y142.926 E.02073
G1 X128.74 Y142.317 E.03133
G1 X128.017 Y141.631 E.03127
M73 P1 R15
G1 X127.369 Y140.873 E.03127
G1 X126.803 Y140.054 E.03121
G1 X126.323 Y139.176 E.03138
G1 X126.056 Y138.57 E.02079
G1 X125.735 Y137.626 E.03127
G1 X125.513 Y136.654 E.03127
G1 X125.393 Y135.664 E.03127
G1 X125.376 Y134.667 E.03128
G1 X125.422 Y134.006 E.02079
G1 X125.576 Y133.02 E.03133
G1 X125.831 Y132.056 E.03127
G1 X126.185 Y131.124 E.03127
G1 X126.633 Y130.233 E.03127
G1 X127.171 Y129.394 E.03127
G1 X127.792 Y128.614 E.03127
G1 X128.491 Y127.903 E.03127
G1 X129.261 Y127.267 E.03133
G1 X129.806 Y126.891 E.02079
G1 X130.673 Y126.397 E.03128
G1 X131.585 Y125.996 E.03127
G1 X132.534 Y125.691 E.03127
G1 X133.51 Y125.486 E.03127
M73 P2 R15
G1 X134.503 Y125.383 E.03133
G1 X135.166 Y125.372 E.02079
G1 X136.161 Y125.441 E.03128
G1 X137.143 Y125.612 E.03127
G1 X138.102 Y125.884 E.03127
G1 X139.028 Y126.253 E.03127
G1 X139.911 Y126.716 E.03127
G1 X140.742 Y127.27 E.03133
G1 X141.26 Y127.683 E.02079
G1 X141.983 Y128.369 E.03127
G1 X142.631 Y129.127 E.03127
G1 X143.199 Y129.949 E.03133
G1 X143.526 Y130.523 E.02073
