; HEADER_BLOCK_START
; generated by OrcaSlicer 2.3.0 on 2025-09-12 at 17:52:55
; total layer number: 55
;_GP_TOTAL_LAYER_NUMBER_PLACEHOLDER
; filament_density: 1.02,1.27,1.02,1.24,1.24,1.24
; filament_diameter: 1.75,1.75,1.75,1.75,1.75,1.75
; max_z_height: 11.00
; HEADER_BLOCK_END

; THUMBNAIL_BLOCK_START

;
; THUMBNAIL_BLOCK_END

; external perimeters extrusion width = 0.42mm
; perimeters extrusion width = 0.45mm
; infill extrusion width = 0.45mm
; solid infill extrusion width = 0.42mm
; top infill extrusion width = 0.42mm
; first layer extrusion width = 0.44mm

; EXECUTABLE_BLOCK_START
EXCLUDE_OBJECT_DEFINE NAME=Ali_Box_-_front_2_.step_id_0_copy_0 CENTER=135,135 POLYGON=[[4.53334,93],[265.467,93],[256.6,177],[13.4,177],[4.53334,93]]
M73 P0 R88
M106 S0
M106 P2 S0
;TYPE:Custom
PRINT_START BED=100 HOTEND=260 CHAMBER=60 EXTRUDER=0
SET_PRINT_STATS_INFO TOTAL_LAYER=55
M83
M140 S100
M104 S260
M141 S60
G4 P3000
T0
G1 X108.000 Y1 F30000
G0 Z0.2 F600
;G1 E3 F1800
G90
M83
G0 X128 E8  F904.991
G0 X133 E.3742  F1508.32
G0 X138 E.3742  F6033.27
G0 X143 E.3742  F1508.32
G0 X148 E.3742  F6033.27
G0 X153 E.3742  F1508.32
G91
G1 X1 Z-0.300
G1 X4
G1 Z1 F1200
G90
M400
G1 X108.000 Y2.5 F30000
G0 Z0.2 F600
M83
G0 X128 E10  F904.991
G0 X133 E.3742  F1508.32
G0 X138 E.3742  F6033.27
G0 X143 E.3742  F1508.32
G0 X148 E.3742  F6033.27
G0 X153 E.3742  F1508.32
G91
G1 X1 Z-0.300
G1 X4
G1 Z1 F1200
G90
M400
G1 Z1 F600
M106 P3 S178
G90
G21
M83 ; use relative distances for extrusion
; Filament gcode
SET_PRESSURE_ADVANCE ADVANCE=0.025; Override pressure advance value
T0
M106 P2 S0
;LAYER_CHANGE
;Z:0.2
;HEIGHT:0.2
;BEFORE_LAYER_CHANGE
;0.2
G92 E0

G1 E-.8 F1800
 ; timelapse without wipe tower
TIMELAPSE_TAKE_FRAME

G92 E0
SET_PRINT_STATS_INFO CURRENT_LAYER=1
;_SET_FAN_SPEED_CHANGING_LAYER
SET_VELOCITY_LIMIT ACCEL=500
G1 X36.227 Y90.901 F30000
G1 Z.6
G1 Z.2
G1 E.8 F1800
;TYPE:Skirt
;WIDTH:0.44
G1 F3000
G1 X265.356 Y90.901 E7.18693
G1 X266.607 Y91.292 E.04112
G1 X267.413 Y92.326 E.04112
G1 X267.542 Y93.331 E.03177
G1 X258.696 Y177.131 E2.64311
G1 X258.176 Y178.334 E.04112
M73 P0 R87
G1 X256.51 Y179.099 E.0575
G1 X13.49 Y179.099 E7.62267
G1 X12.239 Y178.708 E.04112
G1 X11.304 Y177.131 E.0575
G1 X2.458 Y93.331 E2.64311
G1 X2.715 Y92.045 E.04112
G1 X3.659 Y91.135 E.04112
G1 X4.644 Y90.901 E.03177
G1 X36.187 Y90.901 E.98939
; printing object Ali Box - front (2).step id:0 copy 0
G1 E-.56 F1800
;WIPE_START
G1 F3000
G1 X37.187 Y90.901 E-.24
;WIPE_END
EXCLUDE_OBJECT_START NAME=Ali_Box_-_front_2_.step_id_0_copy_0
G1 X41.334 Y97.309 Z.6 F30000
G1 X91.795 Y175.289 Z.6
G1 Z.2
G1 E.8 F1800
;TYPE:Inner wall
;WIDTH:0.439999
G1 F3000
G1 X14.94 Y175.289 E2.41065
G1 X6.435 Y94.711 E2.54147
G1 X263.565 Y94.711 E8.06526
G1 X255.06 Y175.289 E2.54147
G1 X178.205 Y175.289 E2.41065
G1 X177.977 Y174.721 E.01919
G1 X177.536 Y174.102 E.02384
G1 X177.306 Y173.909 E.00943
G1 X176.799 Y173.574 E.01905
G1 X176.38 Y173.416 E.01405
G1 X175.608 Y173.289 E.02454
G1 X94.392 Y173.289 E2.54745
G1 X94.118 Y173.316 E.00864
G1 X93.535 Y173.436 E.01867
G1 X93.122 Y173.623 E.0142
G1 X92.591 Y173.985 E.02017
G1 X92.31 Y174.292 E.01305
G1 X92.023 Y174.721 E.0162
G1 X91.81 Y175.252 E.01793
G1 X92.109 Y175.686 F30000
G1 F3000
G1 X14.583 Y175.686 E2.43172
G1 X5.994 Y94.314 E2.56652
G1 X264.006 Y94.314 E8.09294
G1 X255.417 Y175.686 E2.56652
G1 X177.891 Y175.686 E2.43172
G1 X177.78 Y175.237 E.0145
G1 X177.647 Y174.942 E.01016
G1 X177.359 Y174.513 E.0162
G1 X177.085 Y174.239 E.01215
G1 X176.657 Y173.953 E.01616
G1 X176.302 Y173.805 E.01207
G1 X175.608 Y173.686 E.02208
G1 X94.293 Y173.686 E2.55055
G1 X93.698 Y173.805 E.01903
G1 X93.343 Y173.953 E.01207
G1 X92.915 Y174.239 E.01616
G1 X92.641 Y174.513 E.01215
G1 X92.353 Y174.942 E.0162
G1 X92.22 Y175.237 E.01016
G1 X92.119 Y175.647 E.01324
G1 X92.469 Y176.024 F30000
G1 F3000
G1 X92.329 Y176.083 E.00477
G1 X14.225 Y176.083 E2.44983
G1 X5.552 Y93.917 E2.59156
G1 X264.448 Y93.917 E8.12061
M73 P1 R87
G1 X255.775 Y176.083 E2.59156
G1 X178.365 Y176.083 E2.42806
G1 X177.563 Y176.06 E.02516
G1 X177.486 Y175.672 E.01241
G1 X177.317 Y175.163 E.01682
G1 X177.029 Y174.734 E.0162
G1 X176.865 Y174.569 E.00729
G1 X176.437 Y174.283 E.01616
G1 X176.223 Y174.195 E.00724
G1 X175.608 Y174.083 E.01962
G1 X94.333 Y174.083 E2.54931
G1 X93.777 Y174.195 E.01779
G1 X93.563 Y174.283 E.00724
G1 X93.135 Y174.569 E.01616
G1 X92.971 Y174.734 E.00729
G1 X92.683 Y175.163 E.0162
G1 X92.514 Y175.672 E.01682
G1 X92.474 Y175.984 E.00988
G1 X92.665 Y176.391 F30000
;TYPE:Outer wall
G1 F3000
G1 X92.371 Y176.48 E.00963
G1 X13.868 Y176.48 E2.46236
G1 X5.111 Y93.52 E2.61661
G1 X264.889 Y93.52 E8.14829
G1 X256.132 Y176.48 E2.61661
G1 X178.021 Y176.48 E2.45005
M73 P1 R86
G1 X177.48 Y176.448 E.01701
G1 X177.287 Y176.361 E.00664
G1 X177.173 Y176.202 E.00615
G1 X177.108 Y175.805 E.01261
G1 X176.986 Y175.384 E.01374
G1 X176.645 Y174.9 E.01859
G1 X176.145 Y174.584 E.01853
G1 X175.608 Y174.48 E.01716
G1 X94.37 Y174.48 E2.54814
G1 X93.784 Y174.614 E.01886
G1 X93.301 Y174.954 E.01855
G1 X92.987 Y175.443 E.01821
G1 X92.801 Y176.258 E.02623
G1 X92.694 Y176.363 E.00473
G1 E-.56 F1800
;WIPE_START
G1 F3000
G1 X92.371 Y176.48 E-.0823
G1 X91.714 Y176.48 E-.1577
;WIPE_END
G1 X99.304 Y175.673 Z.6 F30000
G1 X216.567 Y163.209 Z.6
G1 Z.2
G1 E.8 F1800
;TYPE:Inner wall
G1 F3000
G1 X216.74 Y163.192 E.00546
G1 X217.254 Y163.222 E.01613
G1 X217.76 Y163.332 E.01627
G1 X218.23 Y163.515 E.01582
G1 X218.826 Y163.889 E.02205
G1 X219.274 Y164.304 E.01917
G1 X219.713 Y164.939 E.0242
G1 X219.955 Y165.501 E.01918
G1 X220.078 Y166.045 E.01751
G1 X220.108 Y166.593 E.01723
G1 X219.994 Y167.356 E.02418
G1 X219.785 Y167.93 E.01916
G1 X219.371 Y168.58 E.02418
G1 X219.138 Y168.839 E.01093
G1 X218.534 Y169.32 E.02421
G1 X218.04 Y169.57 E.01737
G1 X217.519 Y169.732 E.0171
G1 X216.962 Y169.807 E.01763
G1 X216.408 Y169.787 E.01737
G1 X215.811 Y169.655 E.0192
G1 X215.103 Y169.341 E.02428
G1 X214.615 Y168.981 E.01904
G1 X214.097 Y168.408 E.02421
G1 X213.796 Y167.877 E.01915
G1 X213.583 Y167.281 E.01987
G1 X213.496 Y166.705 E.01825
G1 X213.5 Y166.272 E.0136
G1 X213.647 Y165.514 E.02419
G1 X213.768 Y165.188 E.01091
G1 X214.015 Y164.718 E.01665
G1 X214.357 Y164.271 E.01766
G1 X214.767 Y163.892 E.01751
G1 X215.227 Y163.592 E.01723
G1 X215.872 Y163.335 E.02179
G1 X216.227 Y163.243 E.0115
G1 X216.528 Y163.213 E.00946
G1 X216.609 Y163.605 F30000
G1 F3000
G1 X216.762 Y163.59 E.00483
G1 X217.249 Y163.624 E.01532
G1 X217.725 Y163.74 E.01536
G1 X218.204 Y163.953 E.01645
G1 X218.629 Y164.236 E.01601
G1 X218.991 Y164.582 E.01569
G1 X219.378 Y165.151 E.0216
G1 X219.582 Y165.639 E.01658
G1 X219.699 Y166.197 E.01789
G1 X219.709 Y166.7 E.01578
G1 X219.604 Y167.282 E.01853
G1 X219.419 Y167.776 E.01656
G1 X219.045 Y168.354 E.02159
G1 X218.513 Y168.854 E.02289
G1 X218.061 Y169.127 E.01658
G1 X217.45 Y169.341 E.02029
G1 X216.962 Y169.409 E.01548
G1 X216.475 Y169.396 E.01529
G1 X215.957 Y169.286 E.01659
G1 X215.323 Y169.011 E.02169
G1 X214.899 Y168.703 E.01645
G1 X214.432 Y168.196 E.02161
G1 X214.168 Y167.739 E.01656
G1 X213.968 Y167.183 E.01851
G1 X213.892 Y166.682 E.01592
G1 X213.897 Y166.28 E.0126
G1 X214.033 Y165.605 E.02159
G1 X214.343 Y164.945 E.02287
G1 X214.663 Y164.524 E.01658
G1 X215.044 Y164.178 E.01614
G1 X215.47 Y163.91 E.0158
G1 X216.003 Y163.71 E.01785
G1 X216.277 Y163.637 E.00889
G1 X216.569 Y163.609 E.0092
G1 X216.641 Y163.998 F30000
G1 F3000
G1 X216.745 Y163.987 E.00328
G1 X217.166 Y164.013 E.01323
G1 X217.579 Y164.109 E.01329
G1 X217.985 Y164.284 E.01386
G1 X218.414 Y164.571 E.0162
G1 X218.772 Y164.939 E.01612
G1 X219.043 Y165.364 E.0158
G1 X219.229 Y165.839 E.016
G1 X219.308 Y166.292 E.01441
G1 X219.304 Y166.733 E.01386
G1 X219.2 Y167.266 E.01701
G1 X218.993 Y167.731 E.01598
G1 X218.674 Y168.184 E.01739
G1 X218.254 Y168.553 E.01753
G1 X217.779 Y168.82 E.01709
G1 X217.378 Y168.95 E.01321
G1 X216.962 Y169.012 E.01321
G1 X216.541 Y169.004 E.01321
G1 X216.104 Y168.917 E.01398
G1 X215.543 Y168.68 E.0191
G1 X215.182 Y168.425 E.01386
G1 X214.767 Y167.983 E.01902
G1 X214.54 Y167.6 E.01396
G1 X214.353 Y167.086 E.01716
G1 X214.288 Y166.61 E.01508
G1 X214.294 Y166.288 E.01009
G1 X214.42 Y165.696 E.019
G1 X214.695 Y165.129 E.01976
G1 X215.013 Y164.73 E.01602
G1 X215.366 Y164.436 E.01439
G1 X215.83 Y164.19 E.01647
G1 X216.31 Y164.034 E.01583
G1 X216.602 Y164.002 E.00921
G1 X216.682 Y164.389 F30000
;TYPE:Outer wall
G1 F3000
G1 X216.729 Y164.383 E.00149
G1 X217.083 Y164.401 E.01113
G1 X217.432 Y164.479 E.01122
G1 X217.765 Y164.615 E.01127
G1 X218.185 Y164.896 E.01585
G1 X218.449 Y165.17 E.01194
G1 X218.717 Y165.594 E.01572
G1 X218.847 Y165.948 E.01184
G1 X218.911 Y166.3 E.01122
G1 X218.914 Y166.659 E.01127
G1 X218.819 Y167.152 E.01575
G1 X218.667 Y167.505 E.01204
G1 X218.377 Y167.92 E.01587
G1 X217.994 Y168.253 E.01593
G1 X217.648 Y168.445 E.01242
G1 X217.312 Y168.559 E.01113
G1 X216.962 Y168.615 E.01113
G1 X216.607 Y168.613 E.01113
G1 X216.25 Y168.548 E.01137
G1 X215.763 Y168.35 E.01651
G1 X215.466 Y168.147 E.01127
G1 X215.103 Y167.77 E.01642
G1 X214.912 Y167.462 E.01137
G1 X214.738 Y166.989 E.0158
G1 X214.685 Y166.618 E.01175
G1 X214.691 Y166.297 E.01009
G1 X214.807 Y165.787 E.0164
G1 X215.047 Y165.313 E.01666
G1 X215.298 Y165.007 E.01243
G1 X215.571 Y164.776 E.01122
G1 X215.961 Y164.565 E.01388
G1 X216.377 Y164.425 E.01377
G1 X216.642 Y164.394 E.00838
G1 E-.56 F1800
;WIPE_START
G1 F3000
G1 X216.729 Y164.383 E-.02099
G1 X217.083 Y164.401 E-.0852
G1 X217.432 Y164.479 E-.08582
G1 X217.618 Y164.554 E-.048
;WIPE_END
G1 X217.302 Y156.928 Z.6 F30000
G1 X214.898 Y98.814 Z.6
G1 Z.2
G1 E.8 F1800
;TYPE:Inner wall
G1 F3000
G1 X215.424 Y98.497 E.01926
G1 X216 Y98.292 E.01918
G1 X216.766 Y98.197 E.02421
G1 X217.375 Y98.243 E.01915
G1 X217.91 Y98.385 E.01737
G1 X218.414 Y98.613 E.01737
G1 X218.874 Y98.923 E.01737
G1 X219.274 Y99.304 E.01735
G1 X219.713 Y99.939 E.02419
G1 X219.954 Y100.5 E.01917
G1 X220.097 Y101.258 E.0242
G1 X220.089 Y101.87 E.01919
G1 X219.982 Y102.413 E.01735
G1 X219.679 Y103.127 E.02433
G1 X219.336 Y103.628 E.01905
G1 X218.773 Y104.154 E.02418
G1 X218.252 Y104.475 E.01918
G1 X217.736 Y104.675 E.01736
G1 X216.976 Y104.802 E.02418
G1 X216.541 Y104.791 E.01366
G1 X216.04 Y104.724 E.01586
G1 X215.562 Y104.57 E.01572
G1 X215.068 Y104.32 E.01737
G1 X214.619 Y103.989 E.01751
G1 X214.237 Y103.593 E.01723
G1 X213.826 Y102.942 E.02418
G1 X213.607 Y102.366 E.01933
G1 X213.508 Y101.825 E.01722
G1 X213.526 Y101.055 E.02418
G1 X213.661 Y100.459 E.01917
G1 X213.991 Y99.761 E.0242
G1 X214.357 Y99.271 E.01918
G1 X214.763 Y98.895 E.01735
G1 X214.863 Y98.835 E.00368
G1 X214.947 Y99.265 F30000
G1 F3000
G1 X215.022 Y99.196 E.00322
G1 X215.615 Y98.845 E.0216
G1 X216.115 Y98.672 E.01658
G1 X216.799 Y98.593 E.02161
G1 X217.325 Y98.637 E.01656
G1 X217.95 Y98.826 E.02047
G1 X218.38 Y99.055 E.01529
G1 X218.766 Y99.353 E.01529
G1 X219.119 Y99.744 E.01655
G1 X219.47 Y100.338 E.02161
G1 X219.634 Y100.839 E.01656
G1 X219.714 Y101.425 E.01855
G1 X219.684 Y101.932 E.01592
G1 X219.552 Y102.461 E.01711
G1 X219.32 Y102.957 E.01719
G1 X219.02 Y103.388 E.01645
G1 X218.513 Y103.854 E.02159
G1 X218.061 Y104.127 E.01658
G1 X217.587 Y104.307 E.01589
G1 X216.926 Y104.408 E.02098
G1 X216.271 Y104.357 E.0206
G1 X215.693 Y104.195 E.01884
G1 X215.244 Y103.964 E.01583
G1 X214.834 Y103.651 E.01618
G1 X214.494 Y103.282 E.01573
G1 X214.17 Y102.743 E.01973
G1 X213.985 Y102.243 E.01671
G1 X213.892 Y101.67 E.01822
G1 X213.923 Y101.08 E.01855
G1 X214.044 Y100.565 E.01657
G1 X214.343 Y99.945 E.0216
G1 X214.663 Y99.524 E.01658
G1 X214.917 Y99.292 E.0108
G1 X215.243 Y99.54 F30000
G1 F3000
G1 X215.384 Y99.425 E.00571
G1 X215.921 Y99.145 E.01902
G1 X216.352 Y99.029 E.01398
G1 X216.882 Y98.986 E.01668
G1 X217.373 Y99.052 E.01553
G1 X217.773 Y99.182 E.01321
G1 X218.147 Y99.376 E.01321
G1 X218.482 Y99.63 E.01321
G1 X218.784 Y99.957 E.01395
G1 X219.098 Y100.476 E.01902
G1 X219.241 Y100.897 E.01396
G1 X219.318 Y101.44 E.01718
G1 X219.282 Y101.919 E.01507
G1 X219.168 Y102.349 E.01397
G1 X218.948 Y102.814 E.01612
G1 X218.633 Y103.226 E.01627
G1 X218.254 Y103.553 E.01571
G1 X217.809 Y103.808 E.01609
G1 X217.354 Y103.954 E.01497
G1 X216.856 Y104.017 E.01576
G1 X216.321 Y103.963 E.01686
G1 X215.824 Y103.82 E.01624
G1 X215.383 Y103.581 E.01573
G1 X215.041 Y103.299 E.01391
G1 X214.78 Y103.002 E.01239
G1 X214.514 Y102.544 E.0166
G1 X214.34 Y102.024 E.01719
G1 X214.289 Y101.586 E.01386
G1 X214.326 Y101.045 E.01699
G1 X214.472 Y100.557 E.016
G1 X214.764 Y100.025 E.01902
G1 X215.039 Y99.706 E.01321
G1 X215.212 Y99.566 E.00699
G1 X215.488 Y99.847 F30000
;TYPE:Outer wall
G1 F3000
G1 X215.575 Y99.773 E.00358
G1 X216.036 Y99.525 E.01642
G1 X216.385 Y99.424 E.01138
G1 X216.907 Y99.385 E.01642
G1 X217.258 Y99.432 E.01111
G1 X217.597 Y99.537 E.01113
G1 X217.913 Y99.697 E.01113
G1 X218.199 Y99.908 E.01113
G1 X218.449 Y100.17 E.01136
G1 X218.726 Y100.614 E.01642
G1 X218.848 Y100.956 E.01137
G1 X218.921 Y101.454 E.01581
G1 X218.895 Y101.828 E.01175
G1 X218.808 Y102.18 E.01137
G1 X218.593 Y102.635 E.0158
G1 X218.359 Y102.938 E.01199
G1 X217.98 Y103.264 E.0157
G1 X217.511 Y103.493 E.01636
G1 X217.304 Y103.56 E.00682
G1 X216.804 Y103.622 E.01582
G1 X216.298 Y103.56 E.01598
G1 X215.924 Y103.431 E.01242
G1 X215.614 Y103.258 E.01113
G1 X215.336 Y103.033 E.01122
G1 X215.107 Y102.777 E.01078
G1 X214.853 Y102.338 E.01591
G1 X214.733 Y101.967 E.01224
G1 X214.685 Y101.61 E.01127
G1 X214.717 Y101.109 E.01575
G1 X214.824 Y100.74 E.01205
G1 X215.07 Y100.278 E.01642
G1 X215.298 Y100.007 E.01113
G1 X215.458 Y99.873 E.00653
G1 E-.56 F1800
;WIPE_START
G1 F3000
G1 X215.575 Y99.773 E-.03698
G1 X216.036 Y99.525 E-.12564
G1 X216.346 Y99.435 E-.07739
;WIPE_END
G1 X208.718 Y99.683 Z.6 F30000
G1 X158.317 Y101.322 Z.6
G1 Z.2
G1 E.8 F1800
;WIDTH:0.38292
G1 F3000
G1 X157.846 Y101.35 E.01267
G1 X157.415 Y101.323 E.0116
G1 E-.56 F1800
;WIPE_START
G1 F3000
G1 X157.846 Y101.35 E-.11471
G1 X158.317 Y101.322 E-.12529
;WIPE_END
G1 X157.93 Y108.945 Z.6 F30000
G1 X157.478 Y117.87 Z.6
G1 Z.2
G1 E.8 F1800
G1 F3000
G1 X158.232 Y117.869 E.02025
G1 E-.56 F1800
;WIPE_START
G1 F3000
G1 X157.478 Y117.87 E-.24
;WIPE_END
G1 X161.268 Y111.245 Z.6 F30000
G1 X163.873 Y106.69 Z.6
G1 Z.2
G1 E.8 F1800
;TYPE:Inner wall
;WIDTH:0.439999
G1 F3000
G1 X163.873 Y117.922 E.35229
G1 X163.8 Y118.367 E.01416
G1 X163.597 Y118.753 E.01367
G1 X163.278 Y119.062 E.01393
G1 X162.905 Y119.246 E.01304
G1 X162.48 Y119.311 E.0135
G1 X161.138 Y119.308 E.04209
G1 X161.169 Y119.74 E.01357
G1 X161.116 Y120.297 E.01756
G1 X160.971 Y120.832 E.0174
G1 X160.761 Y121.299 E.01604
G1 X160.431 Y121.779 E.01827
G1 X160.007 Y122.219 E.01918
G1 X159.553 Y122.544 E.01751
G1 X159.059 Y122.785 E.01723
G1 X158.312 Y122.974 E.02418
G1 X157.701 Y123.005 E.01917
G1 X156.941 Y122.874 E.0242
G1 X156.371 Y122.654 E.01917
G1 X155.924 Y122.366 E.01668
G1 X155.513 Y122.031 E.01663
G1 X155.178 Y121.638 E.01621
G1 X154.887 Y121.14 E.01809
G1 X154.669 Y120.568 E.01919
G1 X154.569 Y120.022 E.01741
G1 X154.566 Y119.452 E.01788
G1 X154.585 Y119.308 E.00456
G1 X153.244 Y119.311 E.04208
G1 X152.801 Y119.24 E.01407
G1 X152.4 Y119.029 E.01421
G1 X152.1 Y118.716 E.01359
G1 X151.906 Y118.309 E.01416
G1 X151.851 Y117.922 E.01227
G1 X151.851 Y101.279 E.52203
G1 X151.931 Y100.813 E.01482
G1 X152.116 Y100.462 E.01245
G1 X152.447 Y100.137 E.01454
G1 X152.919 Y99.927 E.01621
G1 X153.244 Y99.889 E.01026
G1 X154.595 Y99.892 E.0424
G1 X154.559 Y99.318 E.01804
G1 X154.625 Y98.809 E.01611
G1 X154.767 Y98.322 E.0159
G1 X155.052 Y97.76 E.01978
G1 X155.418 Y97.27 E.01918
G1 X155.824 Y96.894 E.01735
G1 X156.485 Y96.496 E.0242
G1 X157.065 Y96.289 E.01933
G1 X157.827 Y96.195 E.02409
G1 X158.436 Y96.242 E.01913
G1 X158.971 Y96.383 E.01737
G1 X159.475 Y96.611 E.01735
G1 X160.098 Y97.066 E.0242
G1 X160.51 Y97.517 E.01917
G1 X160.894 Y98.186 E.02419
G1 X161.088 Y98.767 E.0192
G1 X161.165 Y99.318 E.01746
G1 X161.144 Y99.89 E.01794
G1 X162.48 Y99.889 E.04189
G1 X162.805 Y99.927 E.01026
G1 X163.277 Y100.137 E.01621
G1 X163.608 Y100.462 E.01454
G1 X163.793 Y100.813 E.01245
G1 X163.873 Y101.279 E.01482
G1 X163.873 Y106.65 E.16849
G1 E-.56 F1800
