; HEADER_BLOCK_START
; generated by OrcaSlicer 2.3.0 on 2025-09-13 at 17:44:46
; total layer number: 55
;_GP_TOTAL_LAYER_NUMBER_PLACEHOLDER
; filament_density: 1.02,1.27,1.02,1.24,1.24,1.24
; filament_diameter: 1.75,1.75,1.75,1.75,1.75,1.75
; max_z_height: 11.00
; HEADER_BLOCK_END

; THUMBNAIL_BLOCK_START

;
; THUMBNAIL_BLOCK_END

; external perimeters extrusion width = 0.42mm
; perimeters extrusion width = 0.45mm
; infill extrusion width = 0.45mm
; solid infill extrusion width = 0.42mm
; top infill extrusion width = 0.42mm
; first layer extrusion width = 0.44mm

; EXECUTABLE_BLOCK_START
EXCLUDE_OBJECT_DEFINE NAME=Ali_Box_-_front_3_.step_id_0_copy_0 CENTER=135,135 POLYGON=[[4.53334,93],[265.467,93],[256.6,177],[13.4,177],[4.53334,93]]
M73 P0 R102
M106 S0
M106 P2 S0
;TYPE:Custom
PRINT_START BED=100 HOTEND=260 CHAMBER=60 EXTRUDER=0
SET_PRINT_STATS_INFO TOTAL_LAYER=55
M83
M140 S100
M104 S260
M141 S60
G4 P3000
T0
G1 X108.000 Y1 F30000
G0 Z0.2 F600
;G1 E3 F1800
G90
M83
G0 X128 E8  F904.991
G0 X133 E.3742  F1508.32
G0 X138 E.3742  F6033.27
G0 X143 E.3742  F1508.32
G0 X148 E.3742  F6033.27
G0 X153 E.3742  F1508.32
G91
G1 X1 Z-0.300
G1 X4
G1 Z1 F1200
G90
M400
G1 X108.000 Y2.5 F30000
G0 Z0.2 F600
M83
G0 X128 E10  F904.991
G0 X133 E.3742  F1508.32
G0 X138 E.3742  F6033.27
G0 X143 E.3742  F1508.32
G0 X148 E.3742  F6033.27
G0 X153 E.3742  F1508.32
G91
G1 X1 Z-0.300
G1 X4
G1 Z1 F1200
G90
M400
G1 Z1 F600
M106 P3 S178
G90
G21
M83 ; use relative distances for extrusion
; Filament gcode
SET_PRESSURE_ADVANCE ADVANCE=0.025; Override pressure advance value
T0
M106 P2 S0
;LAYER_CHANGE
;Z:0.2
;HEIGHT:0.2
;BEFORE_LAYER_CHANGE
;0.2
G92 E0

G1 E-.8 F1800
 ; timelapse without wipe tower
TIMELAPSE_TAKE_FRAME

G92 E0
SET_PRINT_STATS_INFO CURRENT_LAYER=1
;_SET_FAN_SPEED_CHANGING_LAYER
SET_VELOCITY_LIMIT ACCEL=500
G1 X36.227 Y90.901 F30000
G1 Z.6
G1 Z.2
G1 E.8 F1800
;TYPE:Skirt
;WIDTH:0.44
G1 F3000
G1 X265.356 Y90.901 E7.18693
G1 X266.607 Y91.292 E.04112
G1 X267.413 Y92.326 E.04112
G1 X267.542 Y93.331 E.03177
G1 X258.696 Y177.131 E2.64311
G1 X258.176 Y178.334 E.04112
G1 X256.51 Y179.099 E.0575
G1 X13.49 Y179.099 E7.62267
G1 X12.239 Y178.708 E.04112
G1 X11.304 Y177.131 E.0575
G1 X2.458 Y93.331 E2.64311
G1 X2.715 Y92.045 E.04112
G1 X3.659 Y91.135 E.04112
G1 X4.644 Y90.901 E.03177
G1 X36.187 Y90.901 E.98939
; printing object Ali Box - front (3).step id:0 copy 0
G1 E-.56 F1800
;WIPE_START
G1 F3000
G1 X37.187 Y90.901 E-.24
;WIPE_END
EXCLUDE_OBJECT_START NAME=Ali_Box_-_front_3_.step_id_0_copy_0
G1 X43.735 Y94.823 Z.6 F30000
G1 X178.167 Y175.339 Z.6
G1 Z.2
G1 E.8 F1800
;TYPE:Inner wall
;WIDTH:0.439999
G1 F3000
G1 X177.93 Y174.741 E.02018
G1 X177.501 Y174.137 E.02323
G1 X177.271 Y173.944 E.00943
G1 X176.715 Y173.585 E.02075
G1 X176.261 Y173.443 E.01492
G1 X175.606 Y173.339 E.0208
G1 X94.394 Y173.339 E2.54735
G1 X94.12 Y173.366 E.00862
G1 X93.554 Y173.482 E.01812
G1 X93.142 Y173.669 E.0142
G1 X92.499 Y174.137 E.02494
G1 X92.07 Y174.741 E.02323
G1 X91.833 Y175.339 E.02018
G1 X14.895 Y175.339 E2.41326
G1 X6.379 Y94.661 E2.54462
G1 X263.621 Y94.661 E8.06874
M73 P0 R101
G1 X255.105 Y175.339 E2.54462
G1 X178.207 Y175.339 E2.412
G1 X177.86 Y175.736 F30000
G1 F3000
G1 X177.734 Y175.256 E.01556
G1 X177.6 Y174.961 E.01016
G1 X177.324 Y174.548 E.01559
G1 X177.05 Y174.275 E.01215
G1 X176.535 Y173.94 E.01926
G1 X176.183 Y173.832 E.01156
G1 X175.606 Y173.736 E.01834
G1 X107.362 Y173.736 E2.14059
G1 X94.296 Y173.736 E.40982
G1 X93.718 Y173.852 E.0185
G1 X93.362 Y173.999 E.01208
G1 X92.785 Y174.412 E.02225
G1 X92.4 Y174.961 E.02104
G1 X92.266 Y175.256 E.01016
G1 X92.151 Y175.736 E.01547
G1 X14.538 Y175.736 E2.43445
G1 X5.938 Y94.264 E2.56967
G1 X264.062 Y94.264 E8.09642
G1 X255.462 Y175.736 E2.56967
G1 X177.9 Y175.736 E2.43283
G1 X177.522 Y176.099 F30000
G1 F3000
G1 X177.436 Y175.678 E.01345
G1 X177.27 Y175.182 E.01641
G1 X176.874 Y174.637 E.02113
G1 X176.417 Y174.33 E.01726
G1 X176.105 Y174.221 E.01038
G1 X175.606 Y174.133 E.01588
G1 X107.362 Y174.133 E2.14059
G1 X94.335 Y174.133 E.4086
G1 X93.796 Y174.241 E.01725
G1 X93.614 Y174.31 E.00612
G1 X93.17 Y174.605 E.01669
G1 X93.006 Y174.769 E.00729
G1 X92.65 Y175.359 E.02162
G1 X92.506 Y176.068 E.02269
G1 X92.331 Y176.133 E.00587
G1 X14.18 Y176.133 E2.45129
G1 X5.497 Y93.867 E2.59472
G1 X264.503 Y93.867 E8.1241
G1 X255.82 Y176.133 E2.59472
G1 X177.86 Y176.133 E2.4453
M73 P1 R101
G1 X177.562 Y176.103 E.00941
G1 X177.255 Y176.399 F30000
;TYPE:Outer wall
G1 F3000
G1 X177.128 Y176.222 E.00681
G1 X177.058 Y175.811 E.01309
G1 X176.94 Y175.403 E.01332
G1 X176.609 Y174.935 E.01798
G1 X176.126 Y174.63 E.01792
G1 X175.606 Y174.53 E.01659
G1 X107.362 Y174.53 E2.14059
G1 X94.372 Y174.53 E.40745
G1 X93.803 Y174.66 E.01829
G1 X93.336 Y174.99 E.01793
G1 X93.033 Y175.462 E.0176
G1 X92.913 Y176.073 E.01954
G1 X92.844 Y176.285 E.00699
G1 X92.692 Y176.433 E.00663
G1 X92.373 Y176.53 E.01048
G1 X13.823 Y176.53 E2.46382
G1 X5.056 Y93.47 E2.61977
G1 X264.944 Y93.47 E8.15178
G1 X256.177 Y176.53 E2.61977
G1 X178.028 Y176.53 E2.45124
G1 X177.468 Y176.496 E.0176
G1 X177.291 Y176.415 E.0061
G1 E-.56 F1800
;WIPE_START
G1 F3000
G1 X177.128 Y176.222 E-.06066
G1 X177.058 Y175.811 E-.10012
G1 X176.966 Y175.494 E-.07921
;WIPE_END
G1 X184.519 Y174.391 Z.6 F30000
G1 X218.033 Y169.498 Z.6
G1 Z.2
G1 E.8 F1800
;TYPE:Inner wall
G1 F3000
G1 X217.515 Y169.678 E.01718
G1 X216.917 Y169.758 E.01892
G1 X216.373 Y169.732 E.01711
G1 X215.84 Y169.615 E.01711
G1 X215.33 Y169.409 E.01725
G1 X214.869 Y169.126 E.01696
G1 X214.317 Y168.606 E.02379
G1 X213.969 Y168.114 E.01891
G1 X213.676 Y167.414 E.0238
G1 X213.558 Y166.823 E.01891
G1 X213.576 Y166.06 E.02394
G1 X213.708 Y165.476 E.01879
G1 X214.032 Y164.79 E.02379
G1 X214.458 Y164.233 E.02197
G1 X214.846 Y163.892 E.01622
G1 X215.27 Y163.624 E.01572
G1 X215.885 Y163.383 E.02073
G1 X216.238 Y163.292 E.01142
G1 X216.743 Y163.242 E.01591
G1 X217.247 Y163.271 E.01586
G1 X217.746 Y163.38 E.01601
G1 X218.24 Y163.575 E.01666
G1 X218.793 Y163.927 E.02056
G1 X219.236 Y164.336 E.01891
G1 X219.668 Y164.96 E.0238
G1 X219.906 Y165.514 E.01891
G1 X220.047 Y166.259 E.0238
G1 X220.04 Y166.862 E.01891
G1 X219.863 Y167.605 E.02394
G1 X219.613 Y168.149 E.01879
G1 X219.153 Y168.752 E.02379
G1 X218.7 Y169.15 E.01892
G1 X218.232 Y169.429 E.01709
G1 X218.07 Y169.485 E.00537
G1 X217.897 Y169.13 F30000
G1 F3000
G1 X217.4 Y169.298 E.01645
G1 X216.884 Y169.363 E.01632
G1 X216.242 Y169.309 E.02021
G1 X215.781 Y169.176 E.01506
G1 X215.347 Y168.967 E.01509
G1 X214.93 Y168.664 E.01619
G1 X214.472 Y168.165 E.02122
G1 X214.212 Y167.716 E.01629
G1 X214.016 Y167.172 E.01812
G1 X213.94 Y166.621 E.01743
G1 X213.973 Y166.085 E.01686
G1 X214.091 Y165.582 E.01619
G1 X214.384 Y164.974 E.0212
G1 X214.773 Y164.479 E.01972
G1 X215.164 Y164.153 E.01598
G1 X215.601 Y163.903 E.0158
G1 X216.085 Y163.734 E.01608
G1 X216.598 Y163.647 E.01632
G1 X217.115 Y163.655 E.01622
G1 X217.612 Y163.755 E.0159
G1 X218.09 Y163.944 E.01611
G1 X218.573 Y164.258 E.01809
G1 X218.952 Y164.614 E.0163
G1 X219.333 Y165.173 E.02121
G1 X219.534 Y165.652 E.01631
G1 X219.654 Y166.317 E.02121
G1 X219.643 Y166.837 E.0163
G1 X219.481 Y167.498 E.02133
G1 X219.261 Y167.965 E.01619
G1 X218.847 Y168.499 E.0212
G1 X218.453 Y168.839 E.01632
G1 X218.041 Y169.081 E.01501
G1 X217.935 Y169.117 E.0035
G1 X217.842 Y168.727 F30000
G1 F3000
G1 X217.735 Y168.782 E.00378
G1 X217.216 Y168.934 E.01696
G1 X216.751 Y168.967 E.01462
G1 X216.341 Y168.924 E.01294
G1 X215.943 Y168.813 E.01297
G1 X215.567 Y168.636 E.01302
G1 X215.213 Y168.386 E.0136
G1 X214.807 Y167.953 E.01862
G1 X214.584 Y167.577 E.0137
G1 X214.401 Y167.075 E.01676
G1 X214.339 Y166.582 E.01559
G1 X214.373 Y166.066 E.01623
G1 X214.519 Y165.574 E.01608
G1 X214.756 Y165.122 E.01601
G1 X215.075 Y164.741 E.01559
G1 X215.395 Y164.476 E.01302
G1 X215.851 Y164.236 E.01616
G1 X216.336 Y164.08 E.01599
G1 X216.748 Y164.037 E.01299
G1 X217.16 Y164.062 E.01297
G1 X217.564 Y164.157 E.01302
G1 X217.962 Y164.329 E.0136
G1 X218.382 Y164.609 E.0158
G1 X218.734 Y164.971 E.01586
G1 X219.007 Y165.401 E.01598
G1 X219.187 Y165.877 E.01596
G1 X219.261 Y166.375 E.01581
G1 X219.226 Y166.935 E.0176
G1 X219.08 Y167.447 E.0167
G1 X218.841 Y167.884 E.01561
G1 X218.452 Y168.333 E.01862
G1 X218.124 Y168.583 E.01294
G1 X217.878 Y168.708 E.00867
G1 X217.666 Y168.377 F30000
;TYPE:Outer wall
G1 F3000
G1 X217.62 Y168.401 E.00163
G1 X217.13 Y168.545 E.01603
G1 X216.784 Y168.571 E.01086
G1 X216.44 Y168.54 E.01086
G1 X216.105 Y168.451 E.01087
G1 X215.787 Y168.306 E.01095
G1 X215.497 Y168.108 E.01101
G1 X215.143 Y167.74 E.01603
G1 X214.957 Y167.439 E.0111
G1 X214.782 Y166.958 E.01603
G1 X214.735 Y166.607 E.01111
G1 X214.769 Y166.107 E.01572
G1 X214.871 Y165.758 E.01141
G1 X215.102 Y165.32 E.01554
G1 X215.334 Y165.042 E.01137
G1 X215.601 Y164.816 E.01095
G1 X215.981 Y164.611 E.01356
G1 X216.387 Y164.474 E.01343
G1 X216.731 Y164.433 E.01086
G1 X217.077 Y164.451 E.01087
G1 X217.418 Y164.526 E.01095
G1 X217.743 Y164.66 E.01101
G1 X218.161 Y164.942 E.01583
G1 X218.41 Y165.202 E.0113
G1 X218.678 Y165.628 E.01578
G1 X218.8 Y165.969 E.01136
G1 X218.87 Y166.475 E.01603
G1 X218.844 Y166.828 E.01111
G1 X218.701 Y167.322 E.01612
G1 X218.535 Y167.631 E.01101
G1 X218.206 Y168.022 E.01603
G1 X217.932 Y168.235 E.01086
G1 X217.701 Y168.358 E.00823
G1 E-.56 F1800
;WIPE_START
G1 F3000
G1 X217.62 Y168.401 E-.02204
G1 X217.13 Y168.545 E-.12263
G1 X216.784 Y168.571 E-.08312
G1 X216.734 Y168.567 E-.01221
;WIPE_END
G1 X217.07 Y160.942 Z.6 F30000
G1 X219.754 Y100.143 Z.6
G1 Z.2
G1 E.8 F1800
;TYPE:Inner wall
G1 F3000
G1 X219.816 Y100.275 E.00456
G1 X220 Y100.868 E.01949
G1 X220.062 Y101.438 E.01799
G1 X220.027 Y101.984 E.01715
G1 X219.906 Y102.5 E.01664
G1 X219.637 Y103.1 E.02061
G1 X219.299 Y103.595 E.01879
G1 X218.745 Y104.113 E.02378
G1 X218.232 Y104.429 E.01892
G1 X217.724 Y104.627 E.01709
G1 X216.976 Y104.752 E.02379
G1 X216.543 Y104.742 E.0136
G1 X216.016 Y104.667 E.01667
G1 X215.523 Y104.502 E.01633
G1 X215.074 Y104.267 E.01588
G1 X214.653 Y103.952 E.01649
G1 X214.277 Y103.563 E.01697
G1 X213.872 Y102.922 E.02378
G1 X213.656 Y102.354 E.01907
G1 X213.558 Y101.822 E.01696
G1 X213.575 Y101.064 E.02379
G1 X213.708 Y100.476 E.01891
G1 X214.032 Y99.79 E.0238
G1 X214.393 Y99.306 E.01892
G1 X214.792 Y98.936 E.01709
G1 X215.442 Y98.544 E.0238
G1 X216.01 Y98.341 E.01892
G1 X216.548 Y98.253 E.01711
G1 X217.094 Y98.256 E.01711
G1 X217.631 Y98.35 E.01709
G1 X218.336 Y98.631 E.0238
G1 X218.841 Y98.961 E.01893
G1 X219.236 Y99.336 E.01709
G1 X219.668 Y99.959 E.02378
G1 X219.737 Y100.107 E.00512
G1 X219.436 Y100.409 F30000
G1 F3000
G1 X219.584 Y100.844 E.01442
G1 X219.66 Y101.359 E.01632
G1 X219.634 Y101.924 E.01776
G1 X219.504 Y102.445 E.01685
G1 X219.277 Y102.931 E.01679
G1 X218.983 Y103.354 E.01619
G1 X218.486 Y103.812 E.02119
G1 X218.041 Y104.082 E.01632
G1 X217.556 Y104.264 E.01625
G1 X216.926 Y104.358 E.01997
G1 X216.281 Y104.308 E.02028
G1 X215.713 Y104.149 E.01851
G1 X215.257 Y103.913 E.01611
G1 X214.852 Y103.6 E.01606
G1 X214.514 Y103.226 E.01583
G1 X214.216 Y102.724 E.01831
G1 X214.034 Y102.232 E.01645
G1 X213.942 Y101.667 E.01796
G1 X213.972 Y101.089 E.01815
G1 X214.09 Y100.583 E.0163
G1 X214.384 Y99.974 E.02121
G1 X214.699 Y99.559 E.01632
G1 X215.052 Y99.236 E.01501
G1 X215.634 Y98.892 E.02121
G1 X216.125 Y98.721 E.01632
G1 X216.723 Y98.639 E.01892
G1 X217.242 Y98.674 E.01633
G1 X217.745 Y98.803 E.01629
G1 X218.354 Y99.098 E.02122
G1 X218.733 Y99.39 E.01503
G1 X219.081 Y99.776 E.01629
G1 X219.395 Y100.286 E.01878
G1 X219.423 Y100.371 E.0028
G1 X219.063 Y100.537 F30000
G1 F3000
G1 X219.206 Y100.967 E.0142
G1 X219.267 Y101.5 E.01683
G1 X219.232 Y101.911 E.01295
G1 X219.12 Y102.334 E.01371
G1 X218.905 Y102.787 E.01573
G1 X218.595 Y103.192 E.016
G1 X218.212 Y103.523 E.0159
G1 X217.773 Y103.769 E.01576
G1 X217.342 Y103.905 E.0142
G1 X216.842 Y103.968 E.01578
G1 X216.331 Y103.914 E.01612
G1 X215.844 Y103.774 E.0159
G1 X215.403 Y103.533 E.01577
G1 X215.075 Y103.262 E.01333
G1 X214.832 Y102.989 E.01147
G1 X214.56 Y102.525 E.01688
G1 X214.389 Y102.013 E.01693
G1 X214.339 Y101.582 E.0136
G1 X214.375 Y101.055 E.0166
G1 X214.519 Y100.574 E.01574
G1 X214.805 Y100.054 E.01862
G1 X215.075 Y99.741 E.01294
G1 X215.413 Y99.466 E.0137
G1 X215.94 Y99.191 E.01862
G1 X216.337 Y99.08 E.01294
G1 X216.748 Y99.037 E.01294
G1 X217.159 Y99.062 E.01294
G1 X217.584 Y99.166 E.0137
G1 X218.121 Y99.419 E.01862
G1 X218.45 Y99.668 E.01295
G1 X218.746 Y99.989 E.01369
G1 X219.034 Y100.453 E.01715
G1 X219.05 Y100.5 E.00152
G1 X218.69 Y100.664 F30000
;TYPE:Outer wall
G1 F3000
G1 X218.837 Y101.13 E.01533
G1 X218.87 Y101.475 E.01086
G1 X218.846 Y101.821 E.01087
G1 X218.761 Y102.164 E.01111
G1 X218.542 Y102.621 E.0159
G1 X218.322 Y102.904 E.01123
G1 X217.937 Y103.232 E.01585
G1 X217.495 Y103.445 E.01542
G1 X217.292 Y103.511 E.00669
G1 X216.793 Y103.572 E.01576
G1 X216.295 Y103.509 E.01574
G1 X215.944 Y103.386 E.01167
G1 X215.642 Y103.216 E.01087
G1 X215.37 Y102.997 E.01095
G1 X215.151 Y102.752 E.0103
G1 X214.899 Y102.318 E.01573
G1 X214.782 Y101.955 E.01197
G1 X214.735 Y101.607 E.01101
G1 X214.771 Y101.098 E.01603
G1 X214.871 Y100.758 E.01111
G1 X215.111 Y100.307 E.01603
G1 X215.334 Y100.042 E.01086
G1 X215.605 Y99.814 E.0111
G1 X216.055 Y99.571 E.01603
G1 X216.387 Y99.474 E.01086
G1 X216.731 Y99.433 E.01086
G1 X217.077 Y99.451 E.01086
G1 X217.422 Y99.529 E.01111
G1 X217.887 Y99.74 E.01603
G1 X218.166 Y99.946 E.01087
G1 X218.41 Y100.202 E.0111
G1 X218.674 Y100.628 E.01571
G1 E-.56 F1800
;WIPE_START
G1 F3000
G1 X218.837 Y101.13 E-.12676
G1 X218.87 Y101.475 E-.08313
G1 X218.862 Y101.6 E-.03011
;WIPE_END
G1 X211.229 Y101.565 Z.6 F30000
G1 X158.317 Y101.322 Z.6
G1 Z.2
G1 E.8 F1800
;WIDTH:0.38292
G1 F3000
G1 X157.846 Y101.35 E.01267
G1 X157.415 Y101.323 E.0116
G1 E-.56 F1800
;WIPE_START
G1 F3000
G1 X157.846 Y101.35 E-.11471
G1 X158.317 Y101.322 E-.12529
;WIPE_END
G1 X157.93 Y108.945 Z.6 F30000
G1 X157.478 Y117.87 Z.6
G1 Z.2
G1 E.8 F1800
G1 F3000
G1 X158.232 Y117.869 E.02026
G1 E-.56 F1800
;WIPE_START
G1 F3000
G1 X157.478 Y117.87 E-.24
;WIPE_END
G1 X151.901 Y113.981 Z.6 F30000
G1 Z.2
G1 E.8 F1800
;TYPE:Inner wall
;WIDTH:0.439999
G1 F3000
G1 X151.901 Y101.329 E.39687
G1 X151.98 Y100.866 E.01471
G1 X152.162 Y100.518 E.01234
G1 X152.487 Y100.194 E.0144
G1 X152.953 Y99.98 E.01607
G1 X153.299 Y99.939 E.01092
G1 X154.64 Y99.947 E.04206
G1 X154.609 Y99.317 E.01977
G1 X154.685 Y98.776 E.01715
G1 X154.876 Y98.204 E.0189
G1 X155.254 Y97.546 E.02382
G1 X155.616 Y97.139 E.01711
G1 X156.091 Y96.768 E.01889
G1 X156.773 Y96.429 E.02387
G1 X157.36 Y96.284 E.01898
G1 X157.941 Y96.24 E.01825
G1 X158.653 Y96.339 E.02255
G1 X159.169 Y96.515 E.01711
G1 X159.694 Y96.81 E.01889
G1 X160.27 Y97.305 E.02383
G1 X160.63 Y97.787 E.01888
G1 X160.911 Y98.343 E.01951
G1 X161.057 Y98.848 E.0165
G1 X161.119 Y99.562 E.02249
G1 X161.084 Y99.947 E.01211
G1 X162.425 Y99.939 E.04206
G1 X162.771 Y99.98 E.01092
G1 X163.236 Y100.194 E.01607
G1 X163.562 Y100.518 E.0144
G1 X163.744 Y100.866 E.01234
G1 X163.823 Y101.329 E.01471
G1 X163.823 Y117.872 E.5189
G1 X163.749 Y118.319 E.01422
G1 X163.534 Y118.72 E.01426
G1 X163.204 Y119.028 E.01417
G1 X162.871 Y119.191 E.01163
G1 X162.425 Y119.261 E.01417
G1 X161.085 Y119.253 E.04204
G1 X161.103 Y119.996 E.0233
G1 X160.995 Y120.595 E.0191
G1 X160.802 Y121.106 E.01712
G1 X160.526 Y121.576 E.01709
G1 X160.074 Y122.081 E.02127
G1 X159.792 Y122.325 E.0117
G1 X159.361 Y122.595 E.01594
G1 X158.888 Y122.795 E.01611
G1 X158.308 Y122.925 E.01866
G1 X157.706 Y122.955 E.01891
G1 X156.957 Y122.827 E.02381
G1 X156.395 Y122.61 E.0189
G1 X155.764 Y122.189 E.0238
G1 X155.338 Y121.762 E.01891
M73 P1 R100
G1 X154.933 Y121.121 E.0238
G1 X154.718 Y120.557 E.01892
G1 X154.619 Y120.019 E.01714
G1 X154.613 Y119.467 E.01733
G1 X154.638 Y119.253 E.00674
G1 X153.299 Y119.261 E.04202
G1 X152.775 Y119.162 E.01672
G1 X152.412 Y118.949 E.01322
G1 X152.116 Y118.615 E.01397
G1 X151.941 Y118.205 E.014
G1 X151.901 Y117.872 E.01053
G1 X151.901 Y114.021 E.12078
G1 X152.298 Y114.845 F30000
G1 F3000
G1 X152.298 Y101.329 E.42395
G1 X152.354 Y100.998 E.01051
