; HEADER_BLOCK_START
; generated by OrcaSlicer 2.3.1 on 2025-10-14 at 20:00:18
; total layer number: 25
; filament_density: 1.24,1.02,1.02,1.24,1.24,1.24
; filament_diameter: 1.75,1.75,1.75,1.75,1.75,1.75
; max_z_height: 5.00
; HEADER_BLOCK_END

; THUMBNAIL_BLOCK_START

;
; THUMBNAIL_BLOCK_END

; external perimeters extrusion width = 0.42mm
; perimeters extrusion width = 0.45mm
; infill extrusion width = 0.45mm
; solid infill extrusion width = 0.42mm
; top infill extrusion width = 0.42mm
; first layer extrusion width = 0.44mm

; EXECUTABLE_BLOCK_START
EXCLUDE_OBJECT_DEFINE NAME=Ali_Box_-_front_10_.step_id_0_copy_0 CENTER=132.819,136.015 POLYGON=[[42.5166,217.681],[42.5205,217.677],[214.481,45.7166],[214.485,45.7127],[219.428,50.0696],[223.122,53.7637],[223.121,54.0474],[50.8513,226.317],[50.5841,226.318],[50.5677,226.318],[46.8735,222.624],[42.5166,217.681]]
M73 P0 R16
M106 S0
M106 P2 S0
;TYPE:Custom
PRINT_START BED=55 HOTEND=220 CHAMBER=0 EXTRUDER=0
SET_PRINT_STATS_INFO TOTAL_LAYER=25
M83
M140 S55
M104 S220
M141 S0
G4 P3000
T0
G1 X108.000 Y1 F30000
G0 Z0.2 F600
;G1 E3 F1800
G90
M83
G0 X128 E8  F904.991
G0 X133 E.3742  F1508.32
G0 X138 E.3742  F6033.27
G0 X143 E.3742  F1508.32
G0 X148 E.3742  F6033.27
G0 X153 E.3742  F1508.32
G91
G1 X1 Z-0.300
G1 X4
G1 Z1 F1200
G90
M400
G1 X108.000 Y2.5 F30000
G0 Z0.2 F600
M83
G0 X128 E10  F904.991
G0 X133 E.3742  F1508.32
G0 X138 E.3742  F6033.27
G0 X143 E.3742  F1508.32
G0 X148 E.3742  F6033.27
G0 X153 E.3742  F1508.32
G91
G1 X1 Z-0.300
G1 X4
G1 Z1 F1200
G90
M400
G1 Z1 F600
G90
G21
M83 ; use relative distances for extrusion
; Filament gcode
T0
M106 P2 S0
;LAYER_CHANGE
;Z:0.2
;HEIGHT:0.2
;BEFORE_LAYER_CHANGE
;0.2
G92 E0

G1 E-.8 F1800
 ; timelapse without wipe tower
TIMELAPSE_TAKE_FRAME

G92 E0
SET_PRINT_STATS_INFO CURRENT_LAYER=1
;_SET_FAN_SPEED_CHANGING_LAYER
SET_VELOCITY_LIMIT ACCEL=500
G1 X126.778 Y130.31 F30000
G1 Z.6
G1 Z.2
G1 E.8 F1800
;TYPE:Skirt
;WIDTH:0.44
G1 F3000
G1 X212.863 Y44.225 E3.81863
G1 X214.025 Y43.617 E.04112
G1 X215.326 Y43.778 E.04112
G1 X215.972 Y44.225 E.02467
G1 X223.68 Y51.933 E.34189
G1 X224.288 Y53.094 E.04112
G1 X224.128 Y54.395 E.04112
G1 X223.69 Y55.031 E.02422
M73 P1 R16
G1 X108.735 Y171.543 E5.13391
G1 X52.766 Y227.512 E2.48272
G1 X51.217 Y228.155 E.0526
G1 X50.934 Y228.156 E.0089
G1 X49.373 Y227.512 E.05296
G1 X41.029 Y219.168 E.37012
G1 X40.421 Y218.007 E.04112
G1 X40.581 Y216.706 E.04112
G1 X41.029 Y216.059 E.02467
G1 X126.75 Y130.339 E3.80247
; printing object Ali Box - front (10).step id:0 copy 0
G1 E-.56 F1800
;WIPE_START
G1 F3000
G1 X127.457 Y129.631 E-.24
;WIPE_END
EXCLUDE_OBJECT_START NAME=Ali_Box_-_front_10_.step_id_0_copy_0
G1 X122.232 Y135.195 Z.6 F30000
G1 X44.822 Y217.614 Z.6
G1 Z.2
G1 E.8 F1800
;TYPE:Inner wall
;WIDTH:0.439999
G1 F3000
G1 X67.278 Y195.158 E.99612
G1 X67.215 Y195.697 E.01703
M73 P2 R16
G1 X67.255 Y196.243 E.01717
G1 X67.397 Y196.772 E.01717
G1 X67.637 Y197.264 E.01717
G1 X67.966 Y197.702 E.01717
G1 X68.547 Y198.185 E.0237
G1 X69.084 Y198.458 E.01891
G1 X69.617 Y198.601 E.01728
G1 X70.167 Y198.64 E.01732
G1 X70.711 Y198.574 E.01717
G1 X71.232 Y198.406 E.01717
G1 X71.712 Y198.143 E.01717
G1 X72.181 Y197.748 E.01924
G1 X72.507 Y197.336 E.01646
G1 X72.743 Y196.89 E.01584
G1 X72.909 Y196.368 E.01717
G1 X72.973 Y195.824 E.01717
G1 X72.933 Y195.278 E.01717
G1 X72.79 Y194.75 E.01717
M73 P2 R15
G1 X72.55 Y194.258 E.01717
G1 X72.221 Y193.82 E.01717
G1 X71.816 Y193.452 E.01717
G1 X71.348 Y193.168 E.01717
G1 X70.629 Y192.935 E.0237
G1 X70.029 Y192.882 E.01891
G1 X69.49 Y192.946 E.017
G1 X98.684 Y163.751 E1.29501
G1 X104.931 Y169.999 E.27711
G1 X51.069 Y223.861 E2.38927
G1 X44.85 Y217.642 E.27585
G1 X44.261 Y217.614 F30000
G1 F3000
G1 X67.732 Y194.135 E1.04133
;WIDTH:0.435898
G1 X68.076 Y193.765 E.01568
;WIDTH:0.434301
G1 X68.446 Y193.418 E.01568
;WIDTH:0.439999
G1 X98.684 Y163.19 E1.34112
G1 X105.493 Y169.999 E.30202
G1 X51.069 Y224.422 E2.41418
G1 X44.289 Y217.642 E.30076
G1 X43.699 Y217.614 F30000
G1 F3000
G1 X67.454 Y193.857 E1.05378
;WIDTH:0.436836
G1 X67.807 Y193.496 E.0157
;WIDTH:0.435604
G1 X68.169 Y193.141 E.01572
;WIDTH:0.439999
G1 X98.684 Y162.628 E1.35358
G1 X106.055 Y169.999 E.32693
G1 X51.069 Y224.984 E2.43909
G1 X43.727 Y217.642 E.32567
M73 P3 R15
G1 X43.107 Y217.614 F30000
;TYPE:Outer wall
G1 F3000
G1 X98.684 Y162.036 E2.46535
G1 X106.646 Y169.999 E.35319
G1 X51.069 Y225.576 E2.46535
G1 X43.135 Y217.642 E.35193
G1 E-.56 F1800
;WIPE_START
G1 F3000
G1 X43.842 Y216.935 E-.24
;WIPE_END
G1 X49.948 Y212.355 Z.6 F30000
G1 X72.541 Y195.411 Z.6
G1 Z.2
G1 E.8 F1800
;TYPE:Inner wall
G1 F3000
G1 X72.572 Y195.607 E.00624
G1 X72.557 Y196.079 E.01481
G1 X72.452 Y196.54 E.01481
G1 X72.182 Y197.108 E.01974
G1 X71.866 Y197.5 E.01577
G1 X71.505 Y197.804 E.01481
G1 X71.093 Y198.034 E.01481
G1 X70.645 Y198.182 E.01481
G1 X70.177 Y198.243 E.01481
G1 X69.702 Y198.213 E.01491
G1 X69.241 Y198.093 E.01495
G1 X68.785 Y197.867 E.01598
G1 X68.272 Y197.449 E.02074
G1 X67.986 Y197.073 E.01481
G1 X67.776 Y196.651 E.01481
G1 X67.649 Y196.196 E.01481
G1 X67.615 Y195.914 E.0089
G1 X67.631 Y195.442 E.01481
G1 X67.736 Y194.982 E.01481
G1 X68.009 Y194.415 E.01973
;WIDTH:0.437535
G1 X68.544 Y193.845 E.02439
;WIDTH:0.438373
G1 X68.926 Y193.572 E.01466
;WIDTH:0.439999
G1 X69.36 Y193.388 E.0148
G1 X69.832 Y193.292 E.01511
G1 X70.295 Y193.286 E.0145
G1 X70.938 Y193.429 E.02067
G1 X71.407 Y193.653 E.01629
G1 X71.782 Y193.939 E.01481
G1 X72.096 Y194.292 E.01481
G1 X72.338 Y194.697 E.01481
G1 X72.499 Y195.141 E.01481
G1 X72.535 Y195.371 E.00731
G1 X72.157 Y195.506 F30000
G1 F3000
G1 X72.181 Y195.768 E.00825
G1 X72.142 Y196.163 E.01245
G1 X72.029 Y196.543 E.01245
G1 X71.846 Y196.895 E.01244
G1 X71.599 Y197.206 E.01245
G1 X71.299 Y197.465 E.01244
G1 X70.954 Y197.662 E.01244
G1 X70.579 Y197.791 E.01245
G1 X70.186 Y197.846 E.01244
G1 X69.788 Y197.825 E.01251
G1 X69.398 Y197.728 E.01261
G1 X69.022 Y197.549 E.01305
G1 X68.579 Y197.196 E.01778
G1 X68.334 Y196.883 E.01245
G1 X68.154 Y196.53 E.01244
G1 X68.043 Y196.149 E.01244
G1 X68.01 Y195.867 E.0089
G1 X68.046 Y195.359 E.01598
G1 X68.159 Y194.979 E.01245
G1 X68.343 Y194.628 E.01244
;WIDTH:0.436836
G1 X68.593 Y194.321 E.01231
;WIDTH:0.435604
G1 X68.89 Y194.059 E.01229
;WIDTH:0.439999
G1 X69.233 Y193.859 E.01244
G1 X69.611 Y193.731 E.01251
G1 X70.009 Y193.676 E.01261
G1 X70.424 Y193.703 E.01305
G1 X70.967 Y193.865 E.01779
G1 X71.31 Y194.065 E.01244
G1 X71.609 Y194.326 E.01244
G1 X71.894 Y194.713 E.01508
G1 X72.034 Y194.992 E.00978
G1 X72.144 Y195.373 E.01245
G1 X72.153 Y195.466 E.00294
G1 X71.74 Y195.541 F30000
;TYPE:Outer wall
G1 F3000
G1 X71.763 Y195.738 E.00621
G1 X71.737 Y196.054 E.00996
G1 X71.652 Y196.36 E.00996
G1 X71.511 Y196.644 E.00996
G1 X71.318 Y196.896 E.00996
G1 X71.081 Y197.107 E.00996
G1 X70.808 Y197.27 E.00996
G1 X70.51 Y197.378 E.00996
G1 X70.196 Y197.427 E.00996
G1 X69.878 Y197.416 E.00998
G1 X69.563 Y197.344 E.01015
G1 X69.273 Y197.214 E.00997
G1 X68.901 Y196.929 E.01468
G1 X68.702 Y196.683 E.00996
G1 X68.552 Y196.403 E.00996
G1 X68.459 Y196.099 E.00996
G1 X68.425 Y195.817 E.0089
G1 X68.45 Y195.467 E.01101
G1 X68.535 Y195.162 E.00996
G1 X68.677 Y194.877 E.00996
G1 X68.87 Y194.625 E.00996
G1 X69.107 Y194.414 E.00996
G1 X69.379 Y194.252 E.00996
G1 X69.679 Y194.144 E.00998
G1 X69.998 Y194.094 E.01015
G1 X70.316 Y194.107 E.00997
G1 X70.767 Y194.233 E.01468
G1 X71.044 Y194.388 E.00996
G1 X71.286 Y194.592 E.00996
G1 X71.527 Y194.913 E.01259
G1 X71.722 Y195.389 E.01614
G1 X71.735 Y195.502 E.00355
G1 E-.56 F1800
;WIPE_START
G1 F3000
G1 X71.763 Y195.738 E-.05709
G1 X71.737 Y196.054 E-.07618
G1 X71.652 Y196.36 E-.07618
G1 X71.595 Y196.474 E-.03055
;WIPE_END
G1 X76.475 Y190.605 Z.6 F30000
G1 X98.558 Y164.047 Z.6
G1 Z.2
G1 E.8 F1800
;TYPE:Bottom surface
;WIDTH:0.440691
G1 F6300
G1 X104.51 Y169.999 E.26055
G1 X104.229 Y170.28 E.00767
G1 X98.403 Y164.454 E.25458
G1 X98.122 Y164.735 E.00767
G1 X103.948 Y170.561 E.25458
G1 X103.666 Y170.843 E.00767
G1 X97.84 Y165.017 E.25458
G1 X97.559 Y165.298 E.00767
G1 X103.385 Y171.124 E.25458
G1 X103.104 Y171.405 E.00767
G1 X97.278 Y165.579 E.25458
G1 X96.997 Y165.861 E.00767
G1 X102.822 Y171.686 E.25458
M73 P4 R15
G1 X102.541 Y171.968 E.00767
G1 X96.715 Y166.142 E.25458
G1 X96.434 Y166.423 E.00767
G1 X102.26 Y172.249 E.25458
G1 X101.979 Y172.53 E.00767
G1 X96.153 Y166.704 E.25458
G1 X95.872 Y166.986 E.00767
G1 X101.697 Y172.811 E.25458
G1 X101.416 Y173.093 E.00767
G1 X95.59 Y167.267 E.25458
G1 X95.309 Y167.548 E.00767
G1 X101.135 Y173.374 E.25458
G1 X100.854 Y173.655 E.00767
G1 X95.028 Y167.829 E.25458
G1 X94.746 Y168.111 E.00767
G1 X100.572 Y173.937 E.25458
G1 X100.291 Y174.218 E.00767
G1 X94.465 Y168.392 E.25458
G1 X94.184 Y168.673 E.00767
G1 X100.01 Y174.499 E.25458
G1 X99.729 Y174.78 E.00767
G1 X93.903 Y168.954 E.25458
G1 X93.621 Y169.236 E.00767
G1 X99.447 Y175.062 E.25458
G1 X99.166 Y175.343 E.00767
G1 X93.34 Y169.517 E.25458
G1 X93.059 Y169.798 E.00767
G1 X98.885 Y175.624 E.25458
G1 X98.603 Y175.905 E.00767
G1 X92.778 Y170.08 E.25458
G1 X92.496 Y170.361 E.00767
G1 X98.322 Y176.187 E.25458
G1 X98.041 Y176.468 E.00767
G1 X92.215 Y170.642 E.25458
G1 X91.934 Y170.923 E.00767
G1 X97.76 Y176.749 E.25458
G1 X97.478 Y177.03 E.00767
G1 X91.653 Y171.205 E.25458
G1 X91.371 Y171.486 E.00767
G1 X97.197 Y177.312 E.25458
G1 X96.916 Y177.593 E.00767
G1 X91.09 Y171.767 E.25458
G1 X90.809 Y172.048 E.00767
G1 X96.635 Y177.874 E.25458
G1 X96.353 Y178.156 E.00767
G1 X90.527 Y172.33 E.25458
G1 X90.246 Y172.611 E.00767
G1 X96.072 Y178.437 E.25458
G1 X95.791 Y178.718 E.00767
G1 X89.965 Y172.892 E.25458
G1 X89.684 Y173.173 E.00767
G1 X95.51 Y178.999 E.25458
G1 X95.228 Y179.281 E.00767
G1 X89.402 Y173.455 E.25458
G1 X89.121 Y173.736 E.00767
G1 X94.947 Y179.562 E.25458
G1 X94.666 Y179.843 E.00767
G1 X88.84 Y174.017 E.25458
G1 X88.559 Y174.299 E.00767
G1 X94.384 Y180.124 E.25458
G1 X94.103 Y180.406 E.00767
G1 X88.277 Y174.58 E.25458
G1 X87.996 Y174.861 E.00767
G1 X93.822 Y180.687 E.25458
G1 X93.541 Y180.968 E.00767
G1 X87.715 Y175.142 E.25458
G1 X87.434 Y175.424 E.00767
G1 X93.259 Y181.249 E.25458
G1 X92.978 Y181.531 E.00767
G1 X87.152 Y175.705 E.25458
G1 X86.871 Y175.986 E.00767
G1 X92.697 Y181.812 E.25458
G1 X92.416 Y182.093 E.00767
G1 X86.59 Y176.267 E.25458
G1 X86.308 Y176.549 E.00767
G1 X92.134 Y182.375 E.25458
G1 X91.853 Y182.656 E.00767
M73 P5 R15
G1 X86.027 Y176.83 E.25458
G1 X85.746 Y177.111 E.00767
G1 X91.572 Y182.937 E.25458
G1 X91.291 Y183.218 E.00767
G1 X85.465 Y177.392 E.25458
G1 X85.183 Y177.674 E.00767
G1 X91.009 Y183.5 E.25458
G1 X90.728 Y183.781 E.00767
G1 X84.902 Y177.955 E.25458
G1 X84.621 Y178.236 E.00767
G1 X90.447 Y184.062 E.25458
G1 X90.165 Y184.343 E.00767
G1 X84.34 Y178.518 E.25458
G1 X84.058 Y178.799 E.00767
G1 X89.884 Y184.625 E.25458
G1 X89.603 Y184.906 E.00767
G1 X83.777 Y179.08 E.25458
G1 X83.496 Y179.361 E.00767
G1 X89.322 Y185.187 E.25458
G1 X89.04 Y185.468 E.00767
G1 X83.215 Y179.643 E.25458
G1 X82.933 Y179.924 E.00767
G1 X88.759 Y185.75 E.25458
G1 X88.478 Y186.031 E.00767
G1 X82.652 Y180.205 E.25458
G1 X82.371 Y180.486 E.00767
G1 X88.197 Y186.312 E.25458
G1 X87.915 Y186.594 E.00767
G1 X82.089 Y180.768 E.25458
G1 X81.808 Y181.049 E.00767
G1 X87.634 Y186.875 E.25458
G1 X87.353 Y187.156 E.00767
G1 X81.527 Y181.33 E.25458
G1 X81.246 Y181.611 E.00767
G1 X87.072 Y187.437 E.25458
G1 X86.79 Y187.719 E.00767
G1 X80.964 Y181.893 E.25458
G1 X80.683 Y182.174 E.00767
G1 X86.509 Y188 E.25458
G1 X86.228 Y188.281 E.00767
G1 X80.402 Y182.455 E.25458
G1 X80.121 Y182.737 E.00767
G1 X85.946 Y188.562 E.25458
G1 X85.665 Y188.844 E.00767
G1 X79.839 Y183.018 E.25458
G1 X79.558 Y183.299 E.00767
G1 X85.384 Y189.125 E.25458
G1 X85.103 Y189.406 E.00767
G1 X79.277 Y183.58 E.25458
G1 X78.996 Y183.862 E.00767
G1 X84.821 Y189.687 E.25458
G1 X84.54 Y189.969 E.00767
G1 X78.714 Y184.143 E.25458
G1 X78.433 Y184.424 E.00767
G1 X84.259 Y190.25 E.25458
G1 X83.978 Y190.531 E.00767
G1 X78.152 Y184.705 E.25458
G1 X77.87 Y184.987 E.00767
G1 X83.696 Y190.813 E.25458
G1 X83.415 Y191.094 E.00767
G1 X77.589 Y185.268 E.25458
G1 X77.308 Y185.549 E.00767
G1 X83.134 Y191.375 E.25458
G1 X82.853 Y191.656 E.00767
G1 X77.027 Y185.83 E.25458
G1 X76.745 Y186.112 E.00767
G1 X82.571 Y191.938 E.25458
G1 X82.29 Y192.219 E.00767
G1 X76.464 Y186.393 E.25458
G1 X76.183 Y186.674 E.00767
G1 X82.009 Y192.5 E.25458
G1 X81.727 Y192.781 E.00767
G1 X75.902 Y186.956 E.25458
G1 X75.62 Y187.237 E.00767
G1 X81.446 Y193.063 E.25458
G1 X81.165 Y193.344 E.00767
G1 X75.339 Y187.518 E.25458
G1 X75.058 Y187.799 E.00767
M73 P6 R15
G1 X80.884 Y193.625 E.25458
G1 X80.602 Y193.906 E.00767
G1 X74.777 Y188.081 E.25458
G1 X74.495 Y188.362 E.00767
G1 X80.321 Y194.188 E.25458
G1 X80.04 Y194.469 E.00767
G1 X74.214 Y188.643 E.25458
G1 X73.933 Y188.924 E.00767
G1 X79.759 Y194.75 E.25458
G1 X79.477 Y195.032 E.00767
G1 X73.651 Y189.206 E.25458
G1 X73.37 Y189.487 E.00767
G1 X79.196 Y195.313 E.25458
G1 X78.915 Y195.594 E.00767
G1 X73.089 Y189.768 E.25458
G1 X72.808 Y190.049 E.00767
G1 X78.634 Y195.875 E.25458
G1 X78.352 Y196.157 E.00767
G1 X72.526 Y190.331 E.25458
G1 X72.245 Y190.612 E.00767
G1 X78.071 Y196.438 E.25458
G1 X77.79 Y196.719 E.00767
G1 X71.964 Y190.893 E.25458
G1 X71.683 Y191.175 E.00767
G1 X77.508 Y197 E.25458
G1 X77.227 Y197.282 E.00767
G1 X71.401 Y191.456 E.25458
G1 X71.12 Y191.737 E.00767
G1 X76.946 Y197.563 E.25458
G1 X76.665 Y197.844 E.00767
G1 X70.839 Y192.018 E.25458
G1 X70.558 Y192.3 E.00767
G1 X70.978 Y192.721 E.01317
G1 X70.7 Y192.646 E.00494
G1 X70.286 Y192.59 E.0082
G1 X70.15 Y192.455 E.00261
G1 E-.56 F1800
;WIPE_START
G1 F6300
G1 X70.286 Y192.59 E-.04608
G1 X70.7 Y192.646 E-.10039
G1 X70.978 Y192.721 E-.06913
G1 X70.907 Y192.649 E-.0244
;WIPE_END
G1 X72.852 Y194.594 Z.6 F30000
G1 Z.2
G1 E.8 F1800
G1 F6300
G1 X76.383 Y198.125 E.14936
G1 X76.102 Y198.407 E.00767
G1 X73.264 Y195.568 E.11868
G1 X73.27 Y195.841 E.00456
G1 X73.25 Y196.118 E.00468
G1 X75.821 Y198.688 E.10684
G1 X75.54 Y198.969 E.00767
G1 X73.158 Y196.588 E.09849
G1 X73.016 Y197.008 E.00887
G1 X75.258 Y199.251 E.09236
G1 X74.977 Y199.532 E.00767
G1 X72.821 Y197.376 E.08854
G1 X72.753 Y197.505 E.00159
G1 X72.591 Y197.708 E.00424
G1 X74.696 Y199.813 E.08628
G1 X74.415 Y200.094 E.00767
G1 X72.333 Y198.013 E.08526
G1 X72.032 Y198.274 E.00769
G1 X74.133 Y200.376 E.08613
G1 X73.852 Y200.657 E.00767
G1 X71.696 Y198.501 E.08853
G1 X71.323 Y198.69 E.00821
G1 X73.571 Y200.938 E.0926
G1 X73.289 Y201.219 E.00767
G1 X70.9 Y198.83 E.09884
G1 X70.426 Y198.919 E.00993
G1 X73.008 Y201.501 E.10735
G1 X72.727 Y201.782 E.00767
G1 X69.671 Y198.726 E.12829
G1 E-.56 F1800
;WIPE_START
G1 F6300
G1 X70.378 Y199.433 E-.24
;WIPE_END
G1 X67.127 Y196.182 Z.6 F30000
G1 Z.2
G1 E.8 F1800
G1 F6300
G1 X66.901 Y195.956 E.00573
G1 X66.62 Y196.237 E.00767
G1 X67.052 Y196.669 E.01363
G1 X67.238 Y197.153 E.01094
G1 X67.378 Y197.411 E.00507
G1 X67.553 Y197.669 E.00552
G1 X67.74 Y197.896 E.0051
G1 X68.023 Y198.165 E.00749
G1 X68.554 Y198.544 E.01482
G1 X68.97 Y198.733 E.00924
G1 X69.184 Y198.802 E.00339
G1 X72.446 Y202.063 E.13739
G1 X72.164 Y202.344 E.00767
G1 X66.339 Y196.519 E.25458
G1 X66.057 Y196.8 E.00767
G1 X71.883 Y202.626 E.25458
G1 X71.602 Y202.907 E.00767
G1 X65.776 Y197.081 E.25458
G1 X65.495 Y197.362 E.00767
G1 X71.321 Y203.188 E.25458
G1 X71.039 Y203.47 E.00767
G1 X65.213 Y197.644 E.25458
G1 X64.932 Y197.925 E.00767
G1 X70.758 Y203.751 E.25458
G1 X70.477 Y204.032 E.00767
G1 X64.651 Y198.206 E.25458
G1 X64.37 Y198.487 E.00767
G1 X70.196 Y204.313 E.25458
G1 X69.914 Y204.595 E.00767
G1 X64.088 Y198.769 E.25458
M73 P7 R15
G1 X63.807 Y199.05 E.00767
G1 X69.633 Y204.876 E.25458
G1 X69.352 Y205.157 E.00767
G1 X63.526 Y199.331 E.25458
G1 X63.245 Y199.613 E.00767
G1 X69.07 Y205.438 E.25458
G1 X68.789 Y205.72 E.00767
G1 X62.963 Y199.894 E.25458
G1 X62.682 Y200.175 E.00767
G1 X68.508 Y206.001 E.25458
G1 X68.227 Y206.282 E.00767
G1 X62.401 Y200.456 E.25458
G1 X62.12 Y200.738 E.00767
G1 X67.945 Y206.563 E.25458
G1 X67.664 Y206.845 E.00767
G1 X61.838 Y201.019 E.25458
G1 X61.557 Y201.3 E.00767
G1 X67.383 Y207.126 E.25458
G1 X67.102 Y207.407 E.00767
G1 X61.276 Y201.581 E.25458
