; HEADER_BLOCK_START
; generated by OrcaSlicer 2.3.1-beta on 2025-10-04 at 22:03:18
; total layer number: 40
; filament_density: 1.02,1.02,1.02,1.24,1.24,1.24
; filament_diameter: 1.75,1.75,1.75,1.75,1.75,1.75
; max_z_height: 8.00
; HEADER_BLOCK_END

; THUMBNAIL_BLOCK_START

;
; THUMBNAIL_BLOCK_END

; external perimeters extrusion width = 0.42mm
; perimeters extrusion width = 0.45mm
; infill extrusion width = 0.45mm
; solid infill extrusion width = 0.42mm
; top infill extrusion width = 0.42mm
; first layer extrusion width = 0.44mm

; EXECUTABLE_BLOCK_START
EXCLUDE_OBJECT_DEFINE NAME=Ali_Box_-_bracket_8_.step_id_0_copy_0 CENTER=135,135 POLYGON=[[30.75,109.646],[30.7556,109.496],[30.7723,109.348],[30.8001,109.201],[30.8389,109.056],[30.8883,108.915],[30.9481,108.778],[31.0179,108.646],[31.0975,108.519],[31.1863,108.399],[31.2839,108.285],[31.3896,108.18],[31.503,108.082],[31.6234,107.993],[31.75,107.914],[31.8822,107.844],[32.0193,107.784],[32.1605,107.734],[32.305,107.696],[32.4519,107.668],[32.6005,107.651],[32.75,107.646],[237.25,107.646],[237.399,107.651],[237.548,107.668],[237.695,107.696],[237.84,107.734],[237.981,107.784],[238.118,107.844],[238.25,107.914],[238.377,107.993],[238.497,108.082],[238.61,108.18],[238.716,108.285],[238.814,108.399],[238.902,108.519],[238.982,108.646],[239.052,108.778],[239.112,108.915],[239.161,109.056],[239.2,109.201],[239.228,109.348],[239.244,109.496],[239.25,109.646],[239.25,118.972],[239.244,119.126],[239.226,119.278],[239.197,119.429],[239.156,119.577],[239.104,119.722],[239.041,119.862],[238.968,119.997],[238.884,120.126],[238.79,120.248],[238.688,120.362],[238.577,120.469],[238.458,120.566],[186.549,160.878],[186.507,160.911],[186.318,161.051],[186.275,161.082],[186.079,161.215],[186.035,161.243],[185.833,161.368],[185.79,161.393],[185.582,161.511],[185.538,161.534],[185.324,161.643],[185.281,161.664],[185.062,161.765],[185.018,161.784],[184.795,161.876],[184.751,161.892],[184.523,161.975],[184.48,161.99],[184.247,162.063],[184.205,162.076],[183.968,162.14],[183.926,162.151],[183.687,162.205],[183.645,162.214],[183.402,162.259],[183.361,162.266],[183.116,162.301],[183.075,162.306],[182.828,162.33],[182.789,162.334],[182.539,162.348],[182.501,162.35],[182.25,162.354],[107.75,162.354],[107.606,162.353],[107.461,162.348],[107.321,162.341],[107.172,162.33],[107.036,162.318],[106.884,162.301],[106.753,162.283],[106.598,162.259],[106.471,162.237],[106.313,162.205],[106.191,162.179],[106.032,162.14],[105.914,162.109],[105.753,162.063],[105.64,162.029],[105.477,161.975],[105.37,161.937],[105.205,161.876],[105.103,161.835],[104.938,161.765],[104.841,161.721],[104.676,161.643],[104.584,161.597],[104.418,161.511],[104.332,161.463],[31.7846,120.767],[31.654,120.688],[31.5298,120.6],[31.4127,120.503],[31.3033,120.397],[31.2024,120.282],[31.1104,120.161],[31.028,120.033],[30.9555,119.899],[30.8935,119.759],[30.8422,119.616],[30.802,119.469],[30.7732,119.319],[30.7558,119.168],[30.75,119.016],[30.75,109.646]]
M73 P0 R60
M106 S0
M106 P2 S0
;TYPE:Custom
PRINT_START BED=100 HOTEND=260 CHAMBER=60 EXTRUDER=0
SET_PRINT_STATS_INFO TOTAL_LAYER=40
M83
M140 S100
M104 S260
M141 S60
G4 P3000
T0
G1 X108.000 Y1 F30000
G0 Z0.2 F600
;G1 E3 F1800
G90
M83
G0 X128 E8  F904.991
G0 X133 E.3742  F1508.32
G0 X138 E.3742  F6033.27
G0 X143 E.3742  F1508.32
G0 X148 E.3742  F6033.27
G0 X153 E.3742  F1508.32
G91
G1 X1 Z-0.300
G1 X4
G1 Z1 F1200
G90
M400
G1 X108.000 Y2.5 F30000
G0 Z0.2 F600
M83
G0 X128 E10  F904.991
G0 X133 E.3742  F1508.32
G0 X138 E.3742  F6033.27
G0 X143 E.3742  F1508.32
G0 X148 E.3742  F6033.27
G0 X153 E.3742  F1508.32
G91
G1 X1 Z-0.300
G1 X4
G1 Z1 F1200
G90
M400
G1 Z1 F600
M106 P3 S255
G90
G21
M83 ; use relative distances for extrusion
; Filament gcode
SET_PRESSURE_ADVANCE ADVANCE=0.025; Override pressure advance value
T0
M106 P2 S0
;LAYER_CHANGE
;Z:0.2
;HEIGHT:0.2
;BEFORE_LAYER_CHANGE
;0.2
G92 E0

G1 E-.8 F1800
 ; timelapse without wipe tower
TIMELAPSE_TAKE_FRAME

G92 E0
SET_PRINT_STATS_INFO CURRENT_LAYER=1
;_SET_FAN_SPEED_CHANGING_LAYER
SET_VELOCITY_LIMIT ACCEL=500
G1 X56.972 Y105.559 F30000
G1 Z.6
G1 Z.2
G1 E.8 F1800
;TYPE:Skirt
;WIDTH:0.44
G1 F3000
G1 X237.365 Y105.55 E5.65827
G1 X237.989 Y105.616 E.01968
G1 X238.625 Y105.786 E.02065
G1 X239.397 Y106.156 E.02687
G1 X239.905 Y106.525 E.01968
G1 X240.371 Y106.991 E.02065
G1 X240.739 Y107.498 E.01968
G1 X241.11 Y108.271 E.02686
G1 X241.28 Y108.907 E.02066
G1 X241.349 Y109.646 E.02328
G1 X241.336 Y119.279 E.30217
G1 X241.051 Y120.501 E.03935
G1 X240.765 Y121.078 E.02021
G1 X240.262 Y121.749 E.02629
G1 X239.746 Y122.223 E.02197
G1 X187.723 Y162.622 E2.06601
G1 X186.519 Y163.389 E.04479
G1 X185.411 Y163.886 E.03807
G1 X184.047 Y164.273 E.04448
G1 X182.852 Y164.433 E.03783
G1 X107.657 Y164.452 E2.35857
G1 X106.465 Y164.361 E.03753
G1 X105.093 Y164.056 E.04409
G1 X103.323 Y163.303 E.0603
G1 X30.757 Y122.597 E2.60981
G1 X29.97 Y122.025 E.03052
G1 X29.283 Y121.199 E.03369
G1 X28.826 Y120.193 E.03468
G1 X28.665 Y119.335 E.02738
G1 X28.651 Y109.646 E.30392
G1 X28.819 Y108.489 E.03664
G1 X29.055 Y107.875 E.02066
G1 X29.369 Y107.331 E.01968
G1 X29.783 Y106.82 E.02065
G1 X30.25 Y106.4 E.01968
G1 X30.802 Y106.041 E.02066
G1 X31.375 Y105.786 E.01968
G1 X32.436 Y105.561 E.03404
G1 X56.932 Y105.559 E.76835
; printing object Ali Box - bracket (8).step id:0 copy 0
G1 E-.56 F1800
;WIPE_START
G1 F3000
G1 X57.932 Y105.559 E-.24
;WIPE_END
EXCLUDE_OBJECT_START NAME=Ali_Box_-_bracket_8_.step_id_0_copy_0
G1 X50.428 Y106.949 Z.6 F30000
G1 X33.237 Y110.132 Z.6
G1 Z.2
G1 E.8 F1800
;TYPE:Inner wall
;WIDTH:0.439999
G1 F3000
G1 X236.764 Y110.132 E6.38392
G1 X236.773 Y118.724 E.26949
G1 X188.909 Y155.014 E1.88408
G1 X188.828 Y154.247 E.02421
G1 X188.741 Y153.826 E.01349
G1 X188.461 Y152.927 E.02954
G1 X188.28 Y152.506 E.01436
G1 X187.819 Y151.685 E.02954
G1 X187.57 Y151.331 E.01357
G1 X187.034 Y150.707 E.02582
G1 X186.751 Y150.433 E.01235
G1 X186.109 Y149.914 E.02589
G1 X185.747 Y149.676 E.01359
G1 X184.912 Y149.24 E.02954
G1 X184.486 Y149.072 E.01436
G1 X183.579 Y148.819 E.02954
G1 X183.154 Y148.745 E.01352
G1 X181.933 Y148.692 E.03834
G1 X181.115 Y148.781 E.02582
G1 X180.694 Y148.87 E.0135
G1 X179.797 Y149.153 E.02949
G1 X179.404 Y149.322 E.01343
G1 X178.679 Y149.72 E.02593
G1 X178.324 Y149.964 E.0135
G1 X177.727 Y150.467 E.0245
G1 X177.727 Y128.071 E.70248
G1 X177.684 Y127.297 E.0243
G1 X177.58 Y126.565 E.02319
G1 X177.411 Y125.845 E.02319
G1 X177.162 Y125.099 E.02469
G1 X176.724 Y124.134 E.03325
G1 X176.346 Y123.497 E.02321
G1 X175.916 Y122.896 E.02319
G1 X175.435 Y122.337 E.02313
G1 X170.696 Y117.589 E.2104
G1 X169.809 Y116.837 E.03648
G1 X168.877 Y116.237 E.03477
G1 X167.875 Y115.764 E.03477
G1 X166.82 Y115.425 E.03477
G1 X165.729 Y115.227 E.03476
G1 X164.767 Y115.169 E.03022
G1 X124.85 Y115.175 E1.25206
G1 X123.988 Y115.264 E.02719
G1 X122.95 Y115.484 E.03329
G1 X122.203 Y115.733 E.02469
G1 X121.238 Y116.172 E.03325
G1 X120.601 Y116.549 E.02321
G1 X119.964 Y117.011 E.02469
G1 X119.243 Y117.649 E.0302
G1 X114.711 Y122.182 E.20104
G1 X114.168 Y122.795 E.0257
G1 X113.528 Y123.699 E.03475
G1 X113.011 Y124.68 E.03477
G1 X112.627 Y125.719 E.03477
G1 X112.387 Y126.753 E.03326
G1 X112.299 Y127.487 E.0232
G1 X112.273 Y128.128 E.02013
G1 X112.273 Y150.454 E.70028
G1 X111.609 Y149.914 E.02685
G1 X111.247 Y149.676 E.01359
G1 X110.412 Y149.24 E.02954
G1 X109.986 Y149.072 E.01436
G1 X109.079 Y148.819 E.02954
G1 X108.654 Y148.745 E.01352
G1 X107.831 Y148.685 E.02589
G1 X107.433 Y148.692 E.01248
G1 X106.615 Y148.781 E.02582
G1 X106.194 Y148.87 E.0135
G1 X105.297 Y149.153 E.02949
G1 X104.904 Y149.322 E.01343
G1 X104.26 Y149.676 E.02304
G1 X103.824 Y149.964 E.01638
G1 X103.104 Y150.57 E.02954
G1 X102.787 Y150.9 E.01436
G1 X102.209 Y151.644 E.02954
G1 X101.978 Y152.011 E.01358
G1 X101.468 Y153.114 E.03812
G1 X101.239 Y153.906 E.02589
G1 X101.16 Y154.333 E.0136
G1 X101.082 Y155.271 E.02954
G1 X101.142 Y156.168 E.02819
G1 X33.237 Y118.739 E2.43206
G1 X33.237 Y110.172 E.26872
G1 X32.84 Y109.735 F30000
G1 F3000
G1 X237.161 Y109.735 E6.40882
G1 X237.17 Y118.921 E.28812
G1 X188.488 Y155.832 E1.91627
G1 X188.519 Y155.111 E.02264
G1 X188.362 Y153.944 E.03693
G1 X188.082 Y153.045 E.02954
G1 X187.934 Y152.701 E.01175
G1 X187.472 Y151.88 E.02954
G1 X187.269 Y151.59 E.0111
G1 X186.501 Y150.741 E.03589
G1 X185.859 Y150.222 E.02589
G1 X185.563 Y150.028 E.01112
G1 X184.728 Y149.592 E.02954
G1 X184.38 Y149.454 E.01175
G1 X183.473 Y149.202 E.02954
G1 X183.125 Y149.141 E.01106
G1 X181.976 Y149.086 E.03607
G1 X180.814 Y149.249 E.03683
G1 X179.917 Y149.532 E.02949
G1 X179.595 Y149.67 E.01099
G1 X178.58 Y150.267 E.03694
G1 X177.86 Y150.874 E.02954
G1 X177.33 Y151.492 E.02553
G1 X177.33 Y128.082 E.73428
G1 X177.291 Y127.349 E.02302
G1 X177.192 Y126.651 E.02211
G1 X177.033 Y125.965 E.02211
G1 X176.799 Y125.258 E.02334
G1 X176.38 Y124.332 E.03189
G1 X176.021 Y123.725 E.02212
G1 X175.611 Y123.151 E.02211
G1 X175.154 Y122.617 E.02205
G1 X170.428 Y117.882 E.20986
G1 X169.588 Y117.167 E.03457
G1 X168.702 Y116.593 E.03314
G1 X167.747 Y116.14 E.03314
G1 X166.742 Y115.814 E.03314
G1 X165.703 Y115.623 E.03313
G1 X164.768 Y115.566 E.0294
G1 X124.872 Y115.572 E1.25139
G1 X124.065 Y115.654 E.02542
G1 X123.069 Y115.863 E.03193
G1 X122.363 Y116.097 E.02333
G1 X121.436 Y116.516 E.03189
G1 X120.829 Y116.874 E.02212
G1 X120.226 Y117.31 E.02333
G1 X119.524 Y117.93 E.02938
G1 X115 Y122.454 E.20066
G1 X114.488 Y123.03 E.02418
G1 X113.876 Y123.89 E.03312
G1 X113.381 Y124.824 E.03314
G1 X113.013 Y125.814 E.03314
G1 X112.781 Y126.804 E.03191
G1 X112.696 Y127.504 E.02212
G1 X112.67 Y128.128 E.01959
G1 X112.67 Y151.474 E.73228
G1 X112.001 Y150.741 E.03113
M73 P1 R60
G1 X111.063 Y150.028 E.03697
G1 X110.228 Y149.592 E.02954
G1 X109.88 Y149.454 E.01175
G1 X108.973 Y149.202 E.02954
G1 X108.625 Y149.141 E.01106
G1 X107.476 Y149.086 E.03607
G1 X106.658 Y149.176 E.02582
G1 X106.314 Y149.249 E.01104
G1 X105.417 Y149.532 E.02949
G1 X105.095 Y149.67 E.01099
G1 X104.451 Y150.024 E.02304
G1 X104.08 Y150.267 E.01393
G1 X103.36 Y150.874 E.02954
G1 X103.1 Y151.144 E.01175
G1 X102.522 Y151.888 E.02954
G1 X102.334 Y152.188 E.01111
G1 X101.85 Y153.224 E.03588
G1 X101.556 Y154.366 E.03697
G1 X101.477 Y155.304 E.02954
G1 X101.483 Y155.657 E.01107
G1 X101.578 Y156.477 E.02589
G1 X101.682 Y156.919 E.01423
G1 X32.84 Y118.974 E2.4656
G1 X32.84 Y109.775 E.28853
G1 X32.527 Y109.445 F30000
G1 F3000
G1 X32.718 Y109.338 E.00685
G1 X237.27 Y109.338 E6.41606
G1 X237.459 Y109.436 E.00669
G1 X237.558 Y109.627 E.00673
G1 X237.567 Y119.01 E.29432
G1 X237.461 Y119.199 E.00679
G1 X187.957 Y156.733 E1.94863
G1 X188.042 Y156.349 E.01231
G1 X188.124 Y155.152 E.03765
G1 X187.983 Y154.062 E.03448
G1 X187.588 Y152.895 E.03864
G1 X186.968 Y151.849 E.03814
G1 X186.252 Y151.05 E.03365
G1 X185.379 Y150.38 E.03451
G1 X184.545 Y149.944 E.02954
G1 X184.274 Y149.837 E.00914
G1 X183.096 Y149.537 E.03811
G1 X182.02 Y149.481 E.03381
G1 X180.933 Y149.627 E.03438
G1 X179.786 Y150.018 E.03801
G1 X178.836 Y150.571 E.03449
G1 X177.914 Y151.388 E.03864
G1 X177.189 Y152.365 E.03815
G1 X176.933 Y152.879 E.01803
G1 X176.933 Y128.093 E.77744
G1 X176.897 Y127.401 E.02174
G1 X176.804 Y126.737 E.02102
G1 X176.654 Y126.084 E.02102
G1 X176.435 Y125.418 E.02198
G1 X176.036 Y124.531 E.03054
G1 X175.696 Y123.953 E.02103
G1 X175.307 Y123.407 E.02102
G1 X174.873 Y122.898 E.02098
G1 X170.158 Y118.174 E.20933
G1 X169.368 Y117.497 E.03264
G1 X168.526 Y116.949 E.03151
G1 X167.62 Y116.516 E.03151
G1 X166.665 Y116.204 E.03151
G1 X165.677 Y116.02 E.03151
G1 X164.768 Y115.963 E.02859
G1 X124.893 Y115.969 E1.25073
G1 X124.143 Y116.043 E.02364
G1 X123.188 Y116.242 E.03058
G1 X122.523 Y116.46 E.02198
G1 X121.635 Y116.86 E.03054
G1 X121.057 Y117.2 E.02103
G1 X120.488 Y117.608 E.02198
G1 X119.805 Y118.211 E.02857
G1 X115.29 Y122.726 E.20029
G1 X114.808 Y123.264 E.02265
G1 X114.224 Y124.081 E.0315
G1 X113.751 Y124.968 E.03151
G1 X113.398 Y125.908 E.03151
G1 X113.175 Y126.856 E.03055
G1 X113.092 Y127.522 E.02103
G1 X113.067 Y128.128 E.01904
G1 X113.067 Y152.859 E.77571
G1 X112.468 Y151.849 E.03685
G1 X111.752 Y151.05 E.03365
G1 X110.879 Y150.38 E.03451
G1 X109.774 Y149.837 E.03864
G1 X108.596 Y149.537 E.03811
G1 X107.52 Y149.481 E.03381
G1 X106.433 Y149.627 E.03438
G1 X105.286 Y150.018 E.03801
G1 X104.336 Y150.571 E.03449
G1 X103.616 Y151.178 E.02954
G1 X103.414 Y151.388 E.00914
G1 X102.689 Y152.365 E.03815
G1 X102.231 Y153.335 E.03364
G1 X101.951 Y154.399 E.03451
G1 X101.877 Y155.612 E.03812
G1 X102.024 Y156.679 E.03379
G1 X102.264 Y157.466 E.02582
G1 X102.395 Y157.765 E.01023
G1 X32.543 Y119.264 E2.50176
G1 X32.443 Y119.012 E.00852
G1 X32.442 Y109.65 E.29365
G1 X32.512 Y109.482 E.00569
G1 X32.284 Y109.154 F30000
G1 F3000
G1 X32.419 Y109.022 E.00593
G1 X32.676 Y108.941 E.00845
G1 X237.404 Y108.941 E6.42157
G1 X237.74 Y109.155 E.0125
M73 P1 R59
G1 X237.898 Y109.391 E.00889
G1 X237.955 Y109.627 E.00761
G1 X237.964 Y118.87 E.28994
G1 X237.9 Y119.255 E.01223
G1 X237.734 Y119.49 E.00905
G1 X188.138 Y157.094 E1.95222
G1 X187.727 Y157.493 E.01796
G1 X187.485 Y157.83 E.01304
;WIDTH:0.407387
G1 X187.055 Y158.551 E.02415
;WIDTH:0.396661
G1 X186.604 Y159.136 E.02066
G1 X186.199 Y159.558 E.01634
;WIDTH:0.396865
G1 X185.745 Y159.942 E.01663
G1 X185.36 Y160.216 E.0132
;WIDTH:0.394183
G1 X184.723 Y160.569 E.02021
;WIDTH:0.397183
G1 X184.274 Y160.755 E.0136
G1 X183.475 Y160.995 E.02336
;WIDTH:0.398601
G1 X182.896 Y161.082 E.01646
G1 X181.901 Y161.11 E.02796
;WIDTH:0.39718
G1 X181.085 Y161.007 E.02302
;WIDTH:0.397498
G1 X180.518 Y160.855 E.01643
G1 X179.933 Y160.641 E.01745
;WIDTH:0.393178
G1 X179.147 Y160.222 E.02465
;WIDTH:0.398656
G1 X178.721 Y159.914 E.01477
G1 X178.09 Y159.354 E.02369
;WIDTH:0.397017
G1 X177.707 Y158.908 E.01645
G1 X177.36 Y158.414 E.01689
;WIDTH:0.395365
G1 X176.923 Y157.576 E.02632
;WIDTH:0.397616
G1 X176.723 Y157 E.01708
G1 X176.588 Y156.469 E.01536
;WIDTH:0.397057
G1 X176.514 Y155.944 E.01483
G1 X176.478 Y155.322 E.01743
;WIDTH:0.429846
G1 X176.523 Y154.189 E.03466
;WIDTH:0.439999
G1 X176.536 Y153.363 E.02589
G1 X176.536 Y128.104 E.79229
G1 X176.503 Y127.453 E.02045
G1 X176.417 Y126.823 E.01993
G1 X176.275 Y126.204 E.01993
G1 X176.072 Y125.578 E.02062
G1 X175.692 Y124.729 E.02918
G1 X175.371 Y124.18 E.01995
G1 X175.003 Y123.662 E.01993
G1 X174.592 Y123.178 E.01991
G1 X169.889 Y118.466 E.20882
G1 X169.147 Y117.828 E.0307
G1 X168.35 Y117.305 E.02989
G1 X167.492 Y116.892 E.02989
G1 X166.587 Y116.593 E.02989
G1 X165.651 Y116.416 E.02988
G1 X164.768 Y116.36 E.02777
G1 X124.913 Y116.366 E1.25009
G1 X124.22 Y116.433 E.02184
G1 X123.308 Y116.62 E.02922
G1 X122.683 Y116.824 E.02062
G1 X121.834 Y117.204 E.02918
G1 X121.285 Y117.525 E.01995
G1 X120.75 Y117.907 E.02062
G1 X120.086 Y118.492 E.02775
G1 X115.579 Y122.999 E.19993
G1 X115.128 Y123.499 E.02111
G1 X114.572 Y124.272 E.02987
G1 X114.121 Y125.112 E.02989
G1 X113.784 Y126.003 E.02989
G1 X113.568 Y126.908 E.0292
G1 X113.489 Y127.539 E.01995
G1 X113.464 Y128.128 E.0185
G1 X113.464 Y153.183 E.78588
G1 X113.491 Y154.355 E.03675
;WIDTH:0.418829
G1 X113.525 Y155.297 E.02801
;WIDTH:0.398851
G1 X113.495 Y155.828 E.01494
G1 X113.422 Y156.407 E.01641
;WIDTH:0.397585
G1 X113.278 Y156.999 E.01709
G1 X113.076 Y157.573 E.01703
;WIDTH:0.393801
G1 X112.719 Y158.29 E.0222
;WIDTH:0.397394
G1 X112.449 Y158.698 E.0137
G1 X111.932 Y159.332 E.02291
;WIDTH:0.398744
G1 X111.497 Y159.735 E.01668
G1 X110.807 Y160.247 E.02415
;WIDTH:0.394914
G1 X110.107 Y160.622 E.02208
;WIDTH:0.398935
G1 X109.533 Y160.837 E.01723
G1 X108.825 Y161.023 E.0206
;WIDTH:0.397966
G1 X108.147 Y161.106 E.01914
G1 X107.636 Y161.119 E.01436
;WIDTH:0.398293
G1 X106.964 Y161.066 E.01891
G1 X106.255 Y160.925 E.02028
;WIDTH:0.395872
G1 X105.436 Y160.637 E.02422
;WIDTH:0.39705
G1 X104.932 Y160.387 E.01573
G1 X104.494 Y160.118 E.01438
;WIDTH:0.398671
G1 X104.065 Y159.786 E.01524
G1 X103.583 Y159.348 E.01829
;WIDTH:0.425738
G1 X102.893 Y158.598 E.03082
;WIDTH:0.439999
G1 X102.419 Y158.232 E.01879
G1 X32.497 Y119.692 E2.50428
G1 X32.182 Y119.439 E.01269
G1 X32.046 Y119.065 E.01248
