; HEADER_BLOCK_START
; generated by OrcaSlicer 2.3.1-beta on 2025-09-18 at 19:09:03
; total layer number: 40
; filament_density: 1.02,1.02,1.02,1.24,1.24,1.24
; filament_diameter: 1.75,1.75,1.75,1.75,1.75,1.75
; max_z_height: 8.00
; HEADER_BLOCK_END

; THUMBNAIL_BLOCK_START

;
; THUMBNAIL_BLOCK_END

; external perimeters extrusion width = 0.42mm
; perimeters extrusion width = 0.45mm
; infill extrusion width = 0.45mm
; solid infill extrusion width = 0.42mm
; top infill extrusion width = 0.42mm
; first layer extrusion width = 0.44mm

; EXECUTABLE_BLOCK_START
EXCLUDE_OBJECT_DEFINE NAME=Ali_Box_-_bracket_4_.step_id_0_copy_0 CENTER=135,135 POLYGON=[[30.75,109.646],[30.7556,109.496],[30.7723,109.348],[30.8001,109.201],[30.8389,109.056],[30.8883,108.915],[30.9481,108.778],[31.0179,108.646],[31.0975,108.519],[31.1863,108.399],[31.2839,108.285],[31.3896,108.18],[31.503,108.082],[31.6234,107.993],[31.75,107.914],[31.8822,107.844],[32.0193,107.784],[32.1605,107.734],[32.305,107.696],[32.4519,107.668],[32.6005,107.651],[32.75,107.646],[237.25,107.646],[237.399,107.651],[237.548,107.668],[237.695,107.696],[237.84,107.734],[237.981,107.784],[238.118,107.844],[238.25,107.914],[238.377,107.993],[238.497,108.082],[238.61,108.18],[238.716,108.285],[238.814,108.399],[238.902,108.519],[238.982,108.646],[239.052,108.778],[239.112,108.915],[239.161,109.056],[239.2,109.201],[239.228,109.348],[239.244,109.496],[239.25,109.646],[239.25,118.972],[239.244,119.126],[239.226,119.278],[239.197,119.429],[239.156,119.577],[239.104,119.722],[239.041,119.862],[238.968,119.997],[238.884,120.126],[238.79,120.248],[238.688,120.362],[238.577,120.469],[238.458,120.566],[186.549,160.878],[186.507,160.911],[186.318,161.051],[186.275,161.082],[186.079,161.215],[186.035,161.243],[185.833,161.368],[185.79,161.393],[185.582,161.511],[185.538,161.534],[185.324,161.643],[185.281,161.664],[185.062,161.765],[185.018,161.784],[184.795,161.876],[184.751,161.892],[184.523,161.975],[184.48,161.99],[184.247,162.063],[184.205,162.076],[183.968,162.14],[183.926,162.151],[183.687,162.205],[183.645,162.214],[183.402,162.259],[183.361,162.266],[183.116,162.301],[183.075,162.306],[182.828,162.33],[182.789,162.334],[182.539,162.348],[182.501,162.35],[182.25,162.354],[107.75,162.354],[107.606,162.353],[107.461,162.348],[107.321,162.341],[107.172,162.33],[107.036,162.318],[106.884,162.301],[106.753,162.283],[106.598,162.259],[106.471,162.237],[106.313,162.205],[106.191,162.179],[106.032,162.14],[105.914,162.109],[105.753,162.063],[105.64,162.029],[105.477,161.975],[105.37,161.937],[105.205,161.876],[105.103,161.835],[104.938,161.765],[104.841,161.721],[104.676,161.643],[104.584,161.597],[104.418,161.511],[104.332,161.463],[31.7846,120.767],[31.654,120.688],[31.5298,120.6],[31.4127,120.503],[31.3033,120.397],[31.2024,120.282],[31.1104,120.161],[31.028,120.033],[30.9555,119.899],[30.8935,119.759],[30.8422,119.616],[30.802,119.469],[30.7732,119.319],[30.7558,119.168],[30.75,119.016],[30.75,109.646]]
M73 P0 R37
M106 S0
M106 P2 S0
;TYPE:Custom
PRINT_START BED=100 HOTEND=260 CHAMBER=60 EXTRUDER=0
SET_PRINT_STATS_INFO TOTAL_LAYER=40
M83
M140 S100
M104 S260
M141 S60
G4 P3000
T0
G1 X108.000 Y1 F30000
G0 Z0.2 F600
;G1 E3 F1800
G90
M83
G0 X128 E8  F904.991
G0 X133 E.3742  F1508.32
G0 X138 E.3742  F6033.27
G0 X143 E.3742  F1508.32
G0 X148 E.3742  F6033.27
G0 X153 E.3742  F1508.32
G91
G1 X1 Z-0.300
G1 X4
G1 Z1 F1200
G90
M400
G1 X108.000 Y2.5 F30000
G0 Z0.2 F600
M83
G0 X128 E10  F904.991
G0 X133 E.3742  F1508.32
G0 X138 E.3742  F6033.27
G0 X143 E.3742  F1508.32
G0 X148 E.3742  F6033.27
G0 X153 E.3742  F1508.32
G91
G1 X1 Z-0.300
G1 X4
G1 Z1 F1200
G90
M400
G1 Z1 F600
M106 P3 S255
G90
G21
M83 ; use relative distances for extrusion
; Filament gcode
SET_PRESSURE_ADVANCE ADVANCE=0.025; Override pressure advance value
T0
M106 P2 S0
;LAYER_CHANGE
;Z:0.2
;HEIGHT:0.2
;BEFORE_LAYER_CHANGE
;0.2
G92 E0

G1 E-.8 F1800
 ; timelapse without wipe tower
TIMELAPSE_TAKE_FRAME

G92 E0
SET_PRINT_STATS_INFO CURRENT_LAYER=1
;_SET_FAN_SPEED_CHANGING_LAYER
SET_VELOCITY_LIMIT ACCEL=500
G1 X56.972 Y105.559 F30000
G1 Z.6
G1 Z.2
G1 E.8 F1800
;TYPE:Skirt
;WIDTH:0.44
G1 F3000
G1 X237.365 Y105.55 E5.65827
G1 X237.989 Y105.616 E.01968
G1 X238.625 Y105.786 E.02065
G1 X239.397 Y106.156 E.02687
G1 X239.905 Y106.525 E.01968
G1 X240.371 Y106.991 E.02065
G1 X240.739 Y107.498 E.01968
G1 X241.11 Y108.271 E.02686
G1 X241.28 Y108.907 E.02066
G1 X241.349 Y109.646 E.02328
G1 X241.336 Y119.279 E.30217
G1 X241.051 Y120.501 E.03935
G1 X240.765 Y121.078 E.02021
G1 X240.262 Y121.749 E.02629
G1 X239.746 Y122.223 E.02197
G1 X187.723 Y162.622 E2.06601
G1 X186.519 Y163.389 E.04479
G1 X185.411 Y163.886 E.03807
G1 X184.047 Y164.273 E.04448
G1 X182.852 Y164.433 E.03783
G1 X107.657 Y164.452 E2.35857
G1 X106.465 Y164.361 E.03753
G1 X105.093 Y164.056 E.04409
G1 X103.323 Y163.303 E.0603
G1 X30.757 Y122.597 E2.60981
G1 X29.97 Y122.025 E.03052
G1 X29.283 Y121.199 E.03369
G1 X28.826 Y120.193 E.03468
G1 X28.665 Y119.335 E.02738
G1 X28.651 Y109.646 E.30392
G1 X28.819 Y108.489 E.03664
G1 X29.055 Y107.875 E.02066
G1 X29.369 Y107.331 E.01968
G1 X29.783 Y106.82 E.02065
G1 X30.25 Y106.4 E.01968
G1 X30.802 Y106.041 E.02066
G1 X31.375 Y105.786 E.01968
G1 X32.436 Y105.561 E.03404
G1 X56.932 Y105.559 E.76835
; printing object Ali Box - bracket (4).step id:0 copy 0
G1 E-.56 F1800
;WIPE_START
G1 F3000
G1 X57.932 Y105.559 E-.24
;WIPE_END
EXCLUDE_OBJECT_START NAME=Ali_Box_-_bracket_4_.step_id_0_copy_0
G1 X50.388 Y106.713 Z.6 F30000
G1 X32.527 Y109.445 Z.6
G1 Z.2
G1 E.8 F1800
;TYPE:Inner wall
;WIDTH:0.439999
G1 F3000
G1 X32.718 Y109.338 E.00685
G1 X237.27 Y109.338 E6.41606
G1 X237.459 Y109.436 E.00669
G1 X237.558 Y109.627 E.00673
G1 X237.567 Y119.01 E.29432
G1 X237.461 Y119.199 E.00679
G1 X187.957 Y156.733 E1.94863
G1 X188.042 Y156.349 E.01231
M73 P1 R37
G1 X188.124 Y155.152 E.03765
G1 X187.983 Y154.062 E.03448
G1 X187.588 Y152.895 E.03864
G1 X186.968 Y151.849 E.03814
G1 X186.252 Y151.05 E.03365
G1 X185.379 Y150.38 E.03451
G1 X184.545 Y149.944 E.02954
G1 X184.274 Y149.837 E.00914
G1 X183.096 Y149.537 E.03811
G1 X182.02 Y149.481 E.03381
G1 X180.933 Y149.627 E.03438
G1 X179.786 Y150.018 E.03801
G1 X178.836 Y150.571 E.03449
G1 X177.914 Y151.388 E.03864
G1 X177.189 Y152.365 E.03815
G1 X176.933 Y152.879 E.01803
G1 X176.933 Y128.093 E.77744
G1 X176.897 Y127.401 E.02174
G1 X176.804 Y126.737 E.02102
G1 X176.654 Y126.084 E.02102
G1 X176.435 Y125.418 E.02198
G1 X176.036 Y124.531 E.03054
G1 X175.696 Y123.953 E.02103
G1 X175.307 Y123.407 E.02102
G1 X174.873 Y122.898 E.02098
G1 X170.158 Y118.174 E.20933
G1 X169.368 Y117.497 E.03264
G1 X168.526 Y116.949 E.03151
G1 X167.62 Y116.516 E.03151
G1 X166.665 Y116.204 E.03151
G1 X165.677 Y116.02 E.03151
G1 X164.768 Y115.963 E.02859
G1 X124.893 Y115.969 E1.25073
G1 X124.143 Y116.043 E.02364
G1 X123.188 Y116.242 E.03058
G1 X122.523 Y116.46 E.02198
G1 X121.635 Y116.86 E.03054
G1 X121.057 Y117.2 E.02103
G1 X120.488 Y117.608 E.02198
G1 X119.805 Y118.211 E.02857
G1 X115.29 Y122.726 E.20029
G1 X114.808 Y123.264 E.02265
G1 X114.224 Y124.081 E.0315
G1 X113.751 Y124.968 E.03151
G1 X113.398 Y125.908 E.03151
G1 X113.175 Y126.856 E.03055
G1 X113.092 Y127.522 E.02103
G1 X113.067 Y128.128 E.01904
G1 X113.067 Y152.859 E.77571
G1 X112.468 Y151.849 E.03685
G1 X111.752 Y151.05 E.03365
G1 X110.879 Y150.38 E.03451
G1 X109.774 Y149.837 E.03864
G1 X108.596 Y149.537 E.03811
G1 X107.52 Y149.481 E.03381
G1 X106.433 Y149.627 E.03438
G1 X105.286 Y150.018 E.03801
G1 X104.336 Y150.571 E.03449
G1 X103.616 Y151.178 E.02954
G1 X103.414 Y151.388 E.00914
G1 X102.689 Y152.365 E.03815
G1 X102.231 Y153.335 E.03364
G1 X101.951 Y154.399 E.03451
G1 X101.877 Y155.612 E.03812
G1 X102.024 Y156.679 E.03379
G1 X102.264 Y157.466 E.02582
G1 X102.395 Y157.765 E.01023
G1 X32.543 Y119.264 E2.50176
G1 X32.443 Y119.012 E.00852
G1 X32.442 Y109.65 E.29365
G1 X32.512 Y109.482 E.00569
G1 X32.293 Y109.146 F30000
G1 F3000
G1 X32.419 Y109.022 E.00554
G1 X32.676 Y108.941 E.00845
G1 X237.404 Y108.941 E6.42157
G1 X237.74 Y109.155 E.0125
G1 X237.898 Y109.391 E.00889
G1 X237.955 Y109.627 E.00761
G1 X237.964 Y118.87 E.28994
G1 X237.9 Y119.255 E.01223
G1 X237.734 Y119.49 E.00905
G1 X188.138 Y157.094 E1.95222
G1 X187.727 Y157.493 E.01796
G1 X187.485 Y157.83 E.01304
;WIDTH:0.407387
G1 X187.055 Y158.551 E.02415
;WIDTH:0.396661
G1 X186.604 Y159.136 E.02066
G1 X186.199 Y159.558 E.01634
;WIDTH:0.396865
G1 X185.745 Y159.942 E.01663
G1 X185.36 Y160.216 E.0132
;WIDTH:0.394183
G1 X184.723 Y160.569 E.02021
;WIDTH:0.397183
G1 X184.274 Y160.755 E.0136
G1 X183.475 Y160.995 E.02336
;WIDTH:0.398601
G1 X182.896 Y161.082 E.01646
G1 X181.901 Y161.11 E.02796
;WIDTH:0.39718
G1 X181.085 Y161.007 E.02302
;WIDTH:0.397498
G1 X180.518 Y160.855 E.01643
G1 X179.933 Y160.641 E.01745
;WIDTH:0.393178
G1 X179.147 Y160.222 E.02465
;WIDTH:0.398656
G1 X178.721 Y159.914 E.01477
G1 X178.09 Y159.354 E.02369
;WIDTH:0.397017
G1 X177.707 Y158.908 E.01645
G1 X177.36 Y158.414 E.01689
;WIDTH:0.395365
G1 X176.923 Y157.576 E.02632
;WIDTH:0.397616
G1 X176.723 Y157 E.01708
G1 X176.588 Y156.469 E.01536
;WIDTH:0.397057
G1 X176.514 Y155.944 E.01483
G1 X176.478 Y155.322 E.01743
;WIDTH:0.429846
G1 X176.523 Y154.189 E.03466
;WIDTH:0.439999
G1 X176.536 Y153.363 E.02589
G1 X176.536 Y128.104 E.79229
G1 X176.503 Y127.453 E.02045
G1 X176.417 Y126.823 E.01993
G1 X176.275 Y126.204 E.01993
G1 X176.072 Y125.578 E.02062
G1 X175.692 Y124.729 E.02918
G1 X175.371 Y124.18 E.01995
G1 X175.003 Y123.662 E.01993
G1 X174.592 Y123.178 E.01991
G1 X169.889 Y118.466 E.20882
G1 X169.147 Y117.828 E.0307
G1 X168.35 Y117.305 E.02989
G1 X167.492 Y116.892 E.02989
G1 X166.587 Y116.593 E.02989
G1 X165.651 Y116.416 E.02988
G1 X164.768 Y116.36 E.02777
G1 X124.913 Y116.366 E1.25009
G1 X124.22 Y116.433 E.02184
G1 X123.308 Y116.62 E.02922
G1 X122.683 Y116.824 E.02062
G1 X121.834 Y117.204 E.02918
G1 X121.285 Y117.525 E.01995
G1 X120.75 Y117.907 E.02062
G1 X120.086 Y118.492 E.02775
G1 X115.579 Y122.999 E.19993
G1 X115.128 Y123.499 E.02111
G1 X114.572 Y124.272 E.02987
G1 X114.121 Y125.112 E.02989
G1 X113.784 Y126.003 E.02989
G1 X113.568 Y126.908 E.0292
G1 X113.489 Y127.539 E.01995
G1 X113.464 Y128.128 E.0185
G1 X113.464 Y153.183 E.78588
G1 X113.491 Y154.355 E.03675
;WIDTH:0.418829
G1 X113.525 Y155.297 E.02801
;WIDTH:0.398851
G1 X113.495 Y155.828 E.01494
G1 X113.422 Y156.407 E.01641
;WIDTH:0.397585
G1 X113.278 Y156.999 E.01709
G1 X113.076 Y157.573 E.01703
;WIDTH:0.393801
G1 X112.719 Y158.29 E.0222
;WIDTH:0.397394
G1 X112.449 Y158.698 E.0137
G1 X111.932 Y159.332 E.02291
;WIDTH:0.398744
G1 X111.497 Y159.735 E.01668
G1 X110.807 Y160.247 E.02415
;WIDTH:0.394914
G1 X110.107 Y160.622 E.02208
;WIDTH:0.398935
G1 X109.533 Y160.837 E.01723
G1 X108.825 Y161.023 E.0206
;WIDTH:0.397966
G1 X108.147 Y161.106 E.01914
G1 X107.636 Y161.119 E.01436
;WIDTH:0.398293
G1 X106.964 Y161.066 E.01891
G1 X106.255 Y160.925 E.02028
;WIDTH:0.395872
G1 X105.436 Y160.637 E.02422
;WIDTH:0.39705
G1 X104.932 Y160.387 E.01573
G1 X104.494 Y160.118 E.01438
;WIDTH:0.398671
G1 X104.065 Y159.786 E.01524
G1 X103.583 Y159.348 E.01829
;WIDTH:0.425738
G1 X102.893 Y158.598 E.03082
;WIDTH:0.439999
G1 X102.419 Y158.232 E.01879
G1 X32.497 Y119.692 E2.50428
G1 X32.182 Y119.439 E.01269
G1 X32.046 Y119.065 E.01248
G1 X32.045 Y109.597 E.29697
G1 X32.169 Y109.268 E.01103
G1 X32.265 Y109.174 E.00421
G1 X31.959 Y108.884 F30000
G1 F3000
G1 X32.21 Y108.68 E.01014
G1 X32.634 Y108.544 E.01399
G1 X237.413 Y108.544 E6.42318
G1 X237.898 Y108.752 E.01655
M73 P1 R36
G1 X238.142 Y108.996 E.01083
G1 X238.307 Y109.318 E.01132
G1 X238.352 Y109.626 E.00977
G1 X238.361 Y118.936 E.29203
G1 X238.266 Y119.414 E.01527
G1 X238.006 Y119.782 E.01415
G1 X188.765 Y157.117 E1.93828
G1 X188.315 Y157.465 E.01782
G1 X187.797 Y158.025 E.02393
;WIDTH:0.414842
G1 X187.339 Y158.766 E.02562
;WIDTH:0.406567
G1 X186.862 Y159.385 E.02243
G1 X186.444 Y159.82 E.01732
M73 P2 R36
;WIDTH:0.406725
G1 X185.977 Y160.216 E.01761
G1 X185.549 Y160.519 E.01507
;WIDTH:0.404655
G1 X184.871 Y160.894 E.02213
;WIDTH:0.406969
G1 X184.387 Y161.096 E.0151
;WIDTH:0.407633
G1 X183.903 Y161.253 E.01465
G1 X183.409 Y161.372 E.01464
;WIDTH:0.408064
G1 X182.906 Y161.443 E.01466
G1 X181.899 Y161.471 E.02904
;WIDTH:0.407749
G1 X181.383 Y161.419 E.01494
G1 X180.883 Y161.328 E.01465
;WIDTH:0.407259
G1 X180.393 Y161.192 E.01466
G1 X179.791 Y160.967 E.01848
G1 X179.34 Y160.745 E.01447
G1 X178.902 Y160.487 E.01463
;WIDTH:0.408106
G1 X178.489 Y160.19 E.01468
G1 X178.1 Y159.862 E.01467
;WIDTH:0.406464
G1 X177.741 Y159.503 E.0146
;WIDTH:0.406842
G1 X177.413 Y159.114 E.01461
G1 X177.048 Y158.588 E.0184
;WIDTH:0.407547
G1 X176.739 Y158.03 E.01839
G1 X176.537 Y157.571 E.01445
;WIDTH:0.407304
G1 X176.374 Y157.088 E.01465
G1 X176.231 Y156.48 E.01799
;WIDTH:0.406873
G1 X176.156 Y155.963 E.01503
G1 X176.121 Y155.322 E.01846
;WIDTH:0.432166
G1 X176.135 Y154.189 E.03485
;WIDTH:0.439999
G1 X176.139 Y128.114 E.81785
G1 X176.11 Y127.505 E.01914
G1 X176.029 Y126.909 E.01885
G1 X175.897 Y126.323 E.01885
G1 X175.709 Y125.738 E.01927
G1 X175.348 Y124.928 E.02782
G1 X175.045 Y124.408 E.01886
G1 X174.699 Y123.917 E.01885
G1 X174.311 Y123.459 E.01883
G1 X169.619 Y118.758 E.20834
G1 X168.927 Y118.158 E.02874
G1 X168.175 Y117.661 E.02826
G1 X167.364 Y117.268 E.02826
G1 X166.51 Y116.983 E.02826
G1 X165.625 Y116.812 E.02826
G1 X164.768 Y116.757 E.02695
G1 X124.933 Y116.763 E1.24947
G1 X124.298 Y116.822 E.02001
G1 X123.427 Y116.999 E.02786
G1 X122.843 Y117.187 E.01926
G1 X122.032 Y117.548 E.02782
G1 X121.512 Y117.85 E.01886
G1 X121.011 Y118.205 E.01927
G1 X120.366 Y118.773 E.02693
G1 X115.867 Y123.272 E.19959
G1 X115.449 Y123.734 E.01955
G1 X114.92 Y124.463 E.02824
G1 X114.491 Y125.255 E.02826
G1 X114.17 Y126.097 E.02826
G1 X113.962 Y126.96 E.02784
G1 X113.886 Y127.556 E.01886
G1 X113.861 Y128.128 E.01795
G1 X113.87 Y154.355 E.82262
;WIDTH:0.423668
G1 X113.879 Y155.364 E.03038
;WIDTH:0.408256
G1 X113.852 Y155.88 E.01488
G1 X113.749 Y156.612 E.02135
;WIDTH:0.407279
G1 X113.618 Y157.116 E.01498
G1 X113.455 Y157.592 E.0145
;WIDTH:0.407133
G1 X113.25 Y158.053 E.01451
G1 X113.011 Y158.497 E.0145
G1 X112.733 Y158.918 E.01451
;WIDTH:0.407514
G1 X112.423 Y159.315 E.01452
G1 X112.084 Y159.687 E.01451
;WIDTH:0.408174
G1 X111.71 Y160.026 E.01454
G1 X111.011 Y160.542 E.02509
;WIDTH:0.406687
G1 X110.561 Y160.797 E.01486
G1 X110.105 Y161.011 E.01448
;WIDTH:0.408321
G1 X109.631 Y161.184 E.01456
G1 X109.146 Y161.321 E.01454
;WIDTH:0.406967
G1 X108.651 Y161.414 E.0145
;WIDTH:0.407573
G1 X108.15 Y161.466 E.01451
G1 X107.41 Y161.472 E.0213
;WIDTH:0.407826
G1 X106.893 Y161.419 E.01499
G1 X106.142 Y161.265 E.0221
;WIDTH:0.405958
G1 X105.284 Y160.956 E.02616
;WIDTH:0.406867
G1 X104.745 Y160.693 E.01723
G1 X104.281 Y160.402 E.01574
;WIDTH:0.408118
G1 X103.821 Y160.052 E.01668
G1 X103.32 Y159.586 E.01973
;WIDTH:0.410027
G1 X102.878 Y159.093 E.0192
;WIDTH:0.428997
G1 X102.662 Y158.906 E.00873
;WIDTH:0.439999
G1 X102.227 Y158.58 E.01703
G1 X32.306 Y120.04 E2.50428
G1 X32.022 Y119.85 E.01071
G1 X31.812 Y119.593 E.01041
G1 X31.649 Y119.118 E.01575
G1 X31.648 Y109.545 E.30029
G1 X31.742 Y109.196 E.01132
G1 X31.928 Y108.91 E.01072
G1 X31.695 Y108.559 F30000
;TYPE:Outer wall
G1 F3000
G1 X31.831 Y108.448 E.00549
G1 X32.15 Y108.249 E.01179
G1 X32.59 Y108.125 E.01435
G1 X237.27 Y108.125 E6.42006
G1 X237.718 Y108.191 E.0142
G1 X238.147 Y108.409 E.0151
G1 X238.485 Y108.747 E.01499
G1 X238.705 Y109.177 E.01514
G1 X238.77 Y109.626 E.01423
G1 X238.78 Y118.869 E.28994
G1 X238.747 Y119.283 E.01303
G1 X238.575 Y119.718 E.01464
G1 X238.293 Y120.09 E.01465
G1 X188.612 Y157.76 E1.95562
G1 X188.142 Y158.239 E.02107
G1 X187.684 Y158.974 E.02716
G1 X187.19 Y159.625 E.02563
G1 X186.72 Y160.113 E.02125
G1 X186.203 Y160.551 E.02125
G1 X185.761 Y160.86 E.01691
G1 X185.047 Y161.255 E.0256
G1 X184.55 Y161.466 E.01695
G1 X184.035 Y161.635 E.017
G1 X183.508 Y161.762 E.017
G1 X182.975 Y161.843 E.01689
G1 X181.885 Y161.874 E.0342
G1 X181.35 Y161.821 E.01688
G1 X180.817 Y161.724 E.017
G1 X180.293 Y161.584 E.01699
G1 X179.656 Y161.347 E.02132
G1 X179.169 Y161.111 E.01697
