; HEADER_BLOCK_START
; generated by OrcaSlicer 2.3.0 on 2025-09-09 at 23:20:27
; total layer number: 40
;_GP_TOTAL_LAYER_NUMBER_PLACEHOLDER
; filament_density: 1.02,1.27,1.02,1.24,1.24,1.24
; filament_diameter: 1.75,1.75,1.75,1.75,1.75,1.75
; max_z_height: 8.00
; HEADER_BLOCK_END

; THUMBNAIL_BLOCK_START

;
; THUMBNAIL_BLOCK_END

; external perimeters extrusion width = 0.42mm
; perimeters extrusion width = 0.45mm
; infill extrusion width = 0.45mm
; solid infill extrusion width = 0.42mm
; top infill extrusion width = 0.42mm
; first layer extrusion width = 0.44mm

; EXECUTABLE_BLOCK_START
EXCLUDE_OBJECT_DEFINE NAME=Ali_Box_-_bracket_1_.step_id_0_copy_0 CENTER=135,135 POLYGON=[[30.75,109.646],[30.7556,109.496],[30.7723,109.348],[30.8001,109.201],[30.8389,109.056],[30.8883,108.915],[30.9481,108.778],[31.0179,108.646],[31.0975,108.519],[31.1863,108.399],[31.2839,108.285],[31.3896,108.18],[31.503,108.082],[31.6234,107.993],[31.75,107.914],[31.8822,107.844],[32.0193,107.784],[32.1605,107.734],[32.305,107.696],[32.4519,107.668],[32.6005,107.651],[32.75,107.646],[237.25,107.646],[237.399,107.651],[237.548,107.668],[237.695,107.696],[237.84,107.734],[237.981,107.784],[238.118,107.844],[238.25,107.914],[238.377,107.993],[238.497,108.082],[238.61,108.18],[238.716,108.285],[238.814,108.399],[238.902,108.519],[238.982,108.646],[239.052,108.778],[239.112,108.915],[239.161,109.056],[239.2,109.201],[239.228,109.348],[239.244,109.496],[239.25,109.646],[239.25,116.463],[239.244,116.616],[239.226,116.769],[239.197,116.92],[239.156,117.068],[239.104,117.212],[239.041,117.353],[238.968,117.487],[238.884,117.616],[238.79,117.738],[238.688,117.853],[238.577,117.959],[186.646,160.802],[186.549,160.878],[186.419,160.977],[186.318,161.051],[186.186,161.143],[186.079,161.215],[185.946,161.299],[185.833,161.368],[185.7,161.445],[185.582,161.511],[185.448,161.581],[185.324,161.643],[185.19,161.707],[185.062,161.765],[184.928,161.822],[184.795,161.875],[184.661,161.926],[184.523,161.975],[184.391,162.019],[184.247,162.063],[184.116,162.101],[183.968,162.14],[183.839,162.172],[183.687,162.205],[183.559,162.231],[183.402,162.259],[183.276,162.279],[183.116,162.301],[182.992,162.315],[182.828,162.33],[182.707,162.339],[182.539,162.348],[182.421,162.352],[182.25,162.354],[107.75,162.354],[107.556,162.352],[107.461,162.348],[107.27,162.338],[107.172,162.33],[106.984,162.312],[106.884,162.301],[106.7,162.275],[106.598,162.259],[106.417,162.226],[106.313,162.205],[106.136,162.166],[106.032,162.14],[105.859,162.094],[105.753,162.063],[105.584,162.011],[105.477,161.975],[105.313,161.917],[105.205,161.875],[105.046,161.811],[104.938,161.765],[104.784,161.695],[104.676,161.643],[104.527,161.568],[104.418,161.511],[104.275,161.431],[104.167,161.368],[31.654,117.263],[31.5298,117.175],[31.4127,117.077],[31.3033,116.971],[31.2024,116.857],[31.1104,116.735],[31.028,116.607],[30.9555,116.473],[30.8935,116.334],[30.8422,116.19],[30.802,116.043],[30.7732,115.894],[30.7558,115.742],[30.75,115.59],[30.75,109.646]]
M73 P0 R36
M106 S0
M106 P2 S0
;TYPE:Custom
PRINT_START BED=80 HOTEND=240 CHAMBER=0 EXTRUDER=1
SET_PRINT_STATS_INFO TOTAL_LAYER=40
M83
M140 S80
M104 S240
M141 S0
G4 P3000
T1
G1 X108.000 Y1 F30000
G0 Z0.2 F600
;G1 E3 F1800
G90
M83
G0 X128 E8  F904.991
G0 X133 E.3742  F1508.32
G0 X138 E.3742  F6033.27
G0 X143 E.3742  F1508.32
G0 X148 E.3742  F6033.27
M73 P0 R35
G0 X153 E.3742  F1508.32
G91
G1 X1 Z-0.300
G1 X4
G1 Z1 F1200
G90
M400
G1 X108.000 Y2.5 F30000
G0 Z0.2 F600
M83
G0 X128 E10  F904.991
G0 X133 E.3742  F1508.32
G0 X138 E.3742  F6033.27
G0 X143 E.3742  F1508.32
G0 X148 E.3742  F6033.27
G0 X153 E.3742  F1508.32
G91
G1 X1 Z-0.300
G1 X4
G1 Z1 F1200
G90
M400
G1 Z1 F600
G90
G21
M83 ; use relative distances for extrusion
G1 Z3 F1200
TOOL_CHANGE_START F=1 T=1
DISABLE_ALL_SENSOR
;_FORCE_RESUME_FAN_SPEED
T1
M104 S240 ; set nozzle temperature
; Filament gcode
SET_PRESSURE_ADVANCE ADVANCE=0.03; Override pressure advance value
M106 P2 S0
;LAYER_CHANGE
;Z:0.2
;HEIGHT:0.2
;BEFORE_LAYER_CHANGE
;0.2
G92 E0

G1 E-.8 F1800
 ; timelapse without wipe tower
TIMELAPSE_TAKE_FRAME

G92 E0
SET_PRINT_STATS_INFO CURRENT_LAYER=1
;_SET_FAN_SPEED_CHANGING_LAYER
SET_VELOCITY_LIMIT ACCEL=500
G1 X56.885 Y105.454 F30000
G1 Z.6
G1 Z.2
G1 E.8 F1800
;TYPE:Skirt
;WIDTH:0.44
G1 F3000
G1 X237.332 Y105.449 E5.71955
G1 X238.104 Y105.536 E.02461
G1 X238.707 Y105.709 E.01989
G1 X239.277 Y105.97 E.01989
G1 X239.931 Y106.415 E.02507
G1 X240.384 Y106.853 E.01996
G1 X240.844 Y107.476 E.02454
G1 X241.127 Y108.036 E.01989
G1 X241.36 Y108.792 E.02507
G1 X241.449 Y109.646 E.02721
G1 X241.428 Y116.869 E.22896
G1 X241.109 Y118.114 E.04074
G1 X240.727 Y118.814 E.02528
G1 X240.326 Y119.319 E.02043
G1 X187.989 Y162.542 E2.15149
G1 X186.82 Y163.337 E.04481
G1 X185.462 Y163.973 E.04752
G1 X184.016 Y164.381 E.04764
G1 X182.808 Y164.536 E.0386
G1 X107.83 Y164.552 E2.37654
G1 X106.413 Y164.455 E.04504
G1 X104.946 Y164.115 E.04773
G1 X103.892 Y163.704 E.03585
G1 X102.888 Y163.163 E.03615
G1 X30.512 Y119.141 E2.68511
G1 X29.656 Y118.427 E.03531
G1 X29.092 Y117.649 E.03049
G1 X28.721 Y116.77 E.03023
G1 X28.559 Y115.826 E.03036
G1 X28.553 Y109.563 E.1985
G1 X28.64 Y108.792 E.02461
G1 X28.813 Y108.189 E.01989
G1 X29.417 Y107.093 E.03966
G1 X30.318 Y106.224 E.03966
G1 X31.434 Y105.659 E.03966
G1 X32.518 Y105.454 E.03497
G1 X56.845 Y105.454 E.77108
; printing object Ali Box - bracket (1).step id:0 copy 0
G1 E-.56 F1800
;WIPE_START
G1 F3000
G1 X57.845 Y105.454 E-.24
;WIPE_END
EXCLUDE_OBJECT_START NAME=Ali_Box_-_bracket_1_.step_id_0_copy_0
G1 X50.297 Y106.583 Z.6 F30000
G1 X32.718 Y109.212 Z.6
G1 Z.2
G1 E.8 F1800
;TYPE:Inner wall
;WIDTH:0.439999
G1 F3000
G1 X237.17 Y109.212 E6.48043
G1 X237.45 Y109.268 E.00904
M73 P1 R35
G1 X237.629 Y109.465 E.00843
G1 X237.689 Y109.719 E.00829
G1 X237.683 Y116.305 E.20875
G1 X237.64 Y116.625 E.01024
G1 X237.427 Y116.879 E.0105
G1 X189.888 Y152.919 E1.89089
G1 X189.349 Y153.348 E.02185
G1 X188.978 Y153.733 E.01693
G1 X188.572 Y154.198 E.01959
G1 X188 Y155.155 E.03532
G1 X187.907 Y154.293 E.02747
G1 X187.662 Y153.397 E.02946
G1 X187.345 Y152.717 E.02377
G1 X186.986 Y152.079 E.0232
G1 X186.377 Y151.343 E.03029
G1 X185.468 Y150.58 E.03762
G1 X184.634 Y150.116 E.03025
G1 X183.759 Y149.8 E.02949
G1 X183.472 Y149.73 E.00936
G1 X182.33 Y149.595 E.03646
G1 X181.643 Y149.631 E.02178
G1 X180.448 Y149.889 E.03877
G1 X179.333 Y150.393 E.03878
G1 X178.376 Y151.095 E.03763
G1 X177.726 Y151.796 E.03029
G1 X177.09 Y152.798 E.03762
G1 X176.815 Y153.44 E.02212
G1 X176.811 Y127.227 E.83085
G1 X176.713 Y126.29 E.02988
G1 X176.652 Y126.006 E.0092
G1 X176.282 Y124.942 E.03569
G1 X175.829 Y124.156 E.02876
G1 X175.184 Y123.372 E.03219
G1 X163.491 Y111.679 E.52416
G1 X163.004 Y111.257 E.02042
G1 X162.247 Y110.765 E.02862
G1 X161.206 Y110.327 E.0358
G1 X160.356 Y110.14 E.02757
G1 X159.596 Y110.084 E.02417
G1 X130.082 Y110.09 E.93547
G1 X129.109 Y110.244 E.03124
G1 X128.046 Y110.614 E.03567
G1 X127.259 Y111.068 E.02882
G1 X126.478 Y111.71 E.03203
G1 X114.764 Y123.423 E.52508
G1 X114.171 Y124.156 E.02988
G1 X114.013 Y124.4 E.0092
G1 X113.523 Y125.413 E.03569
G1 X113.288 Y126.289 E.02876
G1 X113.189 Y127.3 E.03219
G1 X113.189 Y153.53 E.8314
G1 X112.928 Y152.842 E.0233
G1 X112.305 Y151.832 E.03762
G1 X111.658 Y151.129 E.03029
G1 X110.677 Y150.399 E.03878
G1 X109.599 Y149.901 E.03763
G1 X108.671 Y149.673 E.03029
G1 X107.486 Y149.602 E.03761
G1 X106.539 Y149.728 E.03029
G1 X105.649 Y149.996 E.02946
G1 X105.377 Y150.111 E.00936
G1 X104.564 Y150.561 E.02946
G1 X104.322 Y150.731 E.00936
G1 X103.422 Y151.56 E.03878
G1 X102.814 Y152.384 E.03245
G1 X102.562 Y152.881 E.01766
G1 X102.337 Y153.4 E.01794
G1 X102.199 Y153.907 E.01664
G1 X102.046 Y154.585 E.02204
G1 X102.004 Y155.377 E.02515
G1 X101.588 Y154.713 E.02485
G1 X101.193 Y154.185 E.02091
G1 X100.399 Y153.445 E.0344
G1 X99.915 Y153.118 E.0185
G1 X32.611 Y116.014 E2.436
G1 X32.386 Y115.805 E.00974
G1 X32.311 Y115.507 E.00974
G1 X32.311 Y109.758 E.18222
G1 X32.384 Y109.434 E.01051
G1 X32.514 Y109.3 E.00594
G1 X32.681 Y109.228 E.00576
G1 X32.448 Y108.881 F30000
G1 F3000
G1 X32.688 Y108.815 E.00789
G1 X237.17 Y108.815 E6.48138
G1 X237.57 Y108.882 E.01284
G1 X237.805 Y109.048 E.00912
G1 X238.027 Y109.36 E.01215
G1 X238.086 Y109.72 E.01154
G1 X238.08 Y116.488 E.21452
G1 X237.973 Y116.857 E.01219
G1 X237.691 Y117.177 E.01352
G1 X190.128 Y153.235 E1.89186
G1 X189.635 Y153.624 E.0199
G1 X189.035 Y154.247 E.02741
G1 X188.798 Y154.586 E.01311
G1 X188.369 Y155.301 E.02644
;WIDTH:0.484763
G1 X188.081 Y155.872 E.02255
G1 X188.042 Y156.019 E.00537
;WIDTH:0.478676
G1 X187.822 Y156.987 E.03451
;WIDTH:0.461281
G1 X187.552 Y157.721 E.02612
;WIDTH:0.467656
G1 X187.267 Y158.263 E.02077
G1 X186.982 Y158.714 E.0181
;WIDTH:0.464413
G1 X186.568 Y159.231 E.02227
G1 X186.197 Y159.611 E.01788
;WIDTH:0.463986
G1 X185.519 Y160.15 E.02909
;WIDTH:0.464635
G1 X185.101 Y160.409 E.01656
G1 X184.283 Y160.794 E.03045
;WIDTH:0.466977
G1 X183.789 Y160.947 E.01748
G1 X182.894 Y161.124 E.03091
;WIDTH:0.467708
G1 X182.384 Y161.152 E.0173
G1 X181.653 Y161.127 E.02481
;WIDTH:0.46678
G1 X180.971 Y161.012 E.02339
G1 X180.436 Y160.866 E.01877
;WIDTH:0.466939
G1 X179.837 Y160.629 E.02181
G1 X179.344 Y160.38 E.01868
;WIDTH:0.460756
G1 X178.705 Y159.953 E.02565
;WIDTH:0.467455
G1 X178.279 Y159.582 E.01914
G1 X177.7 Y158.958 E.02885
G1 X177.375 Y158.494 E.01919
G1 X177.013 Y157.86 E.02472
;WIDTH:0.462679
G1 X176.699 Y157.055 E.02897
;WIDTH:0.467542
G1 X176.572 Y156.532 E.01823
G1 X176.464 Y155.829 E.02411
;WIDTH:0.468024
G1 X176.45 Y155.327 E.01704
;WIDTH:0.476027
G1 X176.46 Y154.624 E.02429
G1 X176.414 Y153.695 E.03216
;WIDTH:0.439999
G1 X176.414 Y127.239 E.83856
G1 X176.274 Y126.128 E.03549
G1 X175.933 Y125.132 E.03339
G1 X175.52 Y124.406 E.02646
G1 X174.903 Y123.653 E.03087
G1 X163.22 Y111.97 E.5237
G1 X162.779 Y111.584 E.01858
G1 X162.085 Y111.127 E.02633
G1 X161.113 Y110.713 E.0335
G1 X160.325 Y110.536 E.0256
G1 X159.596 Y110.481 E.02317
G1 X130.115 Y110.487 E.93445
G1 X129.232 Y110.621 E.02831
G1 X128.236 Y110.963 E.03337
G1 X127.509 Y111.377 E.02653
G1 X126.759 Y111.991 E.03071
G1 X115.054 Y123.695 E.52468
G1 X114.367 Y124.58 E.03549
G1 X113.904 Y125.526 E.03339
G1 X113.682 Y126.331 E.02646
G1 X113.586 Y127.3 E.03087
G1 X113.586 Y153.089 E.81743
;WIDTH:0.460448
G1 X113.56 Y154.019 E.03099
;WIDTH:0.492115
G1 X113.52 Y154.26 E.00878
G1 X113.554 Y155.327 E.03828
;WIDTH:0.467016
G1 X113.53 Y155.829 E.01703
G1 X113.427 Y156.556 E.02486
;WIDTH:0.464828
G1 X113.181 Y157.409 E.02988
;WIDTH:0.467083
G1 X112.967 Y157.89 E.01783
G1 X112.488 Y158.71 E.03218
;WIDTH:0.462957
G1 X111.876 Y159.438 E.03188
;WIDTH:0.463968
G1 X111.153 Y160.056 E.03195
G1 X110.415 Y160.511 E.02914
;WIDTH:0.466693
G1 X109.905 Y160.74 E.01892
G1 X109.155 Y160.988 E.02671
;WIDTH:0.467614
G1 X108.537 Y161.1 E.0213
G1 X107.974 Y161.153 E.01918
G1 X107.342 Y161.139 E.02141
G1 X106.798 Y161.079 E.01856
;WIDTH:0.467324
G1 X106.164 Y160.933 E.02203
G1 X105.299 Y160.617 E.03122
;WIDTH:0.463005
G1 X104.745 Y160.32 E.02108
;WIDTH:0.467292
G1 X104.267 Y159.992 E.01963
G1 X103.553 Y159.365 E.03218
;WIDTH:0.464035
G1 X102.957 Y158.628 E.03185
G1 X102.524 Y157.881 E.02903
;WIDTH:0.464602
G1 X102.305 Y157.362 E.01896
G1 X102.142 Y156.866 E.01757
;WIDTH:0.478352
G1 X102.012 Y156.315 E.01969
G1 X101.639 Y155.531 E.03017
;WIDTH:0.439999
G1 X101.26 Y154.936 E.02237
G1 X100.918 Y154.471 E.01829
G1 X100.172 Y153.771 E.03243
G1 X99.724 Y153.466 E.01719
G1 X32.4 Y116.351 E2.43672
G1 X32.131 Y116.12 E.01123
G1 X31.987 Y115.876 E.00898
G1 X31.914 Y115.529 E.01123
G1 X31.914 Y109.529 E.19018
G1 X32.113 Y109.137 E.01392
G1 X32.408 Y108.892 E.01216
G1 X32.41 Y108.892 E.00006
G1 X32.342 Y108.504 F30000
G1 F3000
G1 X32.658 Y108.418 E.01038
G1 X237.17 Y108.418 E6.48233
G1 X237.461 Y108.451 E.00929
M73 P2 R35
G1 X237.821 Y108.566 E.01197
G1 X238.209 Y108.881 E.01584
G1 X238.3 Y109.039 E.00578
G1 X238.438 Y109.363 E.01115
G1 X238.483 Y109.72 E.01141
G1 X238.478 Y116.373 E.21088
G1 X238.413 Y116.807 E.01389
G1 X238.259 Y117.161 E.01226
G1 X237.955 Y117.475 E.01384
G1 X190.368 Y153.552 E1.89282
G1 X189.921 Y153.899 E.01795
G1 X189.321 Y154.522 E.02741
G1 X188.738 Y155.448 E.03466
;WIDTH:0.469835
G1 X188.46 Y156.123 E.02487
G1 X188.227 Y157.087 E.0338
;WIDTH:0.458907
G1 X188.065 Y157.569 E.01689
G1 X187.864 Y158.04 E.01702
;WIDTH:0.461334
G1 X187.623 Y158.489 E.017
G1 X187.208 Y159.102 E.02473
;WIDTH:0.458833
G1 X186.891 Y159.499 E.01687
G1 X186.521 Y159.881 E.01765
;WIDTH:0.461271
G1 X186.135 Y160.213 E.017
G1 X185.726 Y160.515 E.01699
;WIDTH:0.459004
G1 X185.292 Y160.782 E.0169
;WIDTH:0.46115
G1 X184.838 Y161.011 E.01699
G1 X184.372 Y161.205 E.01686
;WIDTH:0.460811
G1 X183.885 Y161.357 E.017
G1 X183.389 Y161.471 E.01697
;WIDTH:0.459775
G1 X182.886 Y161.544 E.01693
;WIDTH:0.461375
G1 X182.377 Y161.574 E.01701
G1 X181.869 Y161.565 E.01699
;WIDTH:0.460013
G1 X181.363 Y161.512 E.01695
;WIDTH:0.460658
G1 X180.862 Y161.419 E.01697
G1 X180.288 Y161.255 E.01991
;WIDTH:0.460781
G1 X179.677 Y161.019 E.02185
G1 X179.205 Y160.782 E.01762
;WIDTH:0.45902
G1 X178.772 Y160.514 E.01691
G1 X178.362 Y160.213 E.0169
;WIDTH:0.46115
G1 X177.979 Y159.877 E.017
G1 X177.623 Y159.514 E.01698
;WIDTH:0.459015
G1 X177.298 Y159.122 E.0169
;WIDTH:0.461179
G1 X177.007 Y158.7 E.01711
G1 X176.643 Y158.056 E.02471
;WIDTH:0.458433
G1 X176.436 Y157.57 E.01753
G1 X176.274 Y157.087 E.01688
;WIDTH:0.461247
G1 X176.155 Y156.592 E.017
G1 X176.047 Y155.857 E.02483
;WIDTH:0.461619
G1 X176.028 Y155.327 E.01771
;WIDTH:0.467792
G1 X176.017 Y153.695 E.05534
;WIDTH:0.439999
G1 X176.017 Y127.265 E.83775
G1 X175.897 Y126.251 E.03237
G1 X175.584 Y125.321 E.03109
G1 X175.212 Y124.656 E.02417
G1 X174.623 Y123.933 E.02955
G1 X162.949 Y112.26 E.52326
G1 X162.554 Y111.911 E.01671
G1 X161.923 Y111.49 E.02403
G1 X161.02 Y111.099 E.03121
G1 X160.294 Y110.932 E.02363
G1 X159.596 Y110.879 E.02218
G1 X130.146 Y110.884 E.93346
G1 X129.354 Y110.999 E.02535
G1 X128.425 Y111.312 E.03107
G1 X127.758 Y111.685 E.02424
G1 X127.04 Y112.271 E.02939
G1 X115.353 Y123.958 E.52387
G1 X114.721 Y124.76 E.03237
G1 X114.284 Y125.639 E.03109
G1 X114.077 Y126.373 E.02417
G1 X113.983 Y127.3 E.02955
G1 X113.983 Y153.089 E.81743
;WIDTH:0.480203
G1 X113.963 Y154.26 E.04088
G1 X113.973 Y155.353 E.03815
;WIDTH:0.460841
G1 X113.947 Y155.89 E.01793
G1 X113.841 Y156.627 E.02485
;WIDTH:0.461119
G1 X113.709 Y157.14 E.01767
G1 X113.545 Y157.622 E.01701
;WIDTH:0.460893
G1 X113.338 Y158.089 E.01703
G1 X113.096 Y158.537 E.01701
;WIDTH:0.459629
G1 X112.818 Y158.965 E.01696
;WIDTH:0.458432
G1 X112.505 Y159.367 E.01692
G1 X112.161 Y159.744 E.01691
;WIDTH:0.458256
G1 X111.786 Y160.09 E.01691
;WIDTH:0.45849
G1 X111.385 Y160.404 E.01692
;WIDTH:0.461275
G1 X110.958 Y160.684 E.01704
G1 X110.512 Y160.931 E.01702
;WIDTH:0.460592
G1 X110.045 Y161.136 E.01701
G1 X109.564 Y161.305 E.017
;WIDTH:0.46009
G1 X109.071 Y161.435 E.01697
;WIDTH:0.461302
G1 X108.568 Y161.52 E.01704
G1 X107.797 Y161.577 E.02584
G1 X107.296 Y161.558 E.01673
G1 X106.552 Y161.452 E.0251
;WIDTH:0.461079
G1 X106.034 Y161.333 E.01774
G1 X105.559 Y161.177 E.0167
;WIDTH:0.458966
G1 X105.089 Y160.978 E.01693
;WIDTH:0.457746
G1 X104.466 Y160.639 E.02351
;WIDTH:0.461053
G1 X104.042 Y160.349 E.01712
G1 X103.645 Y160.03 E.01702
;WIDTH:0.459247
G1 X103.275 Y159.678 E.01695
;WIDTH:0.4582
G1 X102.936 Y159.297 E.01691
;WIDTH:0.458541
G1 X102.632 Y158.892 E.0168
;WIDTH:0.461251
G1 X102.359 Y158.458 E.01714
G1 X102.122 Y158.01 E.01693
;WIDTH:0.458978
G1 X101.925 Y157.54 E.01693
G1 X101.759 Y157.042 E.01743
;WIDTH:0.463678
G1 X101.636 Y156.556 E.01683
G1 X101.428 Y156.066 E.01786
;WIDTH:0.439999
G1 X101.212 Y155.572 E.01709
G1 X100.643 Y154.757 E.03151
G1 X99.945 Y154.097 E.03046
G1 X99.532 Y153.813 E.01587
G1 X32.26 Y116.728 E2.43485
G1 X31.937 Y116.51 E.01233
G1 X31.695 Y116.213 E.01215
G1 X31.552 Y115.858 E.01215
G1 X31.517 Y115.552 E.00975
G1 X31.517 Y109.758 E.18365
G1 X31.551 Y109.383 E.01193
G1 X31.688 Y109.033 E.01193
G1 X31.916 Y108.747 E.01158
G1 X32.227 Y108.535 E.01194
G1 X32.304 Y108.514 E.00251
