; HEADER_BLOCK_START
; generated by OrcaSlicer 2.3.0 on 2025-09-11 at 21:17:30
; total layer number: 20
;_GP_TOTAL_LAYER_NUMBER_PLACEHOLDER
; filament_density: 1.02,1.27,1.02,1.24,1.24,1.24
; filament_diameter: 1.75,1.75,1.75,1.75,1.75,1.75
; max_z_height: 4.00
; HEADER_BLOCK_END

; THUMBNAIL_BLOCK_START

;
; THUMBNAIL_BLOCK_END

; external perimeters extrusion width = 0.42mm
; perimeters extrusion width = 0.45mm
; infill extrusion width = 0.45mm
; solid infill extrusion width = 0.42mm
; top infill extrusion width = 0.42mm
; first layer extrusion width = 0.44mm

; EXECUTABLE_BLOCK_START
EXCLUDE_OBJECT_DEFINE NAME=Ali_Box_-_top_5_.step_id_0_copy_0 CENTER=135,135 POLYGON=[[4,97],[4.00592,96.6231],[4.02368,96.2465],[4.05325,95.8707],[4.09462,95.496],[4.14774,95.1228],[4.21256,94.7514],[4.289,94.3823],[4.377,94.0157],[4.47647,93.6521],[4.58733,93.2918],[4.70943,92.9351],[4.84268,92.5825],[4.98694,92.2342],[5.14208,91.8906],[5.30792,91.5521],[5.48431,91.219],[5.6711,90.8915],[5.86807,90.5701],[6.07503,90.255],[6.29179,89.9466],[6.51814,89.6451],[6.75385,89.3509],[6.99866,89.0643],[7.25238,88.7854],[7.51472,88.5147],[7.78544,88.2524],[8.06426,87.9987],[8.35091,87.7538],[8.64512,87.5181],[8.94658,87.2918],[9.255,87.075],[9.57008,86.8681],[9.8915,86.6711],[10.219,86.4843],[10.5521,86.3079],[10.8906,86.1421],[11.2342,85.9869],[11.5825,85.8427],[11.9351,85.7094],[12.2918,85.5873],[12.6521,85.4765],[13.0157,85.377],[13.3823,85.289],[13.7514,85.2126],[14.1228,85.1477],[14.496,85.0946],[14.8707,85.0533],[15.2465,85.0237],[15.6231,85.0059],[16,85],[254,85],[254.377,85.0059],[254.753,85.0237],[255.129,85.0533],[255.504,85.0946],[255.877,85.1477],[256.249,85.2126],[256.618,85.289],[256.984,85.377],[257.348,85.4765],[257.708,85.5873],[258.065,85.7094],[258.417,85.8427],[258.766,85.9869],[259.109,86.1421],[259.448,86.3079],[259.781,86.4843],[260.108,86.6711],[260.43,86.8681],[260.745,87.075],[261.053,87.2918],[261.355,87.5181],[261.649,87.7538],[261.936,87.9987],[262.215,88.2524],[262.485,88.5147],[262.748,88.7854],[263.001,89.0643],[263.246,89.3509],[263.482,89.6451],[263.708,89.9466],[263.925,90.255],[264.132,90.5701],[264.329,90.8915],[264.516,91.219],[264.692,91.5521],[264.858,91.8906],[265.013,92.2342],[265.157,92.5825],[265.291,92.9351],[265.413,93.2918],[265.524,93.6521],[265.623,94.0157],[265.711,94.3823],[265.787,94.7514],[265.852,95.1228],[265.905,95.496],[265.947,95.8707],[265.976,96.2465],[265.994,96.6231],[266,97],[266,183],[265.994,183.149],[265.978,183.298],[265.95,183.445],[265.911,183.59],[265.862,183.731],[265.802,183.868],[265.732,184],[265.652,184.127],[265.564,184.247],[265.466,184.36],[265.36,184.466],[265.247,184.564],[265.127,184.652],[265,184.732],[264.868,184.802],[264.731,184.862],[264.59,184.911],[264.445,184.95],[264.298,184.978],[264.149,184.994],[264,185],[6,185],[5.85054,184.994],[5.70192,184.978],[5.55496,184.95],[5.41049,184.911],[5.26932,184.862],[5.13223,184.802],[5,184.732],[4.87337,184.652],[4.75302,184.564],[4.63965,184.466],[4.53391,184.36],[4.43634,184.247],[4.34752,184.127],[4.26795,184],[4.19806,183.868],[4.13826,183.731],[4.08885,183.59],[4.05014,183.445],[4.02234,183.298],[4.0056,183.149],[4,183],[4,97]]
M73 P0 R97
M106 S0
M106 P2 S0
;TYPE:Custom
PRINT_START BED=100 HOTEND=260 CHAMBER=60 EXTRUDER=0
SET_PRINT_STATS_INFO TOTAL_LAYER=20
M83
M140 S100
M104 S260
M141 S60
G4 P3000
T0
G1 X108.000 Y1 F30000
G0 Z0.2 F600
;G1 E3 F1800
G90
M83
G0 X128 E8  F904.991
G0 X133 E.3742  F1508.32
G0 X138 E.3742  F6033.27
G0 X143 E.3742  F1508.32
G0 X148 E.3742  F6033.27
G0 X153 E.3742  F1508.32
G91
G1 X1 Z-0.300
G1 X4
G1 Z1 F1200
G90
M400
G1 X108.000 Y2.5 F30000
G0 Z0.2 F600
M83
G0 X128 E10  F904.991
G0 X133 E.3742  F1508.32
G0 X138 E.3742  F6033.27
G0 X143 E.3742  F1508.32
G0 X148 E.3742  F6033.27
G0 X153 E.3742  F1508.32
G91
G1 X1 Z-0.300
G1 X4
G1 Z1 F1200
G90
M400
G1 Z1 F600
M106 P3 S178
G90
G21
M83 ; use relative distances for extrusion
; Filament gcode
SET_PRESSURE_ADVANCE ADVANCE=0.025; Override pressure advance value
T0
M106 P2 S0
;LAYER_CHANGE
;Z:0.2
;HEIGHT:0.2
;BEFORE_LAYER_CHANGE
;0.2
G92 E0

G1 E-.8 F1800
 ; timelapse without wipe tower
TIMELAPSE_TAKE_FRAME

G92 E0
SET_PRINT_STATS_INFO CURRENT_LAYER=1
;_SET_FAN_SPEED_CHANGING_LAYER
SET_VELOCITY_LIMIT ACCEL=500
G1 X33.932 Y82.901 F30000
G1 Z.6
G1 Z.2
G1 E.8 F1800
;TYPE:Skirt
;WIDTH:0.44
G1 F3000
G1 X254.035 Y82.902 E6.90383
G1 X255.361 Y82.968 E.04166
G1 X256.676 Y83.158 E.04166
G1 X257.9 Y83.452 E.0395
G1 X259.158 Y83.879 E.04166
G1 X260.37 Y84.423 E.04166
G1 X261.525 Y85.078 E.04166
G1 X263.349 Y86.448 E.07155
G1 X264.301 Y87.374 E.04166
G1 X265.161 Y88.386 E.04166
G1 X265.922 Y89.475 E.04166
G1 X266.546 Y90.569 E.0395
G1 X267.096 Y91.778 E.04166
G1 X267.529 Y93.034 E.04166
G1 X267.991 Y95.267 E.07155
G1 X268.099 Y97 E.05445
G1 X268.096 Y183.115 E2.70113
G1 X268.03 Y183.739 E.01967
G1 X267.86 Y184.375 E.02066
G1 X267.381 Y185.314 E.03306
G1 X266.967 Y185.826 E.02066
G1 X266.5 Y186.246 E.01967
G1 X265.561 Y186.788 E.03403
G1 X264.739 Y187.03 E.02687
G1 X264 Y187.099 E.02328
G1 X6 Y187.099 E8.09254
G1 X4.844 Y186.931 E.03664
G1 X4.229 Y186.695 E.02065
G1 X3.686 Y186.381 E.01968
G1 X2.879 Y185.655 E.03404
G1 X2.511 Y185.147 E.01968
G1 X2.212 Y184.561 E.02065
G1 X1.97 Y183.739 E.02687
G1 X1.901 Y183 E.02328
G1 X1.901 Y97 E2.69751
G1 X1.961 Y95.708 E.04058
G1 X2.249 Y93.891 E.0577
G1 X2.879 Y91.842 E.06723
G1 X3.629 Y90.238 E.05553
G1 X4.615 Y88.685 E.0577
G1 X6.007 Y87.055 E.06723
G1 X7.386 Y85.839 E.05769
G1 X9.178 Y84.662 E.06723
G1 X10.778 Y83.904 E.05553
G1 X12.034 Y83.471 E.04166
G1 X13.324 Y83.158 E.04166
G1 X14.639 Y82.968 E.04166
G1 X16 Y82.901 E.04274
G1 X33.892 Y82.901 E.56121
; printing object Ali Box - top (5).step id:0 copy 0
G1 E-.56 F1800
;WIPE_START
G1 F3000
G1 X34.892 Y82.901 E-.24
;WIPE_END
EXCLUDE_OBJECT_START NAME=Ali_Box_-_top_5_.step_id_0_copy_0
G1 X41.809 Y86.128 Z.6 F30000
G1 X251.108 Y183.74 Z.6
G1 Z.2
G1 E.8 F1800
;TYPE:Inner wall
;WIDTH:0.439999
G1 F3000
G1 X193.816 Y183.737 E1.79704
G1 X193.967 Y183.396 E.01169
G1 X194.086 Y182.94 E.0148
G1 X194.123 Y182.47 E.01477
G1 X194.076 Y182.002 E.01476
G1 X193.947 Y181.549 E.01476
G1 X193.741 Y181.126 E.01476
G1 X193.466 Y180.749 E.01463
G1 X193.125 Y180.422 E.01484
G1 X192.705 Y180.145 E.01577
G1 X192.222 Y179.946 E.0164
G1 X191.714 Y179.848 E.01621
G1 X191.202 Y179.851 E.01606
G1 X190.693 Y179.954 E.01628
G1 X190.179 Y180.165 E.01744
G1 X189.747 Y180.461 E.01643
G1 X189.383 Y180.837 E.01641
G1 X189.104 Y181.269 E.01613
G1 X188.864 Y181.931 E.02209
G1 X188.806 Y182.632 E.02208
G1 X188.917 Y183.284 E.02073
G1 X189.099 Y183.726 E.015
G1 X189 Y183.736 E.00313
G1 X142.882 Y183.737 E1.44655
G1 X143.034 Y183.396 E.01171
G1 X143.153 Y182.94 E.0148
G1 X143.19 Y182.47 E.01477
G1 X143.143 Y182.002 E.01476
G1 X143.014 Y181.549 E.01476
G1 X142.808 Y181.126 E.01476
G1 X142.531 Y180.746 E.01475
G1 X142.19 Y180.421 E.01477
G1 X141.798 Y180.161 E.01476
G1 X141.319 Y179.956 E.01636
G1 X140.809 Y179.851 E.01631
G1 X140.309 Y179.845 E.01569
G1 X139.802 Y179.939 E.0162
G1 X139.324 Y180.129 E.01613
G1 X138.775 Y180.497 E.02073
G1 X138.424 Y180.874 E.01615
G1 X138.084 Y181.444 E.0208
G1 X137.939 Y181.882 E.01448
G1 X137.871 Y182.396 E.01628
G1 X137.937 Y183.097 E.02209
G1 X138.172 Y183.737 E.02137
G1 X80.882 Y183.737 E1.79699
G1 X81.034 Y183.396 E.01171
G1 X81.152 Y182.944 E.01467
G1 X81.189 Y182.472 E.01485
G1 X81.143 Y182.002 E.01481
G1 X81.014 Y181.549 E.01476
G1 X80.808 Y181.126 E.01476
G1 X80.53 Y180.746 E.01476
G1 X80.19 Y180.421 E.01476
G1 X79.798 Y180.161 E.01476
G1 X79.276 Y179.943 E.01774
G1 X78.772 Y179.848 E.01611
G1 X78.269 Y179.851 E.01577
G1 X77.76 Y179.954 E.01628
G1 X77.233 Y180.172 E.0179
G1 X76.813 Y180.461 E.01597
G1 X76.45 Y180.837 E.01641
G1 X76.171 Y181.269 E.01613
G1 X75.937 Y181.887 E.02073
G1 X75.871 Y182.396 E.01611
G1 X75.937 Y183.097 E.02209
G1 X76.172 Y183.737 E.02137
G1 X18.882 Y183.737 E1.79699
G1 X19.033 Y183.4 E.01158
M73 P0 R96
G1 X19.153 Y182.941 E.01488
G1 X19.19 Y182.47 E.01482
G1 X19.143 Y182.002 E.01476
G1 X19.014 Y181.549 E.01476
G1 X18.808 Y181.126 E.01475
G1 X18.53 Y180.746 E.01477
G1 X18.19 Y180.421 E.01476
G1 X17.798 Y180.161 E.01476
G1 X17.367 Y179.974 E.01476
G1 X16.909 Y179.865 E.01476
G1 X16.443 Y179.839 E.01463
G1 X15.973 Y179.897 E.01483
G1 X15.522 Y180.035 E.01481
G1 X15.014 Y180.308 E.0181
G1 X14.595 Y180.674 E.01743
G1 X14.424 Y180.873 E.00824
G1 X14.086 Y181.441 E.02072
G1 X13.931 Y181.93 E.01611
G1 X13.872 Y182.632 E.0221
G1 X13.984 Y183.284 E.02074
G1 X14.172 Y183.736 E.01537
G1 X5.924 Y183.726 E.2587
G1 X5.552 Y183.573 E.01264
G1 X5.325 Y183.272 E.01182
G1 X5.264 Y182.943 E.0105
G1 X5.264 Y97.017 E2.69519
G1 X5.286 Y96.334 E.02144
G1 X5.398 Y95.313 E.03222
G1 X5.523 Y94.658 E.0209
G1 X5.691 Y94.005 E.02115
G1 X5.897 Y93.371 E.02091
G1 X6.29 Y92.422 E.03222
G1 X6.593 Y91.828 E.0209
G1 X6.936 Y91.248 E.02115
G1 X7.315 Y90.69 E.02115
G1 X7.725 Y90.161 E.021
G1 X8.293 Y89.529 E.02664
G1 X8.904 Y88.944 E.02654
G1 X9.417 Y88.52 E.02086
G1 X10.108 Y88.028 E.02664
G1 X10.832 Y87.59 E.02654
G1 X11.429 Y87.286 E.02101
G1 X12.041 Y87.022 E.0209
G1 X13.005 Y86.692 E.03197
G1 X13.989 Y86.455 E.03172
G1 X14.99 Y86.313 E.03172
G1 X16.025 Y86.264 E.03251
G1 X38.595 Y86.262 E.70794
G1 X38.09 Y86.354 E.0161
G1 X37.46 Y86.594 E.02114
G1 X37.013 Y86.874 E.01655
G1 X36.48 Y87.365 E.02274
G1 X36.066 Y87.967 E.0229
G1 X35.797 Y88.646 E.02292
G1 X35.686 Y89.331 E.02175
G1 X35.703 Y89.854 E.01644
G1 X35.824 Y90.462 E.01944
G1 X36.037 Y90.982 E.01761
G1 X36.314 Y91.427 E.01645
G1 X36.809 Y91.964 E.02289
G1 X37.377 Y92.362 E.02175
G1 X37.905 Y92.586 E.018
G1 X38.568 Y92.738 E.02133
G1 X39.261 Y92.747 E.02175
G1 X39.777 Y92.652 E.01646
G1 X40.458 Y92.387 E.02291
G1 X40.889 Y92.116 E.01596
G1 X41.151 Y91.888 E.01091
G1 X41.56 Y91.444 E.01894
G1 X41.875 Y90.935 E.01876
G1 X42.08 Y90.396 E.01812
G1 X42.182 Y89.875 E.01662
G1 X42.184 Y89.146 E.02287
G1 X42.091 Y88.65 E.01583
G1 X41.85 Y88.018 E.02123
G1 X41.573 Y87.573 E.01645
G1 X41.078 Y87.036 E.02289
G1 X40.476 Y86.623 E.0229
G1 X39.797 Y86.354 E.02291
G1 X39.297 Y86.262 E.01596
G1 X78.595 Y86.262 E1.23264
G1 X77.911 Y86.405 E.02192
G1 X77.43 Y86.613 E.01644
G1 X76.999 Y86.884 E.01596
G1 X76.502 Y87.336 E.02106
G1 X76.189 Y87.757 E.01645
G1 X75.87 Y88.413 E.02289
G1 X75.705 Y89.124 E.02288
G1 X75.697 Y89.818 E.02176
G1 X75.792 Y90.333 E.01646
G1 X76.057 Y91.014 E.02291
G1 X76.427 Y91.577 E.02112
G1 X76.78 Y91.941 E.01591
G1 X77.2 Y92.255 E.01645
G1 X77.857 Y92.574 E.02291
G1 X78.568 Y92.738 E.02288
G1 X79.298 Y92.741 E.0229
G1 X79.976 Y92.595 E.02176
G1 X80.457 Y92.387 E.01644
G1 X81.062 Y91.978 E.02292
G1 X81.56 Y91.444 E.0229
G1 X81.873 Y90.939 E.01864
G1 X82.082 Y90.39 E.01841
G1 X82.182 Y89.875 E.01646
G1 X82.184 Y89.146 E.02287
G1 X82.091 Y88.65 E.01583
G1 X81.85 Y88.018 E.02123
G1 X81.573 Y87.573 E.01645
G1 X81.078 Y87.036 E.02291
G1 X80.476 Y86.623 E.0229
G1 X79.797 Y86.354 E.0229
G1 X79.297 Y86.262 E.01595
G1 X187.095 Y86.263 E3.38124
G1 X186.411 Y86.405 E.02192
G1 X185.93 Y86.613 E.01644
G1 X185.499 Y86.884 E.01596
G1 X185.002 Y87.336 E.02106
G1 X184.689 Y87.757 E.01645
G1 X184.37 Y88.413 E.02289
G1 X184.205 Y89.124 E.02288
G1 X184.197 Y89.818 E.02176
G1 X184.292 Y90.333 E.01646
G1 X184.557 Y91.014 E.02291
G1 X184.916 Y91.565 E.02063
G1 X185.28 Y91.941 E.01641
G1 X185.7 Y92.255 E.01645
G1 X186.357 Y92.574 E.02291
G1 X187.068 Y92.738 E.02288
G1 X187.798 Y92.741 E.0229
G1 X188.476 Y92.595 E.02176
G1 X188.957 Y92.387 E.01644
G1 X189.562 Y91.978 E.02292
G1 X190.06 Y91.444 E.0229
G1 X190.373 Y90.939 E.01864
G1 X190.582 Y90.39 E.01841
G1 X190.682 Y89.875 E.01646
G1 X190.684 Y89.146 E.02287
G1 X190.591 Y88.65 E.01583
G1 X190.35 Y88.018 E.02123
G1 X190.073 Y87.573 E.01645
G1 X189.578 Y87.036 E.02291
G1 X188.976 Y86.623 E.0229
G1 X188.297 Y86.354 E.0229
G1 X187.797 Y86.263 E.01596
G1 X227.095 Y86.263 E1.23265
G1 X226.59 Y86.354 E.0161
G1 X225.96 Y86.594 E.02114
G1 X225.513 Y86.874 E.01655
G1 X224.98 Y87.365 E.02274
G1 X224.566 Y87.967 E.0229
G1 X224.297 Y88.646 E.02292
G1 X224.186 Y89.331 E.02175
G1 X224.203 Y89.854 E.01644
G1 X224.321 Y90.45 E.01905
G1 X224.537 Y90.982 E.018
G1 X224.814 Y91.427 E.01645
G1 X225.309 Y91.964 E.02289
G1 X225.877 Y92.362 E.02175
G1 X226.357 Y92.573 E.01646
G1 X227.068 Y92.738 E.02289
G1 X227.761 Y92.747 E.02175
G1 X228.277 Y92.652 E.01646
G1 X228.958 Y92.387 E.02291
G1 X229.562 Y91.978 E.0229
G1 X230.06 Y91.444 E.0229
G1 X230.373 Y90.939 E.01863
G1 X230.58 Y90.396 E.01824
G1 X230.682 Y89.875 E.01662
G1 X230.684 Y89.146 E.02287
G1 X230.591 Y88.65 E.01583
G1 X230.35 Y88.018 E.02123
G1 X230.073 Y87.573 E.01645
G1 X229.578 Y87.036 E.02289
G1 X228.976 Y86.623 E.0229
G1 X228.297 Y86.354 E.02291
G1 X227.797 Y86.263 E.01596
G1 X254.159 Y86.267 E.82689
G1 X255.007 Y86.312 E.02664
G1 X256.011 Y86.455 E.03182
G1 X256.995 Y86.692 E.03172
G1 X257.952 Y87.019 E.03172
G1 X258.873 Y87.435 E.03172
G1 X259.752 Y87.936 E.03172
G1 X260.579 Y88.518 E.03172
G1 X261.354 Y89.18 E.03197
G1 X261.82 Y89.646 E.02065
G1 X262.482 Y90.421 E.03197
G1 X263.064 Y91.248 E.03172
G1 X263.565 Y92.127 E.03172
G1 X263.981 Y93.048 E.03172
G1 X264.308 Y94.005 E.03172
G1 X264.545 Y94.989 E.03172
G1 X264.687 Y95.99 E.03172
G1 X264.736 Y97.284 E.04064
G1 X264.736 Y182.848 E2.68382
G1 X264.707 Y183.103 E.00804
G1 X264.585 Y183.425 E.0108
G1 X264.297 Y183.667 E.01181
G1 X263.943 Y183.736 E.01131
G1 X255.816 Y183.737 E.25493
G1 X255.966 Y183.4 E.01157
G1 X256.086 Y182.941 E.01488
G1 X256.123 Y182.47 E.01482
G1 X256.076 Y182.002 E.01476
G1 X255.947 Y181.549 E.01476
G1 X255.784 Y181.207 E.01191
G1 X255.464 Y180.746 E.01759
G1 X255.124 Y180.421 E.01476
G1 X254.732 Y180.161 E.01476
G1 X254.3 Y179.974 E.01476
G1 X253.842 Y179.865 E.01476
G1 X253.314 Y179.84 E.01657
G1 X252.77 Y179.928 E.0173
G1 X252.281 Y180.117 E.01643
G1 X251.844 Y180.385 E.0161
G1 X251.497 Y180.703 E.01476
G1 X251.155 Y181.165 E.01802
G1 X250.933 Y181.678 E.01754
G1 X250.819 Y182.177 E.01607
G1 X250.824 Y182.838 E.02073
G1 X250.903 Y183.198 E.01155
G1 X251.094 Y183.703 E.01692
G1 X251.92 Y184.143 F30000
G1 F3000
G1 X193.5 Y184.134 E1.83244
G1 X192.994 Y184.15 E.01588
G1 X193.194 Y183.951 E.00886
G1 X193.434 Y183.611 E.01307
G1 X193.602 Y183.241 E.01272
G1 X193.699 Y182.852 E.01258
G1 X193.726 Y182.452 E.01257
G1 X193.682 Y182.054 E.01256
G1 X193.569 Y181.67 E.01256
G1 X193.39 Y181.312 E.01256
G1 X193.153 Y180.994 E.01244
G1 X192.86 Y180.718 E.01265
G1 X192.523 Y180.499 E.01259
G1 X192.154 Y180.343 E.01256
G1 X191.763 Y180.255 E.01256
G1 X191.367 Y180.236 E.01244
G1 X190.904 Y180.302 E.01466
G1 X190.427 Y180.486 E.01604
G1 X190.067 Y180.714 E.01336
G1 X189.775 Y180.987 E.01256
G1 X189.502 Y181.358 E.01444
G1 X189.299 Y181.831 E.01615
G1 X189.199 Y182.422 E.01879
G1 X189.258 Y183.018 E.0188
G1 X189.392 Y183.423 E.01337
G1 X189.592 Y183.775 E.01271
G1 X189.92 Y184.143 E.01545
G1 X142.067 Y184.143 E1.50096
G1 X142.261 Y183.951 E.00854
G1 X142.501 Y183.611 E.01307
G1 X142.668 Y183.241 E.01272
G1 X142.766 Y182.852 E.01258
G1 X142.793 Y182.452 E.01257
G1 X142.749 Y182.054 E.01256
G1 X142.636 Y181.67 E.01256
G1 X142.457 Y181.312 E.01256
G1 X142.218 Y180.991 E.01255
G1 X141.925 Y180.717 E.01257
G1 X141.59 Y180.499 E.01256
G1 X141.221 Y180.343 E.01256
G1 X140.83 Y180.255 E.01256
G1 X140.434 Y180.236 E.01244
G1 X140.034 Y180.289 E.01265
G1 X139.588 Y180.437 E.01473
G1 X139.156 Y180.7 E.01589
G1 X138.815 Y181.014 E.01453
G1 X138.515 Y181.465 E.01698
G1 X138.357 Y181.852 E.01311
G1 X138.276 Y182.246 E.01264
G1 X138.287 Y182.821 E.01802
G1 X138.45 Y183.398 E.0188
G1 X138.658 Y183.775 E.01353
G1 X138.995 Y184.15 E.01579
G1 X138.5 Y184.134 E.01551
G1 X80.067 Y184.143 E1.83283
G1 X80.261 Y183.951 E.00854
G1 X80.501 Y183.611 E.01307
G1 X80.668 Y183.241 E.01272
G1 X80.765 Y182.856 E.01247
G1 X80.793 Y182.453 E.01266
G1 X80.749 Y182.054 E.01259
G1 X80.636 Y181.67 E.01256
G1 X80.457 Y181.312 E.01256
G1 X80.218 Y180.991 E.01256
G1 X79.925 Y180.717 E.01256
G1 X79.59 Y180.499 E.01256
G1 X79.221 Y180.343 E.01256
G1 X78.83 Y180.255 E.01256
G1 X78.434 Y180.236 E.01244
