; HEADER_BLOCK_START
; generated by OrcaSlicer 2.3.1-beta on 2025-09-14 at 23:42:11
; total layer number: 20
; filament_density: 1.02,1.27,1.02,1.24,1.24,1.24
; filament_diameter: 1.75,1.75,1.75,1.75,1.75,1.75
; max_z_height: 4.00
; HEADER_BLOCK_END

; THUMBNAIL_BLOCK_START

;
; THUMBNAIL_BLOCK_END

; external perimeters extrusion width = 0.42mm
; perimeters extrusion width = 0.45mm
; infill extrusion width = 0.45mm
; solid infill extrusion width = 0.42mm
; top infill extrusion width = 0.32mm
; first layer extrusion width = 0.44mm

; EXECUTABLE_BLOCK_START
EXCLUDE_OBJECT_DEFINE NAME=Ali_Box_-_top_jig.step_id_0_copy_0 CENTER=135,135 POLYGON=[[4,87],[4.00558,86.8505],[4.02234,86.7019],[4.05014,86.555],[4.08887,86.4105],[4.13824,86.2693],[4.19806,86.1322],[4.26795,86],[4.34753,85.8734],[4.43634,85.753],[4.53391,85.6397],[4.63965,85.5339],[4.75302,85.4363],[4.87335,85.3475],[5,85.268],[5.13223,85.1981],[5.26932,85.1383],[5.41049,85.0889],[5.55496,85.0501],[5.70191,85.0223],[5.85052,85.0056],[6,85],[264,85],[264.149,85.0056],[264.298,85.0223],[264.445,85.0501],[264.59,85.0889],[264.731,85.1383],[264.868,85.1981],[265,85.268],[265.127,85.3475],[265.247,85.4363],[265.36,85.5339],[265.466,85.6397],[265.564,85.753],[265.652,85.8734],[265.732,86],[265.802,86.1322],[265.862,86.2693],[265.911,86.4105],[265.95,86.555],[265.978,86.7019],[265.994,86.8505],[266,87],[266,173],[265.994,173.377],[265.976,173.753],[265.947,174.129],[265.905,174.504],[265.852,174.877],[265.787,175.249],[265.711,175.618],[265.623,175.984],[265.523,176.348],[265.413,176.708],[265.291,177.065],[265.157,177.417],[265.013,177.766],[264.858,178.109],[264.692,178.448],[264.516,178.781],[264.329,179.108],[264.132,179.43],[263.925,179.745],[263.708,180.053],[263.482,180.355],[263.246,180.649],[263.001,180.936],[262.748,181.215],[262.485,181.485],[262.215,181.748],[261.936,182.001],[261.649,182.246],[261.355,182.482],[261.053,182.708],[260.745,182.925],[260.43,183.132],[260.109,183.329],[259.781,183.516],[259.448,183.692],[259.109,183.858],[258.766,184.013],[258.417,184.157],[258.065,184.291],[257.708,184.413],[257.348,184.524],[256.984,184.623],[256.618,184.711],[256.249,184.787],[255.877,184.852],[255.504,184.905],[255.129,184.947],[254.753,184.976],[254.377,184.994],[254,185],[16,185],[15.6231,184.994],[15.2465,184.976],[14.8707,184.947],[14.496,184.905],[14.1228,184.852],[13.7514,184.787],[13.3823,184.711],[13.0157,184.623],[12.6521,184.524],[12.2918,184.413],[11.9352,184.291],[11.5825,184.157],[11.2342,184.013],[10.8907,183.858],[10.5521,183.692],[10.219,183.516],[9.89151,183.329],[9.57007,183.132],[9.255,182.925],[8.94656,182.708],[8.64511,182.482],[8.35092,182.246],[8.06427,182.001],[7.78543,181.748],[7.51471,181.485],[7.25238,181.215],[6.99866,180.936],[6.75385,180.649],[6.51813,180.355],[6.29181,180.053],[6.07504,179.745],[5.86807,179.43],[5.67108,179.108],[5.48431,178.781],[5.30792,178.448],[5.14206,178.109],[4.98694,177.766],[4.84268,177.417],[4.70944,177.065],[4.58731,176.708],[4.47647,176.348],[4.37702,175.984],[4.289,175.618],[4.21256,175.249],[4.14774,174.877],[4.09464,174.504],[4.05325,174.129],[4.02368,173.753],[4.00592,173.377],[4,173],[4,87]]
M73 P0 R110
M106 S0
M106 P2 S0
;TYPE:Custom
PRINT_START BED=100 HOTEND=260 CHAMBER=60 EXTRUDER=0
SET_PRINT_STATS_INFO TOTAL_LAYER=20
M83
M140 S100
M104 S260
M141 S60
G4 P3000
T0
G1 X108.000 Y1 F30000
G0 Z0.2 F600
;G1 E3 F1800
G90
M83
G0 X128 E8  F904.991
G0 X133 E.3742  F1508.32
G0 X138 E.3742  F6033.27
G0 X143 E.3742  F1508.32
G0 X148 E.3742  F6033.27
G0 X153 E.3742  F1508.32
G91
G1 X1 Z-0.300
G1 X4
G1 Z1 F1200
G90
M400
G1 X108.000 Y2.5 F30000
G0 Z0.2 F600
M83
G0 X128 E10  F904.991
G0 X133 E.3742  F1508.32
G0 X138 E.3742  F6033.27
G0 X143 E.3742  F1508.32
G0 X148 E.3742  F6033.27
G0 X153 E.3742  F1508.32
G91
G1 X1 Z-0.300
G1 X4
G1 Z1 F1200
G90
M400
G1 Z1 F600
M106 P3 S178
G90
G21
M83 ; use relative distances for extrusion
; Filament gcode
SET_PRESSURE_ADVANCE ADVANCE=0.025; Override pressure advance value
T0
M106 P2 S0
;LAYER_CHANGE
;Z:0.2
;HEIGHT:0.2
;BEFORE_LAYER_CHANGE
;0.2
G92 E0

G1 E-.8 F1800
 ; timelapse without wipe tower
TIMELAPSE_TAKE_FRAME

G92 E0
SET_PRINT_STATS_INFO CURRENT_LAYER=1
;_SET_FAN_SPEED_CHANGING_LAYER
SET_VELOCITY_LIMIT ACCEL=500
G1 X33.931 Y82.902 F30000
G1 Z.6
G1 Z.2
G1 E.8 F1800
;TYPE:Skirt
;WIDTH:0.44
G1 F3000
G1 X264.115 Y82.904 E7.22006
G1 X264.964 Y83.018 E.02686
G1 X265.561 Y83.212 E.01968
G1 X266.148 Y83.511 E.02066
G1 X266.826 Y84.033 E.02686
G1 X267.381 Y84.686 E.02686
G1 X267.788 Y85.439 E.02687
G1 X267.982 Y86.036 E.01969
G1 X268.096 Y86.885 E.02686
G1 X268.073 Y173.851 E2.72781
G1 X267.842 Y175.676 E.0577
G1 X267.253 Y177.808 E.06939
G1 X266.371 Y179.762 E.06723
G1 X265.386 Y181.315 E.05769
G1 X263.993 Y182.944 E.06723
G1 X262.614 Y184.161 E.0577
G1 X260.822 Y185.338 E.06723
G1 X258.808 Y186.253 E.06939
G1 X256.608 Y186.855 E.07155
G1 X255.292 Y187.039 E.04166
G1 X254 Y187.099 E.04058
G1 X15.523 Y187.09 E7.48018
G1 X13.324 Y186.842 E.06939
G1 X11.257 Y186.277 E.06723
G1 X9.238 Y185.371 E.06939
G1 X7.685 Y184.385 E.0577
G1 X6.055 Y182.993 E.06723
G1 X4.839 Y181.614 E.0577
G1 X3.662 Y179.822 E.06723
G1 X2.747 Y177.808 E.06939
G1 X2.145 Y175.608 E.07155
G1 X1.961 Y174.292 E.04166
G1 X1.902 Y173.034 E.0395
G1 X1.901 Y87 E2.69859
G1 X2.069 Y85.844 E.03665
G1 X2.305 Y85.229 E.02066
G1 X2.619 Y84.686 E.01967
G1 X3.033 Y84.174 E.02066
G1 X3.5 Y83.754 E.01968
G1 X4.052 Y83.396 E.02066
G1 X4.625 Y83.14 E.01967
G1 X5.261 Y82.97 E.02066
G1 X6 Y82.901 E.02328
G1 X33.891 Y82.902 E.87484
; printing object Ali Box - top jig.step id:0 copy 0
G1 E-.56 F1800
;WIPE_START
G1 F3000
G1 X34.891 Y82.902 E-.24
;WIPE_END
EXCLUDE_OBJECT_START NAME=Ali_Box_-_top_jig.step_id_0_copy_0
G1 X33.773 Y90.452 Z.6 F30000
G1 X23.342 Y160.933 Z.6
G1 Z.2
G1 E.8 F1800
;TYPE:Inner wall
;WIDTH:0.439999
G1 F3000
G1 X23.195 Y160.397 E.01743
G1 X23.049 Y159.491 E.02877
G1 X23.014 Y158.828 E.02083
G1 X23.02 Y110.93 E1.50239
G1 X23.071 Y110.305 E.01966
G1 X23.176 Y109.687 E.01966
G1 X23.314 Y109.157 E.01717
G1 X23.546 Y108.491 E.02214
G1 X23.807 Y107.921 E.01966
G1 X24.094 Y107.416 E.01821
G1 X24.567 Y106.753 E.02556
G1 X25.089 Y106.15 E.025
G1 X25.549 Y105.724 E.01967
G1 X26.285 Y105.177 E.02877
G1 X26.844 Y104.847 E.02035
G1 X27.411 Y104.579 E.01966
G1 X27.992 Y104.363 E.01946
G1 X28.603 Y104.195 E.01986
G1 X29.22 Y104.082 E.01967
G1 X30.161 Y104.014 E.02962
G1 X239.803 Y104.014 E6.5757
G1 X240.673 Y104.069 E.02735
G1 X241.596 Y104.244 E.02946
G1 X242.182 Y104.423 E.01923
G1 X242.798 Y104.67 E.0208
G1 X243.605 Y105.107 E.02879
G1 X244.367 Y105.655 E.02946
G1 X244.85 Y106.089 E.02035
G1 X245.227 Y106.495 E.01738
G1 X245.823 Y107.285 E.03106
G1 X246.153 Y107.844 E.02035
G1 X246.394 Y108.353 E.01766
G1 X246.751 Y109.382 E.03416
G1 X246.868 Y109.91 E.01696
G1 X246.954 Y110.531 E.01966
G1 X246.985 Y111.154 E.01958
G1 X246.986 Y158.803 E1.49458
G1 X246.931 Y159.673 E.02735
G1 X246.756 Y160.596 E.02946
G1 X246.566 Y161.217 E.02035
G1 X246.33 Y161.797 E.01966
G1 X245.889 Y162.612 E.02905
G1 X245.526 Y163.14 E.0201
G1 X245.126 Y163.622 E.01965
G1 X244.686 Y164.068 E.01966
G1 X244.208 Y164.474 E.01966
G1 X243.697 Y164.836 E.01966
G1 X243.156 Y165.153 E.01967
G1 X242.318 Y165.528 E.02877
G1 X241.701 Y165.729 E.02035
G1 X241.083 Y165.869 E.01989
G1 X240.469 Y165.954 E.01943
G1 X239.846 Y165.985 E.01957
G1 X30.197 Y165.986 E6.57593
G1 X29.327 Y165.931 E.02736
G1 X28.404 Y165.756 E.02946
G1 X27.783 Y165.566 E.02035
G1 X27.202 Y165.33 E.01968
G1 X26.395 Y164.894 E.02877
G1 X25.626 Y164.34 E.02974
G1 X25.15 Y163.911 E.0201
G1 X24.724 Y163.451 E.01967
G1 X24.177 Y162.715 E.02877
G1 X23.847 Y162.156 E.02035
G1 X23.579 Y161.59 E.01966
G1 X23.361 Y161.002 E.01966
G1 X23.352 Y160.971 E.00099
G1 X23.723 Y160.827 F30000
G1 F3000
G1 X23.578 Y160.294 E.01732
G1 X23.442 Y159.431 E.02741
G1 X23.411 Y158.817 E.01927
G1 X23.417 Y110.93 E1.50205
G1 X23.467 Y110.34 E.01857
G1 X23.567 Y109.756 E.01857
G1 X23.698 Y109.26 E.01609
G1 X23.919 Y108.626 E.02105
G1 X24.167 Y108.089 E.01858
G1 X24.438 Y107.615 E.01712
G1 X24.887 Y106.987 E.0242
G1 X25.382 Y106.419 E.02364
G1 X25.817 Y106.016 E.01859
G1 X26.52 Y105.497 E.02742
G1 X27.043 Y105.191 E.01899
G1 X27.578 Y104.939 E.01858
G1 X28.128 Y104.736 E.01838
G1 X28.705 Y104.578 E.01877
G1 X29.289 Y104.473 E.01859
G1 X30.176 Y104.411 E.02791
G1 X239.803 Y104.411 E6.57523
G1 X240.647 Y104.466 E.02654
G1 X241.519 Y104.634 E.02783
G1 X242.063 Y104.802 E.01787
G1 X242.646 Y105.037 E.01971
G1 X243.414 Y105.455 E.02743
G1 X244.133 Y105.975 E.02783
G1 X244.582 Y106.382 E.01899
G1 X244.934 Y106.763 E.01629
G1 X245.503 Y107.52 E.0297
G1 X245.809 Y108.043 E.019
G1 X246.034 Y108.52 E.01657
G1 X246.363 Y109.468 E.03145
G1 X246.48 Y109.996 E.01696
G1 X246.56 Y110.582 E.01857
G1 X246.588 Y111.171 E.01849
G1 X246.589 Y158.803 E1.49403
G1 X246.534 Y159.647 E.02654
G1 X246.366 Y160.519 E.02783
G1 X246.188 Y161.097 E.019
G1 X245.963 Y161.645 E.01857
G1 X245.541 Y162.42 E.02768
G1 X245.201 Y162.912 E.01875
G1 X244.822 Y163.367 E.01857
G1 X244.405 Y163.787 E.01857
G1 X243.953 Y164.169 E.01857
G1 X243.469 Y164.511 E.01858
G1 X242.957 Y164.809 E.01859
G1 X242.158 Y165.165 E.02741
G1 X241.582 Y165.35 E.019
G1 X240.997 Y165.482 E.0188
G1 X240.417 Y165.56 E.01836
G1 X239.829 Y165.588 E.01849
G1 X30.197 Y165.589 E6.57539
G1 X29.353 Y165.534 E.02654
M73 P0 R109
G1 X28.481 Y165.366 E.02783
G1 X27.903 Y165.188 E.01899
G1 X27.354 Y164.963 E.01859
G1 X26.586 Y164.546 E.02741
G1 X25.861 Y164.019 E.0281
G1 X25.418 Y163.618 E.01875
G1 X25.016 Y163.183 E.01858
G1 X24.497 Y162.48 E.02742
G1 X24.191 Y161.957 E.01899
G1 X23.939 Y161.422 E.01857
G1 X23.734 Y160.866 E.01858
G1 X23.734 Y160.865 E.00002
G1 X24.126 Y160.717 F30000
;TYPE:Outer wall
G1 F3000
G1 X23.983 Y160.186 E.01726
G1 X23.856 Y159.367 E.02598
G1 X23.83 Y158.807 E.0176
G1 X23.836 Y110.93 E1.50172
G1 X23.884 Y110.376 E.01743
G1 X23.979 Y109.829 E.01743
G1 X24.123 Y109.292 E.01743
G1 X24.312 Y108.769 E.01743
G1 X24.546 Y108.266 E.01743
G1 X24.8 Y107.824 E.01598
G1 X25.225 Y107.235 E.02277
G1 X25.69 Y106.701 E.02221
G1 X26.1 Y106.325 E.01744
G1 X26.767 Y105.834 E.02599
G1 X27.252 Y105.553 E.01756
G1 X27.755 Y105.318 E.01743
G1 X28.271 Y105.129 E.01723
G1 X28.814 Y104.983 E.01763
G1 X29.361 Y104.886 E.01744
G1 X30.191 Y104.83 E.02608
G1 X239.803 Y104.83 E6.57477
G1 X240.62 Y104.883 E.02568
G1 X241.437 Y105.044 E.02612
G1 X241.937 Y105.201 E.01644
G1 X242.485 Y105.424 E.01857
G1 X243.213 Y105.822 E.026
G1 X243.885 Y106.313 E.02612
G1 X244.299 Y106.69 E.01757
G1 X244.675 Y107.1 E.01745
G1 X245.166 Y107.767 E.02598
G1 X245.447 Y108.252 E.01757
G1 X245.682 Y108.756 E.01744
G1 X245.918 Y109.448 E.02293
G1 X246.072 Y110.086 E.02061
G1 X246.145 Y110.637 E.01743
G1 X246.17 Y111.19 E.01735
G1 X246.17 Y158.803 E1.49346
G1 X246.117 Y159.62 E.02568
G1 X245.956 Y160.437 E.02612
G1 X245.788 Y160.971 E.01757
G1 X245.576 Y161.485 E.01743
G1 X245.174 Y162.219 E.02624
G1 X244.858 Y162.672 E.01733
G1 X244.502 Y163.098 E.01743
G1 X244.109 Y163.491 E.01743
G1 X243.684 Y163.849 E.01743
G1 X243.229 Y164.168 E.01743
G1 X242.748 Y164.447 E.01744
G1 X241.99 Y164.781 E.02599
G1 X241.456 Y164.951 E.01757
G1 X240.907 Y165.073 E.01764
G1 X240.363 Y165.145 E.01722
G1 X239.81 Y165.17 E.01735
G1 X30.197 Y165.17 E6.57481
G1 X29.38 Y165.117 E.02568
G1 X28.563 Y164.956 E.02612
G1 X28.029 Y164.788 E.01757
G1 X27.515 Y164.576 E.01745
G1 X26.788 Y164.179 E.02599
G1 X26.109 Y163.682 E.02638
G1 X25.701 Y163.31 E.01732
G1 X25.325 Y162.9 E.01744
G1 X24.834 Y162.233 E.02599
G1 X24.553 Y161.748 E.01757
G1 X24.318 Y161.245 E.01743
G1 X24.139 Y160.755 E.01636
G1 E-.56 F1800
;WIPE_START
G1 F3000
G1 X23.983 Y160.186 E-.14161
G1 X23.92 Y159.781 E-.09839
;WIPE_END
G1 X21.795 Y152.45 Z.6 F30000
G1 X9.186 Y108.959 Z.6
G1 Z.2
G1 E.8 F1800
;TYPE:Inner wall
G1 F3000
G1 X9.303 Y108.955 E.00367
G1 X9.778 Y109.039 E.01514
G1 X10.232 Y109.201 E.01514
G1 X10.685 Y109.462 E.01639
G1 X11.051 Y109.765 E.01491
G1 X11.394 Y110.162 E.01644
G1 X11.665 Y110.63 E.01696
G1 X11.855 Y111.222 E.01952
G1 X11.921 Y111.743 E.01648
G1 X11.883 Y112.313 E.0179
G1 X11.719 Y112.883 E.01861
G1 X11.486 Y113.352 E.01644
G1 X11.127 Y113.818 E.01842
G1 X10.686 Y114.19 E.01809
G1 X10.232 Y114.452 E.01644
G1 X9.685 Y114.639 E.01814
G1 X9.103 Y114.707 E.01837
G1 X8.58 Y114.673 E.01644
G1 X8.113 Y114.557 E.01511
G1 X7.499 Y114.261 E.02139
G1 X7.082 Y113.945 E.01641
G1 X6.642 Y113.425 E.02136
G1 X6.32 Y112.778 E.02268
G1 X6.19 Y112.271 E.01641
G1 X6.168 Y111.59 E.02138
G1 X6.255 Y111.073 E.01644
G1 X6.494 Y110.471 E.02032
G1 X6.783 Y110.035 E.01639
G1 X7.266 Y109.553 E.02141
G1 X7.67 Y109.289 E.01514
G1 X8.112 Y109.096 E.01514
G1 X8.62 Y108.976 E.01638
G1 X9.146 Y108.96 E.01648
G1 X9.306 Y109.358 F30000
G1 F3000
G1 X9.655 Y109.417 E.01112
G1 X10.048 Y109.553 E.01306
G1 X10.432 Y109.769 E.01379
G1 X10.798 Y110.071 E.01491
G1 X11.121 Y110.463 E.0159
G1 X11.336 Y110.879 E.0147
G1 X11.482 Y111.359 E.01574
G1 X11.526 Y111.876 E.01627
G1 X11.476 Y112.313 E.01379
G1 X11.317 Y112.828 E.01689
G1 X11.083 Y113.244 E.01499
G1 X10.799 Y113.581 E.01379
G1 X10.382 Y113.922 E.01693
G1 X9.957 Y114.138 E.01496
G1 X9.535 Y114.262 E.01379
G1 X8.937 Y114.312 E.01881
G1 X8.524 Y114.26 E.01306
G1 X8.104 Y114.129 E.01379
G1 X7.579 Y113.84 E.01881
G1 X7.248 Y113.55 E.01379
G1 X6.876 Y113.05 E.01954
G1 X6.644 Y112.498 E.01881
G1 X6.565 Y112.065 E.01379
G1 X6.578 Y111.465 E.01881
G1 X6.673 Y111.06 E.01306
G1 X6.834 Y110.676 E.01305
G1 X7.072 Y110.307 E.01379
G1 X7.492 Y109.879 E.01881
G1 X7.839 Y109.648 E.01306
G1 X8.219 Y109.478 E.01306
G1 X8.646 Y109.373 E.01379
G1 X9.245 Y109.348 E.0188
G1 X9.266 Y109.351 E.00069
G1 X9.235 Y109.77 F30000
;TYPE:Outer wall
G1 F3000
G1 X9.526 Y109.815 E.00924
G1 X9.855 Y109.924 E.01086
G1 X10.165 Y110.091 E.01106
G1 X10.532 Y110.394 E.01491
G1 X10.771 Y110.693 E.01202
G1 X10.978 Y111.139 E.01541
G1 X11.082 Y111.496 E.01167
G1 X11.109 Y111.841 E.01086
G1 X11.075 Y112.192 E.01106
G1 X10.924 Y112.682 E.01607
G1 X10.755 Y112.984 E.01087
G1 X10.532 Y113.258 E.01106
G1 X10.135 Y113.582 E.01607
G1 X9.827 Y113.74 E.01086
G1 X9.491 Y113.846 E.01106
G1 X8.981 Y113.895 E.01607
G1 X8.636 Y113.857 E.01087
G1 X8.298 Y113.758 E.01106
G1 X7.846 Y113.518 E.01607
G1 X7.576 Y113.29 E.01106
G1 X7.258 Y112.88 E.01627
G1 X7.053 Y112.41 E.01607
G1 X6.984 Y112.065 E.01106
G1 X6.987 Y111.552 E.01607
G1 X7.062 Y111.214 E.01087
G1 X7.192 Y110.893 E.01086
G1 X7.378 Y110.593 E.01106
G1 X7.731 Y110.222 E.01607
G1 X8.017 Y110.027 E.01086
G1 X8.331 Y109.881 E.01087
G1 X8.672 Y109.79 E.01106
G1 X9.183 Y109.762 E.01607
G1 X9.195 Y109.764 E.00038
G1 E-.56 F1800
;WIPE_START
G1 F3000
G1 X9.526 Y109.815 E-.0803
G1 X9.855 Y109.924 E-.08312
G1 X10.136 Y110.075 E-.07658
;WIPE_END
G1 X17.768 Y110.042 Z.6 F30000
G1 X261.386 Y108.989 Z.6
G1 Z.2
G1 E.8 F1800
;TYPE:Inner wall
G1 F3000
G1 X261.743 Y109.045 E.01132
G1 X262.234 Y109.228 E.01644
G1 X262.781 Y109.575 E.02032
G1 X263.13 Y109.908 E.01514
G1 X263.419 Y110.295 E.01513
G1 X263.639 Y110.724 E.01514
G1 X263.79 Y111.224 E.01638
G1 X263.858 Y111.821 E.01883
G1 X263.789 Y112.422 E.01899
G1 X263.551 Y113.105 E.0227
G1 X263.151 Y113.705 E.02263
G1 X262.649 Y114.167 E.02138
G1 X262.234 Y114.413 E.01514
G1 X261.784 Y114.588 E.01514
G1 X261.311 Y114.684 E.01514
G1 X260.789 Y114.695 E.01638
G1 X260.188 Y114.598 E.01911
G1 X259.641 Y114.375 E.0185
G1 X259.2 Y114.095 E.01641
G1 X258.717 Y113.613 E.02138
G1 X258.427 Y113.177 E.01644
G1 X258.189 Y112.574 E.02032
G1 X258.102 Y112.1 E.01513
G1 X258.097 Y111.611 E.01534
G1 X258.18 Y111.109 E.01596
G1 X258.371 Y110.572 E.01787
G1 X258.651 Y110.106 E.01706
G1 X259.011 Y109.707 E.01685
G1 X259.425 Y109.391 E.01634
G1 X259.889 Y109.148 E.01642
G1 X260.547 Y108.971 E.02138
G1 X261.069 Y108.939 E.0164
G1 X261.347 Y108.982 E.00882
G1 X261.354 Y109.378 F30000
G1 F3000
G1 X261.788 Y109.471 E.01393
G1 X262.168 Y109.64 E.01306
G1 X262.515 Y109.87 E.01306
G1 X262.819 Y110.155 E.01306
G1 X263.071 Y110.486 E.01305
G1 X263.264 Y110.855 E.01306
G1 X263.397 Y111.274 E.01379
G1 X263.461 Y111.821 E.01726
