; HEADER_BLOCK_START
; generated by OrcaSlicer 2.3.1 on 2025-10-11 at 21:41:21
; total layer number: 20
; filament_density: 1.02,1.02,1.02,1.24,1.24,1.24
; filament_diameter: 1.75,1.75,1.75,1.75,1.75,1.75
; max_z_height: 4.00
; HEADER_BLOCK_END

; THUMBNAIL_BLOCK_START

;
; THUMBNAIL_BLOCK_END

; external perimeters extrusion width = 0.42mm
; perimeters extrusion width = 0.45mm
; infill extrusion width = 0.45mm
; solid infill extrusion width = 0.42mm
; top infill extrusion width = 0.42mm
; first layer extrusion width = 0.44mm

; EXECUTABLE_BLOCK_START
EXCLUDE_OBJECT_DEFINE NAME=Ali_Box_-_ali_box_-_top.step_id_0_copy_0 CENTER=150.375,146.534 POLYGON=[[80.878,114.224],[207.918,114.224],[208.255,114.228],[208.591,114.242],[208.97,114.27],[209.349,114.309],[209.725,114.36],[210.1,114.423],[210.472,114.497],[210.842,114.584],[211.208,114.682],[211.572,114.791],[211.931,114.912],[212.286,115.044],[212.637,115.187],[212.983,115.341],[213.323,115.506],[213.658,115.682],[213.988,115.868],[214.311,116.064],[214.628,116.271],[214.938,116.487],[215.24,116.713],[215.536,116.949],[215.824,117.194],[216.103,117.448],[216.375,117.71],[216.638,117.981],[216.892,118.26],[217.138,118.547],[217.374,118.842],[217.601,119.144],[217.796,119.422],[217.984,119.706],[218.163,119.995],[218.335,120.288],[218.497,120.587],[218.652,120.89],[218.797,121.198],[218.934,121.509],[219.062,121.825],[219.18,122.144],[219.29,122.466],[219.39,122.792],[219.481,123.12],[219.563,123.451],[219.635,123.784],[219.698,124.12],[219.751,124.457],[219.795,124.795],[219.829,125.135],[219.853,125.476],[219.868,125.817],[219.872,126.159],[219.872,178.845],[80.878,178.845],[80.878,114.224]]
M73 P0 R32
M106 S0
M106 P2 S0
;TYPE:Custom
PRINT_START BED=100 HOTEND=260 CHAMBER=60 EXTRUDER=0
SET_PRINT_STATS_INFO TOTAL_LAYER=20
M83
M140 S100
M104 S260
M141 S60
G4 P3000
T0
G1 X108.000 Y1 F30000
G0 Z0.2 F600
;G1 E3 F1800
G90
M83
G0 X128 E8  F904.991
G0 X133 E.3742  F1508.32
G0 X138 E.3742  F6033.27
G0 X143 E.3742  F1508.32
G0 X148 E.3742  F6033.27
G0 X153 E.3742  F1508.32
G91
G1 X1 Z-0.300
G1 X4
G1 Z1 F1200
G90
M400
G1 X108.000 Y2.5 F30000
G0 Z0.2 F600
M83
G0 X128 E10  F904.991
G0 X133 E.3742  F1508.32
G0 X138 E.3742  F6033.27
G0 X143 E.3742  F1508.32
G0 X148 E.3742  F6033.27
G0 X153 E.3742  F1508.32
G91
G1 X1 Z-0.300
G1 X4
G1 Z1 F1200
G90
M400
G1 Z1 F600
M106 P3 S255
G90
G21
M83 ; use relative distances for extrusion
; Filament gcode
SET_PRESSURE_ADVANCE ADVANCE=0.025; Override pressure advance value
T0
M106 P2 S0
;LAYER_CHANGE
;Z:0.2
;HEIGHT:0.2
;BEFORE_LAYER_CHANGE
;0.2
G92 E0

G1 E-.8 F1800
 ; timelapse without wipe tower
TIMELAPSE_TAKE_FRAME

G92 E0
SET_PRINT_STATS_INFO CURRENT_LAYER=1
;_SET_FAN_SPEED_CHANGING_LAYER
SET_VELOCITY_LIMIT ACCEL=500
G1 X94.111 Y112.034 F30000
G1 Z.6
G1 Z.2
G1 E.8 F1800
;TYPE:Skirt
;WIDTH:0.44
G1 F3000
G1 X207.916 Y112.034 E3.56965
G1 X209.186 Y112.092 E.03989
G1 X210.453 Y112.263 E.0401
G1 X212.686 Y112.86 E.07251
G1 X213.867 Y113.342 E.04
G1 X215.059 Y113.963 E.04215
G1 X216.951 Y115.284 E.07239
G1 X217.942 Y116.187 E.04205
G1 X218.799 Y117.128 E.03991
G1 X219.583 Y118.166 E.04081
G1 X220.224 Y119.19 E.0379
G1 X220.773 Y120.265 E.03786
G1 X221.23 Y121.385 E.03793
G1 X221.589 Y122.542 E.03799
G1 X221.848 Y123.723 E.03793
G1 X222.006 Y124.924 E.038
G1 X222.06 Y126.168 E.03906
G1 X222.06 Y178.845 E1.6523
G1 X221.67 Y180.097 E.04112
G1 X220.636 Y180.903 E.04112
G1 X219.862 Y181.044 E.02467
G1 X80.878 Y181.044 E4.35943
G1 X79.627 Y180.653 E.04112
G1 X78.82 Y179.619 E.04112
G1 X78.679 Y178.845 E.02467
G1 X78.679 Y114.233 E2.02667
G1 X79.07 Y112.981 E.04112
G1 X80.104 Y112.175 E.04112
G1 X80.878 Y112.034 E.02467
G1 X94.071 Y112.034 E.41382
; printing object Ali Box - ali box - top.step id:0 copy 0
G1 E-.56 F1800
;WIPE_START
G1 F3000
G1 X95.071 Y112.034 E-.24
;WIPE_END
EXCLUDE_OBJECT_START NAME=Ali_Box_-_ali_box_-_top.step_id_0_copy_0
G1 X87.756 Y114.211 Z.6 F30000
G1 X82.439 Y115.794 Z.6
G1 Z.2
G1 E.8 F1800
;TYPE:Inner wall
;WIDTH:0.439999
G1 F3000
G1 X207.895 Y115.794 E3.93509
G1 X208.491 Y115.811 E.01869
M73 P0 R31
G1 X209.142 Y115.868 E.0205
G1 X210.13 Y116.033 E.03144
G1 X211.097 Y116.292 E.03139
G1 X211.708 Y116.508 E.02032
G1 X212.314 Y116.766 E.02065
G1 X212.901 Y117.062 E.02063
G1 X213.468 Y117.395 E.02062
G1 X214.013 Y117.762 E.02061
G1 X214.532 Y118.163 E.02059
G1 X215.025 Y118.597 E.02059
G1 X215.49 Y119.06 E.02058
G1 X215.924 Y119.552 E.02058
G1 X216.327 Y120.072 E.02065
G1 X216.659 Y120.558 E.01845
G1 X216.958 Y121.056 E.01821
G1 X217.369 Y121.864 E.02844
G1 X217.592 Y122.392 E.01798
G1 X217.794 Y122.957 E.01882
G1 X217.957 Y123.515 E.01825
G1 X218.15 Y124.404 E.02852
G1 X218.231 Y124.974 E.01805
G1 X218.283 Y125.574 E.01889
G1 X218.301 Y126.339 E.024
G1 X218.301 Y177.284 E1.59796
G1 X82.439 Y177.284 E4.26148
M73 P1 R31
G1 X82.439 Y115.834 E1.92747
G1 X82.042 Y115.397 F30000
G1 F3000
G1 X207.901 Y115.397 E3.94772
G1 X208.514 Y115.414 E.01924
G1 X209.192 Y115.473 E.02136
G1 X210.215 Y115.645 E.03252
G1 X211.215 Y115.912 E.03247
G1 X211.852 Y116.138 E.02121
G1 X212.481 Y116.406 E.02144
G1 X213.091 Y116.714 E.02142
G1 X213.68 Y117.059 E.02141
G1 X214.245 Y117.44 E.0214
G1 X214.785 Y117.857 E.02138
G1 X215.297 Y118.307 E.02138
G1 X215.779 Y118.788 E.02137
G1 X216.23 Y119.299 E.02137
G1 X216.648 Y119.838 E.02142
G1 X216.993 Y120.344 E.01918
G1 X217.306 Y120.863 E.01901
G1 X217.73 Y121.696 E.02933
G1 X217.962 Y122.248 E.01878
G1 X218.171 Y122.835 E.01954
G1 X218.342 Y123.417 E.01905
G1 X218.541 Y124.334 E.02941
G1 X218.626 Y124.928 E.01884
G1 X218.68 Y125.551 E.01961
G1 X218.698 Y126.339 E.02472
G1 X218.698 Y177.681 E1.61042
G1 X82.042 Y177.681 E4.28639
G1 X82.042 Y115.437 E1.95238
G1 X81.645 Y115 F30000
G1 F3000
G1 X207.906 Y115 E3.96035
G1 X208.536 Y115.017 E.01978
G1 X209.242 Y115.079 E.02222
G1 X210.299 Y115.257 E.03361
G1 X211.333 Y115.533 E.03356
G1 X211.997 Y115.768 E.0221
G1 X212.648 Y116.046 E.02223
G1 X213.281 Y116.365 E.02221
G1 X213.891 Y116.723 E.0222
G1 X214.478 Y117.118 E.02219
G1 X215.037 Y117.55 E.02217
G1 X215.568 Y118.017 E.02217
G1 X216.069 Y118.516 E.02216
G1 X216.536 Y119.045 E.02216
G1 X216.97 Y119.605 E.02219
G1 X217.328 Y120.129 E.01991
G1 X217.653 Y120.67 E.01981
G1 X218.09 Y121.529 E.03022
G1 X218.333 Y122.104 E.01957
G1 X218.549 Y122.712 E.02025
G1 X218.727 Y123.319 E.01985
G1 X218.858 Y123.923 E.01937
G1 X218.981 Y124.608 E.02184
G1 X219.05 Y125.22 E.01932
G1 X219.095 Y126.339 E.03511
G1 X219.095 Y178.078 E1.62287
G1 X81.645 Y178.078 E4.3113
G1 X81.645 Y115.04 E1.97729
M73 P2 R31
G1 X81.248 Y114.603 F30000
;TYPE:Outer wall
G1 F3000
G1 X207.912 Y114.603 E3.97298
G1 X208.559 Y114.621 E.02032
G1 X209.293 Y114.685 E.02308
G1 X210.383 Y114.868 E.03469
G1 X211.45 Y115.153 E.03464
G1 X212.141 Y115.397 E.02298
G1 X212.816 Y115.686 E.02302
G1 X213.471 Y116.016 E.023
G1 X214.103 Y116.386 E.02299
G1 X214.71 Y116.796 E.02298
G1 X215.29 Y117.244 E.02296
G1 X215.84 Y117.727 E.02296
G1 X216.358 Y118.244 E.02296
G1 X216.842 Y118.792 E.02295
G1 X217.291 Y119.371 E.02297
G1 X217.662 Y119.914 E.02065
G1 X218.001 Y120.478 E.02062
G1 X218.45 Y121.362 E.03111
G1 X218.703 Y121.96 E.02037
G1 X218.927 Y122.589 E.02096
G1 X219.112 Y123.221 E.02066
G1 X219.246 Y123.839 E.01981
G1 X219.374 Y124.552 E.02273
G1 X219.445 Y125.186 E.02002
G1 X219.492 Y126.339 E.03618
G1 X219.492 Y178.475 E1.63533
G1 X81.248 Y178.475 E4.33621
G1 X81.248 Y114.643 E2.0022
G1 E-.56 F1800
;WIPE_START
G1 F3000
G1 X82.248 Y114.642 E-.24
;WIPE_END
G1 X89.329 Y117.492 Z.6 F30000
G1 X164.85 Y147.883 Z.6
G1 Z.2
G1 E.8 F1800
;TYPE:Inner wall
G1 F3000
G1 X165.006 Y147.815 E.00537
G1 X165.861 Y147.547 E.02808
G1 X166.791 Y147.418 E.02947
G1 X167.711 Y147.452 E.02888
G1 X168.827 Y147.71 E.03592
G1 X169.911 Y148.221 E.03757
G1 X170.668 Y148.777 E.02947
G1 X171.085 Y149.217 E.01901
G1 X171.45 Y149.637 E.01747
G1 X171.942 Y150.437 E.02946
G1 X172.276 Y151.275 E.02827
G1 X172.493 Y152.417 E.03647
G1 X172.489 Y153.098 E.02136
G1 X172.46 Y153.616 E.01629
G1 X172.41 Y153.918 E.00959
G1 X172.166 Y154.78 E.0281
G1 X172.051 Y155.063 E.00959
G1 X171.625 Y155.851 E.0281
G1 X171.047 Y156.593 E.02947
G1 X170.167 Y157.351 E.03645
G1 X169.353 Y157.821 E.02947
G1 X168.251 Y158.192 E.03646
G1 X167.321 Y158.321 E.02946
G1 X166.161 Y158.251 E.03645
G1 X165.25 Y158.02 E.02947
G1 X164.202 Y157.518 E.03646
G1 X163.445 Y156.962 E.02946
G1 X162.809 Y156.296 E.02887
G1 X162.189 Y155.333 E.03592
G1 X161.837 Y154.465 E.02941
G1 X161.62 Y153.323 E.03644
G1 X161.603 Y153.018 E.00959
G1 X161.653 Y152.123 E.02811
G1 X161.865 Y151.188 E.03007
G1 X162.068 Y150.7 E.01658
G1 X162.332 Y150.143 E.01935
G1 X162.866 Y149.372 E.02941
G1 X163.436 Y148.813 E.02504
G1 X163.95 Y148.385 E.02097
G1 X164.726 Y147.937 E.02811
G1 X164.813 Y147.899 E.00297
G1 X165.084 Y148.228 F30000
G1 F3000
G1 X165.979 Y147.926 E.02963
G1 X166.835 Y147.813 E.02707
G1 X167.689 Y147.848 E.0268
G1 X168.729 Y148.095 E.03354
G1 X169.731 Y148.575 E.03486
G1 X170.424 Y149.091 E.02708
G1 X171.151 Y149.898 E.03407
G1 X171.598 Y150.636 E.02707
G1 X171.904 Y151.414 E.02622
G1 X172.101 Y152.482 E.03407
G1 X172.064 Y153.595 E.03492
G1 X171.784 Y154.672 E.03492
G1 X171.275 Y155.662 E.03492
G1 X170.741 Y156.34 E.02708
G1 X169.914 Y157.045 E.03406
G1 X169.164 Y157.472 E.02708
G1 X168.133 Y157.813 E.03407
G1 X167.277 Y157.926 E.02707
G1 X166.194 Y157.855 E.03406
G1 X165.358 Y157.638 E.02708
G1 X164.381 Y157.164 E.03407
G1 X163.689 Y156.648 E.02707
G1 X163.102 Y156.028 E.02679
G1 X162.528 Y155.126 E.03354
G1 X162.209 Y154.325 E.02703
G1 X162.012 Y153.258 E.03405
G1 X162.049 Y152.145 E.03492
G1 X162.249 Y151.287 E.02765
G1 X162.691 Y150.313 E.03354
G1 X163.186 Y149.608 E.02703
G1 X163.705 Y149.105 E.02265
G1 X164.149 Y148.729 E.01824
G1 X164.925 Y148.281 E.02811
G1 X165.046 Y148.24 E.00401
G1 X165.212 Y148.596 F30000
G1 F3000
G1 X166.098 Y148.305 E.02925
G1 X166.879 Y148.208 E.02468
G1 X167.666 Y148.245 E.02471
G1 X168.631 Y148.48 E.03116
G1 X169.552 Y148.93 E.03215
G1 X170.18 Y149.404 E.02468
G1 X170.851 Y150.159 E.03168
G1 X171.254 Y150.834 E.02468
G1 X171.532 Y151.553 E.02417
G1 X171.709 Y152.547 E.03168
G1 X171.667 Y153.573 E.03219
G1 X171.402 Y154.564 E.03219
G1 X170.926 Y155.473 E.03219
G1 X170.434 Y156.088 E.02469
G1 X169.662 Y156.738 E.03167
G1 X168.975 Y157.122 E.02469
G1 X168.014 Y157.434 E.03168
G1 X167.234 Y157.532 E.02468
G1 X166.227 Y157.459 E.03167
G1 X165.466 Y157.256 E.02469
G1 X164.56 Y156.81 E.03168
G1 X163.933 Y156.335 E.02468
G1 X163.395 Y155.76 E.0247
G1 X162.866 Y154.919 E.03116
G1 X162.581 Y154.186 E.02466
G1 X162.404 Y153.192 E.03166
G1 X162.446 Y152.167 E.0322
G1 X162.634 Y151.385 E.02522
G1 X163.049 Y150.483 E.03116
G1 X163.506 Y149.843 E.02466
G1 X163.974 Y149.397 E.02026
G1 X164.347 Y149.073 E.0155
G1 X165.123 Y148.625 E.02811
G1 X165.174 Y148.609 E.00167
G1 X165.334 Y148.965 F30000
;TYPE:Outer wall
G1 F3000
G1 X166.216 Y148.684 E.02905
G1 X166.922 Y148.602 E.0223
G1 X167.643 Y148.641 E.02263
G1 X168.533 Y148.864 E.02879
G1 X169.373 Y149.284 E.02944
G1 X169.936 Y149.718 E.0223
G1 X170.552 Y150.419 E.02929
G1 X170.91 Y151.033 E.02229
G1 X171.16 Y151.692 E.02212
G1 X171.318 Y152.613 E.02929
G1 X171.271 Y153.551 E.02946
G1 X171.02 Y154.456 E.02946
G1 X170.577 Y155.284 E.02946
G1 X170.128 Y155.835 E.0223
G1 X169.41 Y156.432 E.02928
G1 X168.786 Y156.773 E.0223
G1 X167.896 Y157.055 E.02929
G1 X167.19 Y157.137 E.02229
G1 X166.259 Y157.064 E.02928
G1 X165.574 Y156.874 E.0223
G1 X164.74 Y156.455 E.02929
G1 X164.177 Y156.022 E.02229
G1 X163.687 Y155.492 E.02262
G1 X163.205 Y154.711 E.02879
G1 X162.952 Y154.047 E.02229
G1 X162.795 Y153.127 E.02927
G1 X162.842 Y152.189 E.02947
G1 X163.019 Y151.484 E.0228
G1 X163.408 Y150.653 E.02879
G1 X163.826 Y150.078 E.02229
G1 X164.546 Y149.417 E.03064
G1 X165.298 Y148.983 E.02725
G1 E-.56 F1800
;WIPE_START
G1 F3000
G1 X166.216 Y148.684 E-.23172
G1 X166.251 Y148.68 E-.00828
;WIPE_END
G1 X172.332 Y144.068 Z.6 F30000
G1 X174.417 Y142.486 Z.6
G1 Z.2
G1 E.8 F1800
;TYPE:Inner wall
G1 F3000
G1 X174.267 Y142.524 E.00484
G1 X160.985 Y142.531 E.41661
G1 X160.579 Y142.47 E.01289
G1 X160.304 Y142.353 E.00936
G1 X160.012 Y142.134 E.01146
G1 X159.747 Y141.772 E.01407
G1 X159.595 Y141.319 E.01499
G1 X159.595 Y127.998 E.41782
G1 X159.643 Y127.636 E.01148
G1 X159.812 Y127.253 E.01311
G1 X160.075 Y126.947 E.01266
G1 X160.484 Y126.702 E.01497
G1 X160.855 Y126.608 E.012
G1 X174.128 Y126.608 E.41631
G1 X174.45 Y126.646 E.01019
G1 X174.88 Y126.83 E.01466
G1 X175.199 Y127.112 E.01336
G1 X175.396 Y127.429 E.01169
G1 X175.518 Y127.864 E.01417
G1 X175.518 Y141.141 E.41646
G1 X175.453 Y141.56 E.01328
G1 X175.257 Y141.951 E.01374
G1 X174.952 Y142.26 E.0136
G1 X174.66 Y142.425 E.01053
G1 X174.455 Y142.477 E.00663
G1 X174.353 Y142.091 F30000
G1 F3000
G1 X174.227 Y142.129 E.00413
G1 X160.985 Y142.134 E.41536
G1 X160.695 Y142.091 E.00921
G1 X160.499 Y142.007 E.00668
G1 X160.22 Y141.774 E.01139
G1 X160.055 Y141.487 E.01038
G1 X159.992 Y141.141 E.01103
G1 X159.992 Y127.998 E.41225
G1 X160.061 Y127.636 E.01155
G1 X160.259 Y127.321 E.01168
G1 X160.52 Y127.121 E.01033
G1 X160.886 Y127.006 E.01204
G1 X174.128 Y127.006 E.41534
G1 X174.468 Y127.066 E.01082
G1 X174.751 Y127.225 E.01021
G1 X174.995 Y127.516 E.01191
G1 X175.121 Y127.898 E.01262
G1 X175.121 Y141.141 E.41538
G1 X175.052 Y141.502 E.01153
G1 X174.859 Y141.812 E.01146
G1 X174.589 Y142.02 E.0107
G1 X174.392 Y142.08 E.00646
G1 X174.131 Y141.726 F30000
G1 F3000
G1 X172.812 Y141.737 E.04139
G1 X160.985 Y141.737 E.37096
G1 X160.693 Y141.66 E.00946
G1 X160.488 Y141.469 E.00881
G1 X160.389 Y141.201 E.00896
G1 X160.389 Y127.998 E.41411
G1 X160.455 Y127.726 E.00878
G1 X160.648 Y127.507 E.00914
G1 X160.923 Y127.403 E.00925
G1 X174.128 Y127.403 E.41418
G1 X174.393 Y127.465 E.00856
G1 X174.62 Y127.663 E.00945
G1 X174.723 Y127.936 E.00915
G1 X174.723 Y141.141 E.41419
G1 X174.65 Y141.428 E.0093
G1 X174.481 Y141.621 E.00802
G1 X174.248 Y141.725 E.00802
G1 X174.171 Y141.725 E.0024
G1 X174.128 Y141.34 F30000
;TYPE:Outer wall
G1 F3000
G1 X160.985 Y141.34 E.41225
G1 X160.888 Y141.314 E.00315
G1 X160.786 Y141.181 E.00526
G1 X160.786 Y127.998 E.41349
G1 X160.855 Y127.848 E.00518
M73 P3 R31
G1 X160.985 Y127.8 E.00435
G1 X174.128 Y127.8 E.41225
G1 X174.268 Y127.857 E.00474
G1 X174.326 Y127.998 E.00479
G1 X174.326 Y141.141 E.41225
G1 X174.258 Y141.291 E.00518
G1 X174.165 Y141.326 E.0031
G1 E-.56 F1800
;WIPE_START
G1 F3000
G1 X173.165 Y141.327 E-.24
;WIPE_END
G1 X165.866 Y143.557 Z.6 F30000
G1 X108.79 Y160.998 Z.6
G1 Z.2
G1 E.8 F1800
;TYPE:Inner wall
G1 F3000
G1 X108.531 Y160.955 E.00825
G1 X108.146 Y160.749 E.01368
G1 X107.868 Y160.469 E.01239
G1 X107.671 Y160.094 E.0133
G1 X107.595 Y159.641 E.01439
G1 X107.595 Y127.798 E.9988
G1 X107.644 Y127.434 E.01152
G1 X107.836 Y127.017 E.0144
G1 X108.113 Y126.716 E.01282
G1 X108.509 Y126.492 E.01429
G1 X108.862 Y126.409 E.01138
G1 X147.328 Y126.409 E1.20653
G1 X147.792 Y126.488 E.01476
G1 X148.182 Y126.702 E.01396
G1 X148.46 Y126.992 E.01259
G1 X148.636 Y127.33 E.01196
G1 X148.718 Y127.798 E.01492
G1 X148.718 Y159.641 E.9988
G1 X148.654 Y160.057 E.01318
G1 X148.495 Y160.396 E.01174
G1 X148.245 Y160.685 E.012
G1 X147.885 Y160.914 E.01337
G1 X147.425 Y161.031 E.0149
G1 X108.985 Y161.031 E1.20572
G1 X108.83 Y161.005 E.00493
G1 X108.855 Y160.612 F30000
G1 F3000
G1 X108.661 Y160.579 E.00619
G1 X108.329 Y160.386 E.01205
G1 X108.118 Y160.125 E.01054
G1 X107.992 Y159.767 E.01189
G1 X107.992 Y127.798 E1.00274
G1 X108.05 Y127.466 E.01058
G1 X108.22 Y127.166 E.01083
G1 X108.447 Y126.964 E.00954
G1 X108.852 Y126.806 E.01361
G1 X147.328 Y126.806 E1.20686
G1 X147.659 Y126.862 E.01054
G1 X147.938 Y127.015 E.00997
G1 X148.181 Y127.291 E.01153
G1 X148.293 Y127.567 E.00936
G1 X148.321 Y127.998 E.01354
G1 X148.321 Y159.641 E.99252
G1 X148.245 Y160.021 E.01214
G1 X148.035 Y160.338 E.01192
G1 X147.726 Y160.551 E.01177
G1 X147.397 Y160.634 E.01064
G1 X108.985 Y160.634 E1.20485
G1 X108.895 Y160.619 E.00287
G1 X108.891 Y160.213 F30000
G1 F3000
G1 X108.703 Y160.166 E.00608
G1 X108.484 Y159.964 E.00934
G1 X108.389 Y159.697 E.00888
G1 X108.389 Y127.798 E1.00055
