; HEADER_BLOCK_START
; generated by OrcaSlicer 2.3.1-beta on 2025-09-15 at 16:26:39
; total layer number: 40
; filament_density: 1.02,1.27,1.02,1.24,1.24,1.24
; filament_diameter: 1.75,1.75,1.75,1.75,1.75,1.75
; max_z_height: 8.00
; HEADER_BLOCK_END

; THUMBNAIL_BLOCK_START

;
; THUMBNAIL_BLOCK_END

; external perimeters extrusion width = 0.42mm
; perimeters extrusion width = 0.45mm
; infill extrusion width = 0.45mm
; solid infill extrusion width = 0.42mm
; top infill extrusion width = 0.42mm
; first layer extrusion width = 0.44mm

; EXECUTABLE_BLOCK_START
EXCLUDE_OBJECT_DEFINE NAME=Ali_Box_-_bracket_2_.step_id_0_copy_0 CENTER=135,135 POLYGON=[[30.75,109.646],[30.7556,109.496],[30.7723,109.348],[30.8001,109.201],[30.8389,109.056],[30.8883,108.915],[30.9481,108.778],[31.0179,108.646],[31.0975,108.519],[31.1863,108.399],[31.2839,108.285],[31.3896,108.18],[31.503,108.082],[31.6234,107.993],[31.75,107.914],[31.8822,107.844],[32.0193,107.784],[32.1605,107.734],[32.305,107.696],[32.4519,107.668],[32.6005,107.651],[32.75,107.646],[237.25,107.646],[237.399,107.651],[237.548,107.668],[237.695,107.696],[237.84,107.734],[237.981,107.784],[238.118,107.844],[238.25,107.914],[238.377,107.993],[238.497,108.082],[238.61,108.18],[238.716,108.285],[238.814,108.399],[238.902,108.519],[238.982,108.646],[239.052,108.778],[239.112,108.915],[239.161,109.056],[239.2,109.201],[239.228,109.348],[239.244,109.496],[239.25,109.646],[239.25,116.463],[239.244,116.616],[239.226,116.769],[239.197,116.92],[239.156,117.068],[239.104,117.212],[239.041,117.353],[238.968,117.487],[238.884,117.616],[238.79,117.738],[238.688,117.853],[238.577,117.959],[186.646,160.802],[186.549,160.878],[186.419,160.977],[186.318,161.051],[186.186,161.143],[186.079,161.215],[185.946,161.299],[185.833,161.368],[185.7,161.445],[185.582,161.511],[185.448,161.581],[185.324,161.643],[185.19,161.707],[185.062,161.765],[184.928,161.822],[184.795,161.876],[184.661,161.926],[184.523,161.975],[184.391,162.019],[184.247,162.063],[184.116,162.101],[183.968,162.14],[183.839,162.172],[183.687,162.205],[183.559,162.231],[183.402,162.259],[183.276,162.279],[183.116,162.301],[182.992,162.315],[182.828,162.33],[182.707,162.339],[182.539,162.348],[182.421,162.352],[182.25,162.354],[107.75,162.354],[107.556,162.352],[107.461,162.348],[107.27,162.338],[107.172,162.33],[106.984,162.312],[106.884,162.301],[106.7,162.275],[106.598,162.259],[106.417,162.226],[106.313,162.205],[106.136,162.166],[106.032,162.14],[105.859,162.094],[105.753,162.063],[105.584,162.011],[105.477,161.975],[105.313,161.917],[105.205,161.876],[105.046,161.811],[104.938,161.765],[104.784,161.695],[104.676,161.643],[104.527,161.568],[104.418,161.511],[104.275,161.431],[104.167,161.368],[31.654,117.263],[31.5298,117.175],[31.4127,117.077],[31.3033,116.971],[31.2024,116.857],[31.1104,116.735],[31.028,116.607],[30.9555,116.473],[30.8935,116.334],[30.8422,116.19],[30.802,116.043],[30.7732,115.894],[30.7558,115.742],[30.75,115.59],[30.75,109.646]]
M73 P0 R34
M106 S0
M106 P2 S0
;TYPE:Custom
PRINT_START BED=100 HOTEND=260 CHAMBER=60 EXTRUDER=0
SET_PRINT_STATS_INFO TOTAL_LAYER=40
M83
M140 S100
M104 S260
M141 S60
G4 P3000
T0
G1 X108.000 Y1 F30000
G0 Z0.2 F600
;G1 E3 F1800
G90
M83
G0 X128 E8  F904.991
G0 X133 E.3742  F1508.32
G0 X138 E.3742  F6033.27
G0 X143 E.3742  F1508.32
G0 X148 E.3742  F6033.27
G0 X153 E.3742  F1508.32
G91
G1 X1 Z-0.300
G1 X4
G1 Z1 F1200
G90
M400
G1 X108.000 Y2.5 F30000
G0 Z0.2 F600
M83
G0 X128 E10  F904.991
G0 X133 E.3742  F1508.32
G0 X138 E.3742  F6033.27
G0 X143 E.3742  F1508.32
G0 X148 E.3742  F6033.27
G0 X153 E.3742  F1508.32
G91
G1 X1 Z-0.300
G1 X4
G1 Z1 F1200
G90
M400
G1 Z1 F600
M106 P3 S178
G90
G21
M83 ; use relative distances for extrusion
; Filament gcode
SET_PRESSURE_ADVANCE ADVANCE=0.025; Override pressure advance value
T0
M106 P2 S0
;LAYER_CHANGE
;Z:0.2
;HEIGHT:0.2
;BEFORE_LAYER_CHANGE
;0.2
G92 E0

G1 E-.8 F1800
 ; timelapse without wipe tower
TIMELAPSE_TAKE_FRAME

G92 E0
SET_PRINT_STATS_INFO CURRENT_LAYER=1
;_SET_FAN_SPEED_CHANGING_LAYER
SET_VELOCITY_LIMIT ACCEL=500
G1 X56.885 Y105.454 F30000
G1 Z.6
G1 Z.2
G1 E.8 F1800
;TYPE:Skirt
;WIDTH:0.44
G1 F3000
G1 X237.332 Y105.449 E5.65997
G1 X238.104 Y105.536 E.02435
G1 X238.707 Y105.709 E.01968
G1 X239.277 Y105.97 E.01968
G1 X239.931 Y106.415 E.02481
G1 X240.384 Y106.853 E.01975
G1 X240.844 Y107.476 E.02428
G1 X241.127 Y108.036 E.01968
G1 X241.36 Y108.792 E.02481
G1 X241.449 Y109.646 E.02693
G1 X241.428 Y116.869 E.22658
G1 X241.109 Y118.114 E.04032
G1 X240.728 Y118.813 E.02495
G1 X240.326 Y119.319 E.02029
G1 X187.989 Y162.542 E2.12908
G1 X186.82 Y163.337 E.04435
G1 X185.462 Y163.973 E.04703
G1 X184.016 Y164.381 E.04714
G1 X182.808 Y164.536 E.0382
G1 X107.83 Y164.552 E2.35178
G1 X106.413 Y164.455 E.04457
G1 X104.946 Y164.115 E.04723
G1 X103.892 Y163.704 E.03548
G1 X102.888 Y163.163 E.03577
G1 X30.512 Y119.141 E2.65714
G1 X29.656 Y118.427 E.03494
G1 X29.094 Y117.652 E.03004
G1 X28.721 Y116.77 E.03004
G1 X28.559 Y115.826 E.03004
G1 X28.553 Y109.563 E.19644
G1 X28.64 Y108.792 E.02436
G1 X28.813 Y108.189 E.01968
G1 X29.417 Y107.093 E.03925
G1 X30.318 Y106.224 E.03924
G1 X31.434 Y105.659 E.03925
G1 X32.518 Y105.454 E.03461
G1 X56.845 Y105.454 E.76305
; printing object Ali Box - bracket (2).step id:0 copy 0
G1 E-.56 F1800
;WIPE_START
G1 F3000
G1 X57.845 Y105.454 E-.24
;WIPE_END
EXCLUDE_OBJECT_START NAME=Ali_Box_-_bracket_2_.step_id_0_copy_0
G1 X50.298 Y106.589 Z.6 F30000
G1 X32.72 Y109.234 Z.6
G1 Z.2
G1 E.8 F1800
;TYPE:Inner wall
;WIDTH:0.439999
G1 F3000
G1 X237.171 Y109.234 E6.41291
G1 X237.44 Y109.287 E.00859
M73 P1 R33
G1 X237.61 Y109.475 E.00793
G1 X237.667 Y109.719 E.00789
G1 X237.662 Y116.305 E.20658
G1 X237.62 Y116.62 E.00996
G1 X237.413 Y116.863 E.00999
G1 X189.877 Y152.9 E1.87109
G1 X189.335 Y153.332 E.02173
G1 X188.964 Y153.717 E.01675
G1 X188.556 Y154.184 E.01947
G1 X188.003 Y155.102 E.03362
G1 X187.928 Y154.29 E.02558
G1 X187.682 Y153.389 E.02929
G1 X187.364 Y152.709 E.02355
G1 X187.004 Y152.068 E.02307
G1 X186.393 Y151.328 E.03009
G1 X185.48 Y150.562 E.03736
G1 X184.643 Y150.096 E.03005
G1 X183.764 Y149.779 E.02931
G1 X183.477 Y149.709 E.00926
G1 X182.331 Y149.574 E.03622
G1 X181.641 Y149.61 E.02165
G1 X180.441 Y149.868 E.0385
G1 X179.323 Y150.374 E.03852
G1 X178.361 Y151.079 E.03738
G1 X177.71 Y151.783 E.03009
G1 X177.071 Y152.789 E.03737
G1 X176.833 Y153.354 E.01926
G1 X176.833 Y127.226 E.81953
G1 X176.734 Y126.285 E.02969
G1 X176.673 Y126.001 E.0091
G1 X176.302 Y124.933 E.03546
G1 X175.847 Y124.145 E.02854
G1 X175.2 Y123.357 E.03199
G1 X163.49 Y111.647 E.51943
G1 X162.756 Y111.052 E.02964
G1 X161.797 Y110.518 E.03445
G1 X161.213 Y110.306 E.01948
G1 X160.358 Y110.119 E.02744
G1 X159.597 Y110.063 E.02396
G1 X130.081 Y110.069 E.92581
G1 X129.106 Y110.222 E.03095
G1 X128.038 Y110.594 E.03548
G1 X127.249 Y111.048 E.02855
G1 X126.461 Y111.696 E.03198
G1 X114.749 Y123.409 E.51957
G1 X114.153 Y124.144 E.02969
G1 X113.995 Y124.388 E.0091
G1 X113.503 Y125.406 E.03546
G1 X113.267 Y126.285 E.02854
G1 X113.167 Y127.299 E.03198
G1 X113.167 Y153.397 E.81859
G1 X112.948 Y152.834 E.01897
G1 X112.323 Y151.82 E.03736
G1 X111.673 Y151.114 E.0301
G1 X110.688 Y150.38 E.03852
G1 X109.606 Y149.881 E.03738
G1 X108.674 Y149.652 E.03009
G1 X107.486 Y149.581 E.03734
G1 X106.535 Y149.707 E.0301
G1 X105.641 Y149.976 E.02929
G1 X105.368 Y150.091 E.00927
G1 X104.552 Y150.544 E.02929
G1 X104.31 Y150.714 E.00927
G1 X103.407 Y151.546 E.03852
G1 X102.715 Y152.517 E.0374
G1 X102.407 Y153.151 E.0221
G1 X102.237 Y153.685 E.01758
G1 X102.025 Y154.582 E.0289
G1 X101.985 Y155.329 E.02348
G1 X101.573 Y154.624 E.02561
G1 X101.009 Y153.957 E.02742
G1 X100.572 Y153.579 E.01812
G1 X99.928 Y153.1 E.02517
G1 X32.623 Y115.996 E2.41066
G1 X32.405 Y115.794 E.00932
G1 X32.333 Y115.506 E.00932
G1 X32.333 Y109.61 E.18493
G1 X32.477 Y109.351 E.00929
G1 X32.684 Y109.251 E.00721
G1 X32.454 Y108.902 F30000
G1 F3000
G1 X32.69 Y108.837 E.00767
G1 X237.171 Y108.836 E6.41385
G1 X237.561 Y108.902 E.01241
G1 X237.79 Y109.064 E.00878
G1 X238.007 Y109.368 E.01171
G1 X238.064 Y109.72 E.01118
G1 X238.059 Y116.486 E.21224
G1 X237.955 Y116.846 E.01175
G1 X237.677 Y117.161 E.01315
G1 X190.117 Y153.217 E1.87205
G1 X189.621 Y153.608 E.0198
G1 X189.019 Y154.233 E.02722
G1 X188.778 Y154.577 E.01316
G1 X188.35 Y155.291 E.02613
;WIDTH:0.466649
G1 X188.036 Y156.016 E.02643
G1 X187.817 Y156.983 E.0332
;WIDTH:0.449172
G1 X187.546 Y157.719 E.02516
;WIDTH:0.455567
G1 X187.262 Y158.26 E.01992
G1 X186.976 Y158.712 E.01746
;WIDTH:0.452315
G1 X186.564 Y159.227 E.02131
G1 X186.194 Y159.605 E.0171
;WIDTH:0.451897
G1 X185.516 Y160.145 E.02801
;WIDTH:0.452546
G1 X185.098 Y160.404 E.01589
G1 X184.279 Y160.789 E.02928
;WIDTH:0.454889
G1 X183.788 Y160.941 E.01674
G1 X182.895 Y161.118 E.02963
;WIDTH:0.455619
G1 X182.384 Y161.146 E.01667
G1 X181.656 Y161.121 E.02376
;WIDTH:0.454691
G1 X180.973 Y161.006 E.02253
G1 X180.44 Y160.862 E.01795
;WIDTH:0.454847
G1 X179.84 Y160.623 E.02102
G1 X179.349 Y160.376 E.01788
;WIDTH:0.448641
G1 X178.708 Y159.948 E.02472
;WIDTH:0.455364
G1 X178.284 Y159.577 E.01834
G1 X177.706 Y158.956 E.02765
G1 X177.38 Y158.491 E.01849
G1 X177.019 Y157.858 E.02375
;WIDTH:0.450584
G1 X176.706 Y157.055 E.02776
;WIDTH:0.455454
G1 X176.578 Y156.531 E.01756
G1 X176.47 Y155.828 E.02318
;WIDTH:0.455935
G1 X176.456 Y155.327 E.01635
;WIDTH:0.4638
G1 X176.466 Y154.627 E.02328
G1 X176.436 Y153.693 E.03105
;WIDTH:0.439999
G1 X176.436 Y127.239 E.82978
G1 X176.296 Y126.124 E.03525
G1 X175.953 Y125.123 E.03319
G1 X175.539 Y124.395 E.02627
G1 X174.919 Y123.638 E.03068
G1 X163.224 Y111.943 E.51877
G1 X162.557 Y111.396 E.02705
G1 X161.654 Y110.888 E.0325
G1 X161.12 Y110.692 E.01785
G1 X160.327 Y110.515 E.02549
G1 X159.597 Y110.46 E.02298
G1 X130.113 Y110.466 E.92479
G1 X129.229 Y110.6 E.02805
G1 X128.227 Y110.943 E.03321
G1 X127.499 Y111.357 E.02628
G1 X126.742 Y111.977 E.03068
G1 X115.038 Y123.681 E.51918
G1 X114.349 Y124.568 E.03525
G1 X113.883 Y125.518 E.03319
G1 X113.661 Y126.326 E.02627
G1 X113.564 Y127.299 E.03068
G1 X113.564 Y153.087 E.80886
;WIDTH:0.480074
G1 X113.513 Y154.258 E.04049
G1 X113.547 Y155.327 E.03692
;WIDTH:0.454926
G1 X113.524 Y155.829 E.01634
G1 X113.421 Y156.555 E.02388
;WIDTH:0.452739
G1 X113.175 Y157.408 E.02873
;WIDTH:0.454994
G1 X112.961 Y157.887 E.01708
G1 X112.483 Y158.707 E.0309
;WIDTH:0.450859
G1 X111.872 Y159.434 E.03061
;WIDTH:0.45188
G1 X111.15 Y160.051 E.03068
G1 X110.41 Y160.507 E.02807
;WIDTH:0.454605
G1 X109.903 Y160.734 E.01809
G1 X109.153 Y160.982 E.02567
;WIDTH:0.455526
G1 X108.536 Y161.093 E.02043
G1 X107.972 Y161.147 E.01847
G1 X107.343 Y161.133 E.02051
G1 X106.797 Y161.072 E.0179
;WIDTH:0.455235
G1 X106.166 Y160.927 E.02109
G1 X105.301 Y160.611 E.02999
;WIDTH:0.450903
G1 X104.746 Y160.313 E.0203
;WIDTH:0.4552
G1 X104.271 Y159.987 E.01879
G1 X103.557 Y159.361 E.03091
;WIDTH:0.451947
G1 X102.962 Y158.625 E.03058
G1 X102.528 Y157.876 E.02796
;WIDTH:0.452502
G1 X102.311 Y157.36 E.01812
G1 X102.119 Y156.761 E.02034
;WIDTH:0.4818
G1 X101.926 Y155.99 E.02757
G1 X101.723 Y155.68 E.01284
;WIDTH:0.439999
G1 X101.269 Y154.881 E.02883
G1 X100.705 Y154.213 E.02742
G1 X100.328 Y153.893 E.01553
G1 X99.736 Y153.448 E.02322
G1 X32.411 Y116.333 E2.41137
G1 X32.147 Y116.106 E.01091
G1 X32.007 Y115.869 E.00866
G1 X31.936 Y115.528 E.01091
G1 X31.936 Y109.533 E.18805
G1 X32.129 Y109.151 E.01344
G1 X32.416 Y108.913 E.01168
G1 X32.348 Y108.524 F30000
G1 F3000
G1 X32.66 Y108.439 E.01015
G1 X237.316 Y108.439 E6.41933
G1 X237.811 Y108.585 E.01618
M73 P2 R33
G1 X238.192 Y108.895 E.0154
G1 X238.281 Y109.05 E.00562
G1 X238.418 Y109.368 E.01085
G1 X238.461 Y109.72 E.01113
G1 X238.456 Y116.374 E.20873
G1 X238.393 Y116.801 E.01354
G1 X238.242 Y117.148 E.01184
G1 X237.942 Y117.459 E.01356
G1 X190.356 Y153.533 E1.873
G1 X189.907 Y153.883 E.01787
G1 X189.305 Y154.508 E.02722
G1 X188.719 Y155.438 E.03446
;WIDTH:0.460557
G1 X188.445 Y156.117 E.02416
G1 X188.211 Y157.082 E.03275
;WIDTH:0.449573
G1 X188.049 Y157.562 E.01629
G1 X187.849 Y158.032 E.01642
;WIDTH:0.452009
G1 X187.609 Y158.48 E.01641
G1 X187.195 Y159.091 E.02385
;WIDTH:0.4495
G1 X186.879 Y159.488 E.01631
G1 X186.51 Y159.868 E.01701
;WIDTH:0.451944
G1 X186.125 Y160.199 E.0164
G1 X185.717 Y160.501 E.01639
;WIDTH:0.449678
G1 X185.285 Y160.767 E.01631
;WIDTH:0.451824
G1 X184.832 Y160.996 E.0164
G1 X184.366 Y161.189 E.01627
;WIDTH:0.451485
G1 X183.881 Y161.34 E.0164
G1 X183.387 Y161.454 E.01638
;WIDTH:0.450449
G1 X182.885 Y161.528 E.01633
;WIDTH:0.452049
G1 X182.378 Y161.557 E.01641
G1 X181.871 Y161.549 E.01639
;WIDTH:0.450687
G1 X181.366 Y161.496 E.01636
;WIDTH:0.451333
G1 X180.867 Y161.402 E.01637
G1 X180.296 Y161.24 E.01914
;WIDTH:0.451453
G1 X179.684 Y161.004 E.02118
G1 X179.214 Y160.768 E.01697
;WIDTH:0.449686
G1 X178.782 Y160.5 E.01632
G1 X178.373 Y160.201 E.0163
;WIDTH:0.451825
G1 X177.991 Y159.865 E.01641
G1 X177.636 Y159.503 E.01639
;WIDTH:0.449689
G1 X177.312 Y159.112 E.01631
;WIDTH:0.451852
G1 X177.022 Y158.692 E.01649
G1 X176.659 Y158.048 E.02388
;WIDTH:0.449098
G1 X176.452 Y157.564 E.01688
G1 X176.29 Y157.083 E.01628
;WIDTH:0.451921
G1 X176.172 Y156.59 E.01639
G1 X176.064 Y155.855 E.02399
;WIDTH:0.452293
G1 X176.045 Y155.327 E.01709
;WIDTH:0.458359
G1 X176.039 Y153.693 E.05361
;WIDTH:0.439999
G1 X176.039 Y127.265 E.82897
G1 X175.918 Y126.247 E.03215
G1 X175.604 Y125.312 E.03092
G1 X175.23 Y124.645 E.024
G1 X174.638 Y123.919 E.02937
G1 X162.958 Y112.238 E.51813
G1 X162.359 Y111.74 E.02444
G1 X161.512 Y111.259 E.03054
G1 X161.027 Y111.078 E.01622
G1 X160.296 Y110.91 E.02354
G1 X159.597 Y110.857 E.022
G1 X130.144 Y110.863 E.92382
G1 X129.352 Y110.978 E.02512
G1 X128.417 Y111.292 E.03094
G1 X127.749 Y111.666 E.02401
G1 X127.023 Y112.257 E.02937
G1 X115.337 Y123.943 E.51837
G1 X114.703 Y124.748 E.03216
G1 X114.264 Y125.631 E.03092
G1 X114.056 Y126.368 E.024
G1 X113.961 Y127.299 E.02937
G1 X113.961 Y153.087 E.80886
;WIDTH:0.470914
G1 X113.946 Y154.258 E.03961
G1 X113.956 Y155.352 E.03698
;WIDTH:0.451514
G1 X113.93 Y155.887 E.01729
G1 X113.824 Y156.624 E.02402
;WIDTH:0.451793
G1 X113.693 Y157.134 E.01703
G1 X113.53 Y157.616 E.01641
;WIDTH:0.451567
G1 X113.323 Y158.081 E.01643
G1 X113.082 Y158.528 E.01641
;WIDTH:0.450304
G1 X112.805 Y158.955 E.01636
;WIDTH:0.449098
G1 X112.493 Y159.356 E.01632
G1 X112.149 Y159.731 E.01632
;WIDTH:0.44892
G1 X111.776 Y160.077 E.01631
;WIDTH:0.449164
G1 X111.376 Y160.39 E.01632
;WIDTH:0.451949
G1 X110.95 Y160.669 E.01644
G1 X110.506 Y160.916 E.01642
;WIDTH:0.451266
G1 X110.04 Y161.121 E.01642
G1 X109.56 Y161.289 E.0164
;WIDTH:0.450765
G1 X109.06 Y161.42 E.01664
;WIDTH:0.451977
G1 X108.567 Y161.503 E.01617
G1 X107.828 Y161.561 E.02394
G1 X107.298 Y161.542 E.01715
G1 X106.712 Y161.468 E.01908
;WIDTH:0.451753
G1 X106.069 Y161.327 E.02125
G1 X105.565 Y161.162 E.01714
;WIDTH:0.44964
G1 X105.098 Y160.963 E.01632
;WIDTH:0.44841
G1 X104.446 Y160.609 E.02374
;WIDTH:0.451725
G1 X104.011 Y160.305 E.01714
G1 X103.618 Y159.983 E.01641
;WIDTH:0.449918
G1 X103.252 Y159.63 E.01635
;WIDTH:0.448865
G1 X102.917 Y159.247 E.01631
;WIDTH:0.449216
G1 X102.617 Y158.841 E.01621
;WIDTH:0.451925
G1 X102.348 Y158.405 E.01655
G1 X102.116 Y157.957 E.0163
;WIDTH:0.449644
G1 X101.923 Y157.486 E.01635
G1 X101.728 Y156.879 E.02048
;WIDTH:0.472245
G1 X101.51 Y156.115 E.02694
G1 X101.373 Y155.868 E.00959
;WIDTH:0.439999
G1 X100.966 Y155.137 E.02625
G1 X100.402 Y154.469 E.02742
G1 X99.544 Y153.796 E.03421
G1 X32.27 Y116.709 E2.40955
G1 X31.951 Y116.494 E.01206
G1 X31.713 Y116.202 E.0118
G1 X31.573 Y115.853 E.01181
G1 X31.539 Y115.551 E.00954
G1 X31.539 Y109.758 E.1817
G1 X31.572 Y109.387 E.01167
G1 X31.707 Y109.043 E.01159
G1 X31.931 Y108.763 E.01126
G1 X32.236 Y108.554 E.0116
G1 X32.309 Y108.535 E.00237
G1 X32.241 Y108.109 F30000
;TYPE:Outer wall
G1 F3000
G1 X32.628 Y108.021 E.01247
G1 X237.363 Y108.021 E6.42179
G1 X237.847 Y108.131 E.01557
G1 X238.165 Y108.299 E.01128
G1 X238.523 Y108.631 E.0153
G1 X238.767 Y109.053 E.0153
G1 X238.822 Y109.26 E.0067
G1 X238.88 Y109.72 E.01457
G1 X238.874 Y116.581 E.21519
G1 X238.758 Y117.075 E.01594
