; HEADER_BLOCK_START
; generated by OrcaSlicer 2.3.1 on 2025-10-12 at 00:10:01
; total layer number: 20
; filament_density: 1.02,1.02,1.02,1.24,1.24,1.24
; filament_diameter: 1.75,1.75,1.75,1.75,1.75,1.75
; max_z_height: 4.00
; HEADER_BLOCK_END

; THUMBNAIL_BLOCK_START

;
; THUMBNAIL_BLOCK_END

; external perimeters extrusion width = 0.42mm
; perimeters extrusion width = 0.45mm
; infill extrusion width = 0.45mm
; solid infill extrusion width = 0.42mm
; top infill extrusion width = 0.42mm
; first layer extrusion width = 0.44mm

; EXECUTABLE_BLOCK_START
EXCLUDE_OBJECT_DEFINE NAME=Ali_Box_-_ali_box_-_top_1_.step_id_0_copy_0 CENTER=135,135 POLYGON=[[35.5039,77.4573],[35.5086,77.1205],[35.5227,76.7841],[35.5499,76.4047],[35.589,76.0265],[35.6401,75.6499],[35.7029,75.2753],[35.7775,74.903],[35.8638,74.5334],[35.9618,74.1668],[36.0712,73.8037],[36.192,73.4444],[36.324,73.0892],[36.4672,72.7385],[36.6214,72.3927],[36.7864,72.052],[36.962,71.7168],[37.1482,71.3875],[37.3446,71.0643],[37.5511,70.7476],[37.7676,70.4376],[37.9937,70.1348],[38.2292,69.8394],[38.474,69.5516],[38.7278,69.2718],[38.9903,69.0002],[39.2613,68.7371],[39.5405,68.4827],[39.8276,68.2374],[40.1224,68.0013],[40.4245,67.7746],[40.7025,67.579],[40.986,67.3913],[41.2748,67.2118],[41.5686,67.0406],[41.8672,66.8778],[42.1704,66.7236],[42.478,66.5781],[42.7896,66.4415],[43.1051,66.3137],[43.4242,66.195],[43.7467,66.0854],[44.0722,65.985],[44.4005,65.8939],[44.7315,65.8122],[45.0647,65.74],[45.4,65.6772],[45.737,65.624],[46.0755,65.5804],[46.4153,65.5465],[46.756,65.5222],[47.0975,65.5076],[47.4393,65.5028],[222.561,65.5028],[222.821,65.5056],[223.08,65.514],[223.459,65.5364],[223.837,65.5708],[224.213,65.617],[224.588,65.6751],[224.96,65.7451],[225.33,65.8267],[225.697,65.92],[226.061,66.0249],[226.421,66.1411],[226.777,66.2687],[227.129,66.4075],[227.476,66.5574],[227.818,66.7181],[228.155,66.8896],[228.486,67.0717],[228.811,67.2641],[229.13,67.4668],[229.442,67.6794],[229.748,67.9019],[230.046,68.1339],[230.336,68.3753],[230.619,68.6258],[230.893,68.8851],[231.133,69.1259],[231.366,69.3735],[231.592,69.6276],[231.811,69.8881],[232.022,70.1548],[232.225,70.4275],[232.421,70.7059],[232.608,70.9899],[232.788,71.2792],[232.959,71.5735],[233.121,71.8727],[233.275,72.1765],[233.421,72.4847],[233.558,72.797],[233.685,73.1131],[233.804,73.4329],[233.914,73.756],[234.014,74.0823],[234.105,74.4114],[234.187,74.743],[234.259,75.077],[234.322,75.4131],[234.375,75.7509],[234.418,76.0903],[234.452,76.4308],[234.477,76.7724],[234.491,77.1147],[234.496,77.4573],[234.496,204.497],[35.5039,204.497],[35.5039,77.4573]]
M73 P0 R82
M106 S0
M106 P2 S0
;TYPE:Custom
PRINT_START BED=100 HOTEND=260 CHAMBER=60 EXTRUDER=0
SET_PRINT_STATS_INFO TOTAL_LAYER=20
M83
M140 S100
M104 S260
M141 S60
G4 P3000
T0
G1 X108.000 Y1 F30000
G0 Z0.2 F600
;G1 E3 F1800
G90
M83
G0 X128 E8  F904.991
G0 X133 E.3742  F1508.32
G0 X138 E.3742  F6033.27
G0 X143 E.3742  F1508.32
G0 X148 E.3742  F6033.27
G0 X153 E.3742  F1508.32
G91
G1 X1 Z-0.300
G1 X4
G1 Z1 F1200
G90
M400
G1 X108.000 Y2.5 F30000
G0 Z0.2 F600
M83
G0 X128 E10  F904.991
G0 X133 E.3742  F1508.32
G0 X138 E.3742  F6033.27
G0 X143 E.3742  F1508.32
G0 X148 E.3742  F6033.27
G0 X153 E.3742  F1508.32
G91
G1 X1 Z-0.300
G1 X4
G1 Z1 F1200
G90
M400
G1 Z1 F600
M106 P3 S255
G90
G21
M83 ; use relative distances for extrusion
; Filament gcode
SET_PRESSURE_ADVANCE ADVANCE=0.025; Override pressure advance value
T0
M106 P2 S0
;LAYER_CHANGE
;Z:0.2
;HEIGHT:0.2
;BEFORE_LAYER_CHANGE
;0.2
G92 E0

G1 E-.8 F1800
 ; timelapse without wipe tower
TIMELAPSE_TAKE_FRAME

G92 E0
SET_PRINT_STATS_INFO CURRENT_LAYER=1
;_SET_FAN_SPEED_CHANGING_LAYER
SET_VELOCITY_LIMIT ACCEL=500
G1 X47.075 Y63.32 F30000
G1 Z.6
G1 Z.2
G1 E.8 F1800
;TYPE:Skirt
;WIDTH:0.44
G1 F3000
G1 X222.558 Y63.315 E5.50429
G1 X223.651 Y63.358 E.0343
G1 X224.985 Y63.525 E.04217
G1 X226.297 Y63.818 E.04218
G1 X227.575 Y64.234 E.04215
G1 X228.809 Y64.77 E.04218
G1 X229.983 Y65.42 E.04211
G1 X231.089 Y66.178 E.04205
G1 X232.119 Y67.038 E.0421
G1 X233.001 Y67.924 E.03919
G1 X233.775 Y68.851 E.0379
G1 X234.468 Y69.842 E.03791
G1 X235.227 Y71.191 E.04856
G1 X235.715 Y72.3 E.03801
G1 X236.124 Y73.507 E.03995
G1 X236.474 Y75.02 E.04873
G1 X236.631 Y76.223 E.03806
G1 X236.686 Y77.468 E.03907
G1 X236.686 Y204.497 E3.98446
G1 X236.295 Y205.749 E.04112
G1 X235.261 Y206.555 E.04112
G1 X234.487 Y206.696 E.02467
G1 X35.513 Y206.696 E6.24112
G1 X34.261 Y206.305 E.04112
G1 X33.455 Y205.271 E.04112
G1 X33.314 Y204.497 E.02467
G1 X33.321 Y77.039 E3.9979
G1 X33.47 Y75.365 E.05271
G1 X33.749 Y73.977 E.04443
G1 X34.272 Y72.334 E.05409
G1 X34.848 Y71.042 E.04436
G1 X35.718 Y69.557 E.05399
G1 X36.564 Y68.425 E.0443
G1 X37.739 Y67.17 E.05393
G1 X38.812 Y66.253 E.04428
G1 X39.774 Y65.573 E.03695
G1 X40.824 Y64.958 E.03817
G1 X42.726 Y64.124 E.06513
G1 X45.004 Y63.527 E.07389
G1 X47.035 Y63.324 E.06402
; printing object Ali Box - ali box - top (1).step id:0 copy 0
G1 E-.56 F1800
;WIPE_START
G1 F3000
G1 X48.035 Y63.324 E-.24
;WIPE_END
EXCLUDE_OBJECT_START NAME=Ali_Box_-_ali_box_-_top_1_.step_id_0_copy_0
G1 X54.126 Y67.923 Z.6 F30000
G1 X232.926 Y202.936 Z.6
G1 Z.2
G1 E.8 F1800
;TYPE:Inner wall
;WIDTH:0.439999
G1 F3000
G1 X37.074 Y202.936 E6.14316
G1 X37.074 Y77.5 E3.93449
G1 X37.115 Y76.554 E.02969
G1 X37.249 Y75.569 E.03119
G1 X37.474 Y74.605 E.03106
G1 X37.789 Y73.668 E.03101
G1 X38.191 Y72.766 E.03096
G1 X38.676 Y71.908 E.03092
G1 X39.24 Y71.1 E.03089
G1 X39.878 Y70.35 E.03087
G1 X40.583 Y69.665 E.03086
G1 X41.354 Y69.048 E.03097
G1 X42.098 Y68.555 E.02799
G1 X42.604 Y68.27 E.01821
G1 X43.126 Y68.014 E.01823
G1 X43.966 Y67.674 E.02845
G1 X44.52 Y67.494 E.01825
G1 X45.083 Y67.347 E.01827
G1 X45.967 Y67.181 E.02821
G1 X46.855 Y67.093 E.02799
G1 X47.959 Y67.075 E.03461
G1 X222.763 Y67.077 E5.48298
G1 X223.679 Y67.137 E.02878
G1 X224.315 Y67.225 E.02016
G1 X224.95 Y67.355 E.02031
G1 X225.909 Y67.631 E.0313
G1 X226.835 Y67.997 E.03125
G1 X227.423 Y68.285 E.02054
G1 X227.976 Y68.6 E.01995
G1 X228.798 Y69.161 E.03122
G1 X229.296 Y69.574 E.02031
G1 X229.814 Y70.04 E.02186
G1 X230.214 Y70.455 E.01806
G1 X230.594 Y70.896 E.01826
G1 X230.951 Y71.362 E.01841
G1 X231.283 Y71.85 E.01851
G1 X231.584 Y72.35 E.01832
G1 X231.86 Y72.876 E.01863
G1 X232.106 Y73.417 E.01865
G1 X232.32 Y73.97 E.01859
G1 X232.503 Y74.535 E.01861
G1 X232.653 Y75.109 E.01863
G1 X232.77 Y75.692 E.01865
G1 X232.854 Y76.281 E.01867
G1 X232.904 Y76.876 E.0187
G1 X232.921 Y77.464 E.01846
G1 X232.926 Y202.896 E3.93435
G1 X233.323 Y203.333 F30000
G1 F3000
G1 X36.677 Y203.333 E6.16807
G1 X36.677 Y77.491 E3.94721
M73 P0 R81
G1 X36.719 Y76.519 E.03052
G1 X36.858 Y75.497 E.03235
G1 X37.092 Y74.496 E.03224
G1 X37.419 Y73.523 E.03219
G1 X37.836 Y72.587 E.03215
G1 X38.34 Y71.696 E.03211
G1 X38.925 Y70.857 E.03208
G1 X39.587 Y70.079 E.03206
G1 X40.32 Y69.367 E.03205
G1 X41.12 Y68.727 E.03212
G1 X41.891 Y68.216 E.029
G1 X42.419 Y67.919 E.01901
G1 X42.963 Y67.652 E.01903
G1 X43.831 Y67.3 E.02934
G1 X44.408 Y67.113 E.01905
G1 X44.996 Y66.959 E.01907
G1 X45.911 Y66.788 E.02919
G1 X46.832 Y66.696 E.02904
G1 X47.955 Y66.677 E.03523
G1 X222.776 Y66.68 E5.48348
G1 X223.719 Y66.741 E.02964
G1 X224.382 Y66.834 E.02101
G1 X225.045 Y66.969 E.0212
G1 X226.037 Y67.255 E.03239
G1 X226.996 Y67.633 E.03234
G1 X227.609 Y67.934 E.02143
G1 X228.186 Y68.263 E.02084
G1 X229.037 Y68.843 E.03231
G1 X229.55 Y69.269 E.0209
G1 X230.091 Y69.756 E.02283
G1 X230.507 Y70.187 E.01879
G1 X230.902 Y70.645 E.01897
G1 X231.273 Y71.129 E.01912
G1 X231.618 Y71.636 E.01922
G1 X231.93 Y72.155 E.01902
G1 X232.217 Y72.701 E.01934
G1 X232.472 Y73.264 E.01937
G1 X232.694 Y73.837 E.0193
G1 X232.884 Y74.423 E.01932
G1 X233.039 Y75.02 E.01934
G1 X233.161 Y75.625 E.01936
G1 X233.248 Y76.236 E.01938
G1 X233.301 Y76.853 E.01941
G1 X233.318 Y77.464 E.01917
G1 X233.323 Y203.293 E3.94681
G1 X233.72 Y203.73 F30000
G1 F3000
G1 X36.28 Y203.73 E6.19298
G1 X36.28 Y77.482 E3.95994
M73 P1 R81
G1 X36.324 Y76.483 E.03136
G1 X36.467 Y75.425 E.03351
G1 X36.709 Y74.387 E.03342
G1 X37.048 Y73.379 E.03337
G1 X37.481 Y72.408 E.03333
G1 X38.003 Y71.484 E.0333
G1 X38.61 Y70.614 E.03327
G1 X39.297 Y69.807 E.03325
G1 X40.057 Y69.069 E.03323
G1 X40.886 Y68.406 E.03328
G1 X41.683 Y67.878 E.03001
G1 X42.234 Y67.567 E.01982
G1 X42.801 Y67.289 E.01983
G1 X43.695 Y66.927 E.03023
G1 X44.297 Y66.732 E.01985
G1 X44.909 Y66.571 E.01987
G1 X45.855 Y66.394 E.03017
G1 X46.809 Y66.299 E.03009
G1 X47.952 Y66.28 E.03585
G1 X222.789 Y66.283 E5.48399
G1 X223.759 Y66.346 E.0305
G1 X224.449 Y66.442 E.02187
G1 X225.139 Y66.583 E.02209
G1 X226.165 Y66.879 E.03347
G1 X227.156 Y67.27 E.03343
G1 X227.795 Y67.583 E.02232
G1 X228.397 Y67.926 E.02173
G1 X229.277 Y68.526 E.0334
G1 X229.804 Y68.964 E.02149
G1 X230.368 Y69.471 E.0238
G1 X230.8 Y69.919 E.01953
G1 X231.21 Y70.394 E.01969
G1 X231.595 Y70.896 E.01984
G1 X231.952 Y71.421 E.01993
G1 X232.276 Y71.961 E.01973
G1 X232.573 Y72.527 E.02005
G1 X232.838 Y73.11 E.02009
G1 X233.069 Y73.704 E.02001
G1 X233.265 Y74.312 E.02003
G1 X233.426 Y74.93 E.02005
G1 X233.553 Y75.558 E.02007
G1 X233.643 Y76.191 E.02009
G1 X233.697 Y76.831 E.02012
G1 X233.715 Y77.464 E.01987
G1 X233.72 Y203.69 E3.95926
G1 X234.117 Y204.127 F30000
;TYPE:Outer wall
G1 F3000
G1 X35.883 Y204.127 E6.2179
G1 X35.883 Y77.474 E3.97267
G1 X35.928 Y76.448 E.0322
G1 X36.076 Y75.353 E.03466
G1 X36.327 Y74.279 E.0346
G1 X36.678 Y73.234 E.03456
G1 X37.126 Y72.229 E.03452
G1 X37.667 Y71.272 E.03448
G1 X38.296 Y70.372 E.03445
G1 X39.007 Y69.535 E.03443
G1 X39.794 Y68.771 E.03442
G1 X40.651 Y68.085 E.03444
G1 X41.476 Y67.539 E.03102
G1 X42.049 Y67.216 E.02062
G1 X42.639 Y66.926 E.02063
G1 X43.559 Y66.554 E.03112
G1 X44.185 Y66.351 E.02065
G1 X44.822 Y66.184 E.02067
G1 X45.798 Y66.001 E.03114
G1 X46.786 Y65.902 E.03114
G1 X47.949 Y65.883 E.03647
G1 X222.801 Y65.886 E5.48449
G1 X223.799 Y65.951 E.03137
G1 X224.517 Y66.051 E.02272
G1 X225.234 Y66.197 E.02297
G1 X226.293 Y66.502 E.03456
G1 X227.317 Y66.906 E.03452
G1 X227.981 Y67.232 E.02321
G1 X228.607 Y67.589 E.02261
G1 X229.516 Y68.208 E.03448
G1 X230.057 Y68.658 E.02209
G1 X230.645 Y69.186 E.02477
G1 X231.093 Y69.651 E.02026
G1 X231.518 Y70.143 E.0204
G1 X231.916 Y70.663 E.02055
G1 X232.287 Y71.207 E.02064
G1 X232.622 Y71.766 E.02044
G1 X232.93 Y72.352 E.02075
G1 X233.204 Y72.956 E.0208
G1 X233.443 Y73.571 E.02072
G1 X233.646 Y74.201 E.02073
G1 X233.813 Y74.841 E.02076
G1 X233.944 Y75.49 E.02078
G1 X234.037 Y76.146 E.02079
G1 X234.094 Y76.808 E.02083
G1 X234.112 Y77.464 E.02058
G1 X234.117 Y204.087 E3.97172
G1 E-.56 F1800
;WIPE_START
G1 F3000
G1 X233.117 Y204.087 E-.24
;WIPE_END
G1 X229.564 Y197.332 Z.6 F30000
G1 X216.575 Y172.634 Z.6
G1 Z.2
G1 E.8 F1800
;TYPE:Inner wall
G1 F3000
G1 X216.981 Y172.374 E.01513
G1 X217.566 Y172.074 E.02061
G1 X218.175 Y171.829 E.02061
G1 X218.805 Y171.643 E.02061
G1 X219.449 Y171.515 E.02061
G1 X220.111 Y171.448 E.02085
G1 X221.056 Y171.461 E.02967
G1 X221.739 Y171.547 E.02159
G1 X222.38 Y171.693 E.02061
G1 X223.004 Y171.898 E.02061
G1 X223.607 Y172.159 E.02061
G1 X224.182 Y172.476 E.02061
G1 X224.726 Y172.845 E.02061
G1 X225.233 Y173.262 E.02061
G1 X225.699 Y173.725 E.02061
G1 X226.12 Y174.23 E.02061
G1 X226.493 Y174.771 E.02061
G1 X226.816 Y175.351 E.02085
G1 X227.179 Y176.225 E.02967
G1 X227.37 Y176.886 E.02159
G1 X227.49 Y177.532 E.02061
G1 X227.549 Y178.186 E.02061
G1 X227.548 Y178.843 E.02061
G1 X227.485 Y179.497 E.02061
G1 X227.362 Y180.142 E.02061
G1 X227.076 Y181.052 E.02989
G1 X226.797 Y181.681 E.02161
G1 X226.474 Y182.253 E.02061
G1 X226.099 Y182.793 E.02061
G1 X225.676 Y183.295 E.02061
G1 X225.207 Y183.756 E.02061
G1 X224.455 Y184.341 E.02989
G1 X223.867 Y184.7 E.02161
G1 X223.276 Y184.987 E.0206
G1 X222.661 Y185.217 E.02061
G1 X222.027 Y185.389 E.0206
G1 X221.38 Y185.502 E.02061
G1 X220.725 Y185.554 E.02061
G1 X220.06 Y185.544 E.02085
G1 X219.123 Y185.421 E.02967
G1 X218.454 Y185.256 E.02159
G1 X217.835 Y185.037 E.02061
G1 X217.239 Y184.761 E.02061
G1 X216.671 Y184.431 E.02061
G1 X216.136 Y184.05 E.02061
G1 X215.638 Y183.621 E.0206
G1 X215.183 Y183.147 E.02061
G1 X214.774 Y182.633 E.02061
G1 X214.271 Y181.824 E.02989
G1 X213.975 Y181.202 E.02161
G1 X213.751 Y180.584 E.02061
G1 X213.587 Y179.948 E.02061
G1 X213.482 Y179.299 E.02061
G1 X213.437 Y178.644 E.02061
G1 X213.454 Y177.987 E.02061
G1 X213.532 Y177.335 E.02061
G1 X213.67 Y176.693 E.02061
G1 X213.871 Y176.059 E.02085
G1 X214.249 Y175.213 E.02907
G1 X214.607 Y174.603 E.02218
G1 X214.995 Y174.073 E.02061
G1 X215.43 Y173.58 E.0206
G1 X215.909 Y173.131 E.02061
G1 X216.427 Y172.727 E.02061
G1 X216.541 Y172.655 E.00422
G1 X216.789 Y172.966 F30000
G1 F3000
G1 X217.192 Y172.711 E.01495
G1 X217.744 Y172.429 E.01945
G1 X218.32 Y172.199 E.01945
G1 X218.915 Y172.024 E.01945
G1 X219.523 Y171.905 E.01945
G1 X220.147 Y171.843 E.01968
G1 X221.047 Y171.858 E.02823
G1 X221.684 Y171.941 E.02015
G1 X222.288 Y172.079 E.01945
G1 X222.877 Y172.274 E.01945
G1 X223.445 Y172.522 E.01945
G1 X223.988 Y172.822 E.01945
G1 X224.5 Y173.171 E.01945
G1 X224.978 Y173.566 E.01945
G1 X225.417 Y174.004 E.01945
G1 X225.813 Y174.481 E.01945
G1 X226.163 Y174.993 E.01945
G1 X226.468 Y175.541 E.01968
G1 X226.811 Y176.373 E.02823
G1 X226.987 Y176.991 E.02015
G1 X227.099 Y177.601 E.01945
G1 X227.154 Y178.219 E.01945
G1 X227.151 Y178.839 E.01945
G1 X227.09 Y179.456 E.01945
G1 X226.972 Y180.064 E.01945
G1 X226.699 Y180.929 E.02844
G1 X226.436 Y181.516 E.02016
G1 X226.13 Y182.055 E.01945
G1 X225.775 Y182.563 E.01945
G1 X225.374 Y183.036 E.01945
G1 X224.931 Y183.47 E.01945
G1 X224.214 Y184.025 E.02844
G1 X223.665 Y184.359 E.02016
G1 X223.106 Y184.628 E.01945
G1 X222.525 Y184.844 E.01945
G1 X221.927 Y185.005 E.01945
G1 X221.315 Y185.11 E.01945
G1 X220.697 Y185.157 E.01945
G1 X220.07 Y185.147 E.01968
G1 X219.178 Y185.028 E.02822
G1 X218.555 Y184.872 E.02015
G1 X217.971 Y184.664 E.01945
G1 X217.409 Y184.402 E.01945
G1 X216.873 Y184.09 E.01945
G1 X216.369 Y183.729 E.01945
G1 X215.901 Y183.322 E.01945
G1 X215.472 Y182.874 E.01945
G1 X215.087 Y182.388 E.01945
G1 X214.61 Y181.617 E.02844
G1 X214.335 Y181.036 E.02016
G1 X214.126 Y180.452 E.01945
G1 X213.972 Y179.852 E.01945
G1 X213.874 Y179.24 E.01945
G1 X213.834 Y178.621 E.01945
G1 X213.851 Y178.001 E.01945
G1 X213.926 Y177.386 E.01945
G1 X214.058 Y176.78 E.01945
G1 X214.248 Y176.182 E.01968
G1 X214.61 Y175.379 E.02763
G1 X214.946 Y174.81 E.02074
G1 X215.313 Y174.31 E.01945
G1 X215.725 Y173.846 E.01945
G1 X216.178 Y173.423 E.01945
G1 X216.668 Y173.043 E.01945
G1 X216.755 Y172.988 E.00324
G1 X217.002 Y173.3 F30000
G1 F3000
G1 X217.402 Y173.048 E.01482
G1 X217.922 Y172.784 E.01829
G1 X218.464 Y172.569 E.01829
G1 X219.024 Y172.406 E.01829
G1 X219.596 Y172.296 E.01829
G1 X220.184 Y172.239 E.01851
G1 X221.038 Y172.255 E.02678
G1 X221.629 Y172.334 E.01871
G1 X222.197 Y172.466 E.01829
G1 X222.75 Y172.65 E.01829
G1 X223.284 Y172.885 E.01829
G1 X223.793 Y173.168 E.01829
G1 X224.274 Y173.498 E.01829
G1 X224.723 Y173.871 E.01829
G1 X225.134 Y174.284 E.01829
G1 X225.506 Y174.733 E.01829
G1 X225.834 Y175.215 E.01829
G1 X226.119 Y175.732 E.01851
G1 X226.442 Y176.522 E.02678
G1 X226.604 Y177.096 E.01871
G1 X226.708 Y177.67 E.01829
G1 X226.758 Y178.251 E.01829
G1 X226.754 Y178.834 E.01829
G1 X226.695 Y179.414 E.01829
G1 X226.583 Y179.986 E.01829
G1 X226.321 Y180.806 E.02699
G1 X226.076 Y181.35 E.01871
G1 X225.786 Y181.856 E.01829
G1 X225.451 Y182.333 E.01829
G1 X225.073 Y182.777 E.01829
G1 X224.655 Y183.184 E.01829
G1 X223.974 Y183.709 E.027
G1 X223.462 Y184.017 E.01872
G1 X222.937 Y184.269 E.01829
G1 X222.389 Y184.471 E.01829
G1 X221.826 Y184.621 E.01829
G1 X221.251 Y184.718 E.01829
G1 X220.67 Y184.761 E.01829
G1 X220.08 Y184.75 E.01851
G1 X219.233 Y184.635 E.02678
G1 X218.656 Y184.487 E.01871
G1 X218.107 Y184.29 E.01829
G1 X217.579 Y184.043 E.01829
G1 X217.076 Y183.748 E.01829
G1 X216.602 Y183.407 E.01829
G1 X216.163 Y183.024 E.01829
G1 X215.761 Y182.602 E.01829
G1 X215.4 Y182.144 E.01829
G1 X214.949 Y181.411 E.027
G1 X214.696 Y180.87 E.01871
G1 X214.501 Y180.321 E.01829
G1 X214.357 Y179.756 E.01829
G1 X214.267 Y179.18 E.01829
