; HEADER_BLOCK_START
; generated by OrcaSlicer 2.3.1-beta on 2025-09-16 at 01:29:45
; total layer number: 40
; filament_density: 1.02,1.27,1.02,1.24,1.24,1.24
; filament_diameter: 1.75,1.75,1.75,1.75,1.75,1.75
; max_z_height: 8.00
; HEADER_BLOCK_END

; THUMBNAIL_BLOCK_START

;
; THUMBNAIL_BLOCK_END

; external perimeters extrusion width = 0.42mm
; perimeters extrusion width = 0.45mm
; infill extrusion width = 0.45mm
; solid infill extrusion width = 0.42mm
; top infill extrusion width = 0.42mm
; first layer extrusion width = 0.44mm

; EXECUTABLE_BLOCK_START
EXCLUDE_OBJECT_DEFINE NAME=Ali_Box_-_bracket_3_.step_id_0_copy_0 CENTER=135,135 POLYGON=[[30.75,109.646],[30.7556,109.496],[30.7723,109.348],[30.8001,109.201],[30.8389,109.056],[30.8883,108.915],[30.9481,108.778],[31.0179,108.646],[31.0975,108.519],[31.1863,108.399],[31.2839,108.285],[31.3896,108.18],[31.503,108.082],[31.6234,107.993],[31.75,107.914],[31.8822,107.844],[32.0193,107.784],[32.1605,107.734],[32.305,107.696],[32.4519,107.668],[32.6005,107.651],[32.75,107.646],[237.25,107.646],[237.399,107.651],[237.548,107.668],[237.695,107.696],[237.84,107.734],[237.981,107.784],[238.118,107.844],[238.25,107.914],[238.377,107.993],[238.497,108.082],[238.61,108.18],[238.716,108.285],[238.814,108.399],[238.902,108.519],[238.982,108.646],[239.052,108.778],[239.112,108.915],[239.161,109.056],[239.2,109.201],[239.228,109.348],[239.244,109.496],[239.25,109.646],[239.25,116.463],[239.244,116.616],[239.226,116.769],[239.197,116.92],[239.156,117.068],[239.104,117.212],[239.041,117.353],[238.968,117.487],[238.884,117.616],[238.79,117.738],[238.688,117.853],[238.577,117.959],[186.646,160.802],[186.549,160.878],[186.419,160.977],[186.318,161.051],[186.186,161.143],[186.079,161.215],[185.946,161.299],[185.833,161.368],[185.7,161.445],[185.582,161.511],[185.448,161.581],[185.324,161.643],[185.19,161.707],[185.062,161.765],[184.928,161.822],[184.795,161.875],[184.661,161.926],[184.523,161.975],[184.391,162.019],[184.247,162.063],[184.116,162.101],[183.968,162.14],[183.839,162.172],[183.687,162.205],[183.559,162.231],[183.402,162.259],[183.276,162.279],[183.116,162.301],[182.992,162.315],[182.828,162.33],[182.707,162.339],[182.539,162.348],[182.421,162.352],[182.25,162.354],[107.75,162.354],[107.556,162.352],[107.461,162.348],[107.27,162.338],[107.172,162.33],[106.984,162.312],[106.884,162.301],[106.7,162.275],[106.598,162.259],[106.417,162.226],[106.313,162.205],[106.136,162.166],[106.032,162.14],[105.859,162.094],[105.753,162.063],[105.584,162.011],[105.477,161.975],[105.313,161.917],[105.205,161.875],[105.046,161.811],[104.938,161.765],[104.784,161.695],[104.676,161.643],[104.527,161.568],[104.418,161.511],[104.275,161.431],[104.167,161.368],[31.654,117.263],[31.5298,117.175],[31.4127,117.077],[31.3033,116.971],[31.2024,116.857],[31.1104,116.735],[31.028,116.607],[30.9555,116.473],[30.8935,116.334],[30.8422,116.19],[30.802,116.043],[30.7732,115.894],[30.7558,115.742],[30.75,115.59],[30.75,109.646]]
M73 P0 R35
M106 S0
M106 P2 S0
;TYPE:Custom
PRINT_START BED=100 HOTEND=260 CHAMBER=60 EXTRUDER=0
SET_PRINT_STATS_INFO TOTAL_LAYER=40
M83
M140 S100
M104 S260
M141 S60
G4 P3000
T0
G1 X108.000 Y1 F30000
G0 Z0.2 F600
;G1 E3 F1800
G90
M83
G0 X128 E8  F904.991
G0 X133 E.3742  F1508.32
G0 X138 E.3742  F6033.27
G0 X143 E.3742  F1508.32
G0 X148 E.3742  F6033.27
G0 X153 E.3742  F1508.32
G91
G1 X1 Z-0.300
G1 X4
G1 Z1 F1200
G90
M400
G1 X108.000 Y2.5 F30000
G0 Z0.2 F600
M83
G0 X128 E10  F904.991
G0 X133 E.3742  F1508.32
G0 X138 E.3742  F6033.27
G0 X143 E.3742  F1508.32
G0 X148 E.3742  F6033.27
G0 X153 E.3742  F1508.32
G91
G1 X1 Z-0.300
G1 X4
G1 Z1 F1200
G90
M400
G1 Z1 F600
M106 P3 S178
G90
G21
M83 ; use relative distances for extrusion
; Filament gcode
SET_PRESSURE_ADVANCE ADVANCE=0.025; Override pressure advance value
T0
M106 P2 S0
;LAYER_CHANGE
;Z:0.2
;HEIGHT:0.2
;BEFORE_LAYER_CHANGE
;0.2
G92 E0

G1 E-.8 F1800
 ; timelapse without wipe tower
TIMELAPSE_TAKE_FRAME

G92 E0
SET_PRINT_STATS_INFO CURRENT_LAYER=1
;_SET_FAN_SPEED_CHANGING_LAYER
SET_VELOCITY_LIMIT ACCEL=500
G1 X56.973 Y105.55 F30000
G1 Z.6
G1 Z.2
G1 E.8 F1800
;TYPE:Skirt
;WIDTH:0.44
G1 F3000
G1 X237.365 Y105.55 E5.65827
G1 X237.989 Y105.616 E.01968
G1 X238.625 Y105.786 E.02065
G1 X239.397 Y106.156 E.02687
G1 X239.905 Y106.525 E.01968
G1 X240.371 Y106.991 E.02065
G1 X240.739 Y107.498 E.01968
G1 X241.11 Y108.271 E.02686
G1 X241.28 Y108.907 E.02066
G1 X241.349 Y109.646 E.02328
G1 X241.336 Y116.77 E.22345
G1 X241.237 Y117.406 E.02021
G1 X240.962 Y118.198 E.02629
G1 X240.262 Y119.24 E.03935
G1 X187.893 Y162.491 E2.13042
G1 X186.647 Y163.32 E.04696
G1 X185.366 Y163.902 E.04413
G1 X184.2 Y164.241 E.03807
G1 X182.737 Y164.439 E.04633
G1 X107.623 Y164.451 E2.35606
G1 X106.294 Y164.335 E.04184
G1 X105.041 Y164.04 E.04038
G1 X103.989 Y163.639 E.03531
G1 X102.972 Y163.097 E.03615
G1 X30.498 Y119.013 E2.66075
G1 X29.825 Y118.458 E.02737
G1 X29.164 Y117.572 E.03468
G1 X28.772 Y116.572 E.03369
G1 X28.655 Y115.707 E.02738
G1 X28.654 Y109.531 E.19374
G1 X28.72 Y108.907 E.01968
G1 X28.962 Y108.085 E.02686
G1 X29.504 Y107.145 E.03404
G1 X29.924 Y106.679 E.01968
G1 X30.436 Y106.265 E.02065
G1 X30.979 Y105.951 E.01968
G1 X31.594 Y105.715 E.02065
G1 X32.635 Y105.55 E.03306
G1 X56.933 Y105.55 E.76213
; printing object Ali Box - bracket (3).step id:0 copy 0
G1 E-.56 F1800
;WIPE_START
G1 F3000
G1 X57.933 Y105.55 E-.24
;WIPE_END
EXCLUDE_OBJECT_START NAME=Ali_Box_-_bracket_3_.step_id_0_copy_0
G1 X65.551 Y106.013 Z.6 F30000
G1 X237.558 Y116.459 Z.6
G1 Z.2
G1 E.8 F1800
;TYPE:Inner wall
;WIDTH:0.439999
G1 F3000
G1 X237.461 Y116.689 E.00783
G1 X189.431 Y153.112 E1.89072
G1 X189.052 Y153.482 E.01661
G1 X188.477 Y154.122 E.027
G1 X188.082 Y154.752 E.02331
G1 X187.983 Y154.062 E.02188
G1 X187.703 Y153.163 E.02954
G1 X187.482 Y152.707 E.01588
G1 X186.968 Y151.849 E.03138
G1 X186.252 Y151.05 E.03365
G1 X185.379 Y150.38 E.03451
G1 X184.545 Y149.944 E.02954
G1 X184.274 Y149.837 E.00914
G1 X183.096 Y149.537 E.03811
G1 X182.02 Y149.481 E.03381
G1 X180.933 Y149.627 E.03438
G1 X179.786 Y150.018 E.03801
G1 X178.836 Y150.571 E.03449
G1 X177.914 Y151.388 E.03864
G1 X177.189 Y152.365 E.03815
G1 X176.933 Y152.879 E.01803
G1 X176.933 Y127.226 E.80463
G1 X176.831 Y126.264 E.03034
G1 X176.771 Y125.98 E.0091
G1 X176.393 Y124.893 E.03612
G1 X175.931 Y124.09 E.02904
G1 X175.27 Y123.286 E.03264
G1 X163.561 Y111.577 E.51943
G1 X162.812 Y110.969 E.03025
G1 X161.837 Y110.426 E.03499
G1 X161.244 Y110.211 E.01981
;WIDTH:0.479861
G1 X160.931 Y110.071 E.01182
;WIDTH:0.519723
G1 X160.619 Y109.931 E.0129
G1 X160.383 Y109.91 E.00892
;WIDTH:0.50939
G1 X159.597 Y109.875 E.029
;WIDTH:0.497208
G1 X130.075 Y109.878 E1.0594
;WIDTH:0.524622
G1 X129.252 Y109.945 E.03143
M73 P1 R35
G1 X129.161 Y110.011 E.00427
;WIDTH:0.497979
G1 X129.07 Y110.077 E.00404
;WIDTH:0.471336
G1 X127.997 Y110.503 E.03906
;WIDTH:0.439999
G1 X127.195 Y110.965 E.02904
G1 X126.391 Y111.625 E.03264
G1 X114.678 Y123.338 E.51957
G1 X114.069 Y124.09 E.03034
G1 X113.911 Y124.333 E.0091
G1 X113.409 Y125.37 E.03612
G1 X113.169 Y126.264 E.02904
G1 X113.067 Y127.299 E.03264
G1 X113.067 Y152.859 E.80171
G1 X112.468 Y151.849 E.03685
G1 X111.752 Y151.05 E.03365
G1 X110.879 Y150.38 E.03451
G1 X109.774 Y149.837 E.03864
G1 X108.596 Y149.537 E.03811
G1 X107.52 Y149.481 E.03381
G1 X106.433 Y149.627 E.03438
G1 X105.286 Y150.018 E.03801
G1 X104.336 Y150.571 E.03449
G1 X103.616 Y151.178 E.02954
G1 X103.414 Y151.388 E.00914
G1 X102.689 Y152.365 E.03815
G1 X102.231 Y153.335 E.03364
G1 X102.069 Y153.895 E.01831
G1 X101.951 Y154.399 E.01621
G1 X101.904 Y154.962 E.01775
G1 X101.285 Y154.105 E.03316
G1 X100.471 Y153.348 E.03488
G1 X99.98 Y153.015 E.0186
G1 X32.699 Y115.924 E2.40981
G1 X32.466 Y115.696 E.01023
G1 X32.433 Y115.51 E.00593
G1 X32.433 Y109.746 E.18081
G1 X32.502 Y109.466 E.00904
G1 X32.625 Y109.366 E.00496
G1 X32.864 Y109.328 E.00759
G1 X128.061 Y109.333 E2.986
;WIDTH:0.471336
G1 X128.96 Y109.383 E.03046
;WIDTH:0.496603
G1 X129.123 Y109.423 E.006
;WIDTH:0.521869
G1 X129.285 Y109.463 E.00634
G1 X130.181 Y109.424 E.03393
;WIDTH:0.497208
G1 X159.679 Y109.422 E1.05853
;WIDTH:0.519723
G1 X160.674 Y109.461 E.03752
G1 X161.011 Y109.398 E.0129
;WIDTH:0.479861
G1 X161.347 Y109.334 E.01182
;WIDTH:0.439999
G1 X237.27 Y109.338 E2.38141
G1 X237.459 Y109.436 E.00669
G1 X237.558 Y109.626 E.0067
G1 X237.558 Y116.419 E.21308
G1 X237.888 Y116.767 F30000
G1 F3000
G1 X237.734 Y116.981 E.00826
G1 X189.556 Y153.531 E1.89682
G1 X188.94 Y154.171 E.02787
G1 X188.644 Y154.603 E.01642
G1 X188.253 Y155.266 E.02413
G1 X188.035 Y155.874 E.02028
;WIDTH:0.423072
G1 X187.939 Y156.367 E.01508
;WIDTH:0.397565
G1 X187.793 Y156.946 E.01674
G1 X187.577 Y157.571 E.01853
;WIDTH:0.394716
G1 X187.244 Y158.246 E.02089
;WIDTH:0.396548
G1 X186.982 Y158.653 E.01355
G1 X186.327 Y159.434 E.02846
;WIDTH:0.398466
G1 X185.843 Y159.864 E.01817
G1 X185.405 Y160.187 E.0153
;WIDTH:0.392846
G1 X184.679 Y160.59 E.02294
;WIDTH:0.398145
G1 X184.191 Y160.784 E.01475
G1 X183.33 Y161.024 E.02508
;WIDTH:0.398734
G1 X182.815 Y161.091 E.01459
G1 X182.139 Y161.119 E.01903
;WIDTH:0.398596
G1 X181.5 Y161.071 E.018
G1 X180.98 Y160.984 E.01479
;WIDTH:0.397299
G1 X180.458 Y160.835 E.01521
G1 X179.897 Y160.624 E.01677
;WIDTH:0.394094
G1 X179.138 Y160.216 E.02392
;WIDTH:0.398919
G1 X178.688 Y159.888 E.01566
G1 X178.09 Y159.353 E.02257
;WIDTH:0.396794
G1 X177.688 Y158.884 E.01726
G1 X177.347 Y158.392 E.01674
;WIDTH:0.395809
G1 X176.921 Y157.572 E.02576
;WIDTH:0.397595
G1 X176.719 Y156.987 E.01733
G1 X176.587 Y156.467 E.01503
;WIDTH:0.397052
G1 X176.514 Y155.939 E.01491
G1 X176.478 Y155.322 E.01729
;WIDTH:0.429846
G1 X176.523 Y154.189 E.03467
;WIDTH:0.439999
G1 X176.536 Y153.363 E.02589
G1 X176.536 Y127.239 E.81942
G1 X176.393 Y126.103 E.03591
G1 X176.044 Y125.082 E.03385
G1 X175.622 Y124.34 E.02677
G1 X174.99 Y123.567 E.03134
G1 X163.295 Y111.872 E.51876
G1 X162.613 Y111.313 E.02766
G1 X161.695 Y110.797 E.03304
G1 X161.151 Y110.597 E.01818
;WIDTH:0.47075
G1 X160.83 Y110.492 E.01141
;WIDTH:0.5015
G1 X160.51 Y110.386 E.01223
G1 X160.347 Y110.367 E.00594
;WIDTH:0.493529
G1 X159.597 Y110.321 E.02675
;WIDTH:0.484131
G1 X130.105 Y110.326 E1.02786
;WIDTH:0.503156
G1 X129.378 Y110.405 E.02659
G1 X129.201 Y110.481 E.00699
;WIDTH:0.464173
G1 X128.187 Y110.852 E.03594
;WIDTH:0.439999
G1 X127.445 Y111.273 E.02677
G1 X126.672 Y111.906 E.03134
G1 X114.968 Y123.61 E.51917
G1 X114.265 Y124.514 E.03591
G1 X113.79 Y125.483 E.03385
G1 X113.564 Y126.305 E.02677
G1 X113.464 Y127.299 E.03134
G1 X113.464 Y153.183 E.81188
G1 X113.491 Y154.355 E.03675
;WIDTH:0.418829
G1 X113.52 Y155.407 E.03126
;WIDTH:0.398435
G1 X113.483 Y155.958 E.01551
G1 X113.39 Y156.58 E.01766
;WIDTH:0.392883
G1 X113.14 Y157.422 E.02427
;WIDTH:0.397443
G1 X112.93 Y157.89 E.01439
G1 X112.58 Y158.51 E.01993
;WIDTH:0.397762
G1 X112.159 Y159.071 E.01966
G1 X111.822 Y159.445 E.01411
;WIDTH:0.394042
G1 X111.116 Y160.042 E.02564
;WIDTH:0.396589
G1 X110.704 Y160.309 E.01371
G1 X109.973 Y160.679 E.02288
;WIDTH:0.398633
G1 X109.399 Y160.879 E.0171
G1 X108.819 Y161.023 E.0168
;WIDTH:0.393731
G1 X107.889 Y161.124 E.02591
;WIDTH:0.39731
G1 X107.403 Y161.111 E.01362
G1 X106.806 Y161.044 E.01679
;WIDTH:0.396531
G1 X106.22 Y160.916 E.01677
G1 X105.336 Y160.595 E.02627
;WIDTH:0.395198
G1 X104.504 Y160.121 E.02664
;WIDTH:0.398083
G1 X103.947 Y159.689 E.01977
G1 X103.582 Y159.347 E.01404
;WIDTH:0.393109
G1 X103.015 Y158.657 E.0247
;WIDTH:0.398679
G1 X102.744 Y158.215 E.01457
G1 X102.343 Y157.369 E.02632
;WIDTH:0.397268
G1 X102.191 Y156.893 E.014
;WIDTH:0.413289
G1 X102.052 Y156.314 E.01741
;WIDTH:0.439999
G1 X101.83 Y155.68 E.02107
G1 X101.647 Y155.29 E.01349
G1 X101.01 Y154.392 E.03454
G1 X100.244 Y153.674 E.03293
G1 X99.789 Y153.363 E.0173
G1 X32.549 Y116.295 E2.40833
G1 X32.236 Y116.066 E.01216
G1 X32.097 Y115.858 E.00783
G1 X32.036 Y115.531 E.01045
G1 X32.036 Y109.677 E.18362
G1 X32.151 Y109.271 E.01325
G1 X32.419 Y109.022 E.01147
G1 X32.833 Y108.931 E.01329
G1 X128.061 Y108.936 E2.98698
;WIDTH:0.471578
G1 X128.673 Y108.964 E.02074
;WIDTH:0.503156
G1 X129.285 Y108.993 E.02227
G1 X130.181 Y108.976 E.03258
;WIDTH:0.484131
G1 X159.679 Y108.976 E1.02806
;WIDTH:0.5015
G1 X160.674 Y108.993 E.03607
G1 X161.011 Y108.965 E.01223
;WIDTH:0.47075
G1 X161.347 Y108.937 E.01141
;WIDTH:0.439999
G1 X237.404 Y108.941 E2.38561
G1 X237.74 Y109.155 E.0125
G1 X237.898 Y109.391 E.00891
G1 X237.955 Y109.626 E.00758
G1 X237.955 Y116.404 E.2126
G1 X237.895 Y116.728 E.01034
G1 X238.279 Y116.841 F30000
G1 F3000
G1 X238.259 Y116.918 E.00248
G1 X238.006 Y117.273 E.01367
G1 X189.842 Y153.807 E1.89617
G1 X189.226 Y154.447 E.02787
M73 P1 R34
G1 X188.981 Y154.814 E.01385
G1 X188.622 Y155.412 E.02188
G1 X188.39 Y156.015 E.02027
;WIDTH:0.426941
G1 X188.287 Y156.453 E.01365
;WIDTH:0.407265
G1 X188.134 Y157.06 E.018
G1 X187.975 Y157.541 E.01459
;WIDTH:0.406961
G1 X187.774 Y158.004 E.01452
G1 X187.538 Y158.45 E.0145
;WIDTH:0.40648
G1 X187.265 Y158.873 E.01448
;WIDTH:0.406589
G1 X186.871 Y159.374 E.01829
G1 X186.453 Y159.813 E.01742
;WIDTH:0.407959
G1 X186.056 Y160.154 E.01508
G1 X185.65 Y160.453 E.01454
;WIDTH:0.407164
G1 X185.218 Y160.714 E.01453
G1 X184.768 Y160.941 E.01451
;WIDTH:0.407711
G1 X184.299 Y161.128 E.01455
G1 X183.817 Y161.277 E.01453
;WIDTH:0.406868
G1 X183.324 Y161.387 E.0145
;WIDTH:0.408166
G1 X182.824 Y161.451 E.01455
G1 X181.954 Y161.474 E.02512
;WIDTH:0.40806
G1 X181.439 Y161.426 E.01493
G1 X180.846 Y161.315 E.0174
;WIDTH:0.407059
G1 X180.33 Y161.171 E.01541
G1 X179.762 Y160.955 E.01747
;WIDTH:0.407161
G1 X179.294 Y160.72 E.01506
G1 X178.862 Y160.461 E.01451
;WIDTH:0.408308
G1 X178.454 Y160.162 E.01458
G1 X178.071 Y159.835 E.01456
;WIDTH:0.405985
G1 X177.716 Y159.476 E.01447
;WIDTH:0.40667
G1 X177.394 Y159.088 E.01448
G1 X177.047 Y158.589 E.01747
;WIDTH:0.407288
G1 X176.74 Y158.033 E.01828
G1 X176.53 Y157.554 E.01505
G1 X176.37 Y157.075 E.01453
G1 X176.231 Y156.48 E.0176
;WIDTH:0.406869
G1 X176.155 Y155.958 E.01514
G1 X176.121 Y155.322 E.01832
;WIDTH:0.432166
G1 X176.135 Y154.189 E.03485
;WIDTH:0.439999
G1 X176.139 Y127.265 E.8445
G1 X176.016 Y126.226 E.03281
G1 X175.695 Y125.272 E.03157
G1 X175.314 Y124.59 E.0245
M73 P2 R34
G1 X174.709 Y123.848 E.03003
G1 X163.028 Y112.167 E.51813
G1 X162.415 Y111.657 E.02503
G1 X161.553 Y111.168 E.03109
G1 X161.058 Y110.983 E.01655
;WIDTH:0.461807
G1 X160.312 Y110.801 E.02541
G1 X159.597 Y110.748 E.02375
;WIDTH:0.457979
G1 X130.133 Y110.754 E.96601
G1 X129.329 Y110.875 E.02666
;WIDTH:0.449847
G1 X128.376 Y111.201 E.03238
;WIDTH:0.439999
G1 X127.694 Y111.582 E.0245
G1 X126.952 Y112.187 E.03003
G1 X115.267 Y123.872 E.51837
G1 X114.619 Y124.694 E.03281
G1 X114.171 Y125.595 E.03157
G1 X113.959 Y126.347 E.0245
G1 X113.861 Y127.299 E.03003
G1 X113.87 Y154.355 E.84862
;WIDTH:0.423668
G1 X113.875 Y155.426 E.03222
;WIDTH:0.407936
G1 X113.839 Y156.013 E.01695
G1 X113.748 Y156.614 E.01753
;WIDTH:0.407242
G1 X113.616 Y157.121 E.01508
G1 X113.452 Y157.599 E.01454
G1 X113.246 Y158.061 E.01456
G1 X113.005 Y158.506 E.01455
G1 X112.726 Y158.928 E.01456
;WIDTH:0.407417
G1 X112.415 Y159.326 E.01456
G1 X112.073 Y159.698 E.01455
;WIDTH:0.408376
G1 X111.698 Y160.038 E.01461
G1 X111.3 Y160.349 E.01459
;WIDTH:0.406511
G1 X110.875 Y160.624 E.01453
G1 X110.43 Y160.864 E.01452
;WIDTH:0.406006
G1 X109.967 Y161.066 E.0145
;WIDTH:0.408089
G1 X109.488 Y161.228 E.01459
G1 X108.874 Y161.373 E.01819
;WIDTH:0.408252
G1 X108.367 Y161.449 E.0148
G1 X107.868 Y161.481 E.01443
;WIDTH:0.407067
G1 X107.363 Y161.468 E.01454
G1 X106.73 Y161.395 E.01831
;WIDTH:0.406466
G1 X106.135 Y161.265 E.01748
G1 X105.636 Y161.105 E.01506
;WIDTH:0.406057
G1 X105.17 Y160.911 E.01449
;WIDTH:0.405582
G1 X104.608 Y160.613 E.01823
;WIDTH:0.407287
G1 X104.1 Y160.276 E.01754
;WIDTH:0.407664
G1 X103.693 Y159.945 E.0151
G1 X103.327 Y159.596 E.01456
;WIDTH:0.407298
G1 X102.994 Y159.216 E.01456
G1 X102.69 Y158.812 E.01455
;WIDTH:0.408123
G1 X102.424 Y158.381 E.0146
G1 X102.192 Y157.933 E.01458
;WIDTH:0.406601
G1 X101.998 Y157.466 E.01452
;WIDTH:0.407035
G1 X101.843 Y156.983 E.01458
;WIDTH:0.419394
