; HEADER_BLOCK_START
; generated by OrcaSlicer 2.3.1-beta on 2025-09-17 at 20:41:10
; total layer number: 20
; filament_density: 1.02,1.02,1.02,1.24,1.24,1.24
; filament_diameter: 1.75,1.75,1.75,1.75,1.75,1.75
; max_z_height: 4.00
; HEADER_BLOCK_END

; THUMBNAIL_BLOCK_START

;
; THUMBNAIL_BLOCK_END

; external perimeters extrusion width = 0.42mm
; perimeters extrusion width = 0.45mm
; infill extrusion width = 0.45mm
; solid infill extrusion width = 0.42mm
; top infill extrusion width = 0.42mm
; first layer extrusion width = 0.44mm

; external perimeters extrusion width = 0.42mm
; perimeters extrusion width = 0.45mm
; infill extrusion width = 0.45mm
; solid infill extrusion width = 0.42mm
; top infill extrusion width = 0.42mm
; first layer extrusion width = 0.44mm

; EXECUTABLE_BLOCK_START
EXCLUDE_OBJECT_DEFINE NAME=Ali_Box_1_id_0_copy_0 CENTER=135,135 POLYGON=[[4,97],[4.01141,96.4766],[4.04566,95.9541],[4.10265,95.4337],[4.1823,94.9162],[4.28445,94.4027],[4.40889,93.8942],[4.55539,93.3915],[4.72369,92.8958],[4.91344,92.4078],[5.12431,91.9286],[5.35587,91.459],[5.6077,91],[5.8793,90.5524],[6.17018,90.1171],[6.47977,89.6949],[6.80746,89.2865],[7.15266,88.8929],[7.51472,88.5147],[7.89291,88.1527],[8.28655,87.8075],[8.69486,87.4798],[9.11709,87.1702],[9.55241,86.8793],[9.99999,86.6077],[10.459,86.3559],[10.9286,86.1243],[11.4078,85.9134],[11.8958,85.7237],[12.3915,85.5554],[12.8942,85.4089],[13.4027,85.2844],[13.9162,85.1823],[14.4337,85.1027],[14.9541,85.0457],[15.4766,85.0114],[16,85],[254,85],[254.523,85.0114],[255.046,85.0457],[255.566,85.1027],[256.084,85.1823],[256.597,85.2844],[257.106,85.4089],[257.608,85.5554],[258.104,85.7237],[258.592,85.9134],[259.071,86.1243],[259.541,86.3559],[260,86.6077],[260.448,86.8793],[260.883,87.1702],[261.305,87.4798],[261.713,87.8075],[262.107,88.1527],[262.485,88.5147],[262.847,88.8929],[263.193,89.2865],[263.52,89.6949],[263.83,90.1171],[264.121,90.5524],[264.392,91],[264.644,91.459],[264.876,91.9286],[265.087,92.4078],[265.276,92.8958],[265.445,93.3915],[265.591,93.8942],[265.716,94.4027],[265.818,94.9162],[265.897,95.4337],[265.954,95.9541],[265.989,96.4766],[266,97],[266,183],[265.998,183.087],[265.992,183.174],[265.983,183.261],[265.97,183.347],[265.953,183.433],[265.932,183.518],[265.907,183.601],[265.879,183.684],[265.848,183.765],[265.813,183.845],[265.774,183.924],[265.732,184],[265.687,184.075],[265.638,184.147],[265.587,184.218],[265.532,184.286],[265.475,184.351],[265.414,184.414],[265.351,184.475],[265.286,184.532],[265.218,184.587],[265.147,184.638],[265.075,184.687],[265,184.732],[264.923,184.774],[264.845,184.813],[264.765,184.848],[264.684,184.879],[264.601,184.907],[264.518,184.932],[264.433,184.953],[264.347,184.97],[264.261,184.983],[264.174,184.992],[264.087,184.998],[264,185],[6,185],[5.91275,184.998],[5.82568,184.992],[5.73895,184.983],[5.65269,184.97],[5.56712,184.953],[5.48236,184.932],[5.39859,184.907],[5.31596,184.879],[5.23463,184.848],[5.15477,184.813],[5.07651,184.774],[5,184.732],[4.9254,184.687],[4.85284,184.638],[4.78247,184.587],[4.71442,184.532],[4.64882,184.475],[4.58578,184.414],[4.52544,184.351],[4.46791,184.286],[4.4133,184.218],[4.3617,184.147],[4.31322,184.075],[4.26795,184],[4.22597,183.924],[4.18738,183.845],[4.15224,183.765],[4.12061,183.684],[4.09256,183.601],[4.06815,183.518],[4.04739,183.433],[4.03038,183.347],[4.01711,183.261],[4.00761,183.174],[4.00191,183.087],[4,183],[4,97]]
M73 P0 R107
M106 S0
M106 P2 S0
;TYPE:Custom
PRINT_START BED=100 HOTEND=260 CHAMBER=60 EXTRUDER=1
SET_PRINT_STATS_INFO TOTAL_LAYER=20
M83
M140 S100
M104 S260
M141 S60
G4 P3000
T1
G1 X108.000 Y1 F30000
G0 Z0.2 F600
;G1 E3 F1800
G90
M83
G0 X128 E8  F904.991
G0 X133 E.3742  F1508.32
G0 X138 E.3742  F6033.27
G0 X143 E.3742  F1508.32
G0 X148 E.3742  F6033.27
G0 X153 E.3742  F1508.32
G91
G1 X1 Z-0.300
G1 X4
G1 Z1 F1200
G90
M400
G1 X108.000 Y2.5 F30000
G0 Z0.2 F600
M83
G0 X128 E10  F904.991
G0 X133 E.3742  F1508.32
G0 X138 E.3742  F6033.27
G0 X143 E.3742  F1508.32
G0 X148 E.3742  F6033.27
G0 X153 E.3742  F1508.32
G91
G1 X1 Z-0.300
G1 X4
G1 Z1 F1200
G90
M400
G1 Z1 F600
M106 P3 S178
G90
G21
M83 ; use relative distances for extrusion



;_FORCE_RESUME_FAN_SPEED

; Filament gcode
SET_PRESSURE_ADVANCE ADVANCE=0.025; Override pressure advance value
M106 P2 S0
;LAYER_CHANGE
;Z:0.2
;HEIGHT:0.2
;BEFORE_LAYER_CHANGE
;0.2
G92 E0

G1 E-.8 F1800
 ; timelapse without wipe tower
TIMELAPSE_TAKE_FRAME

G92 E0
SET_PRINT_STATS_INFO CURRENT_LAYER=1
;_SET_FAN_SPEED_CHANGING_LAYER
SET_VELOCITY_LIMIT ACCEL=500
G1 X33.932 Y82.901 F30000
G1 Z.6
G1 Z.2
G1 E.8 F1800
;TYPE:Skirt
;WIDTH:0.44
G1 F3000
G1 X254.048 Y82.902 E6.90426
G1 X255.276 Y82.96 E.03858
G1 X256.495 Y83.125 E.03858
G1 X258.194 Y83.54 E.05484
G1 X259.351 Y83.957 E.03858
G1 X260.467 Y84.473 E.03858
G1 X261.534 Y85.084 E.03858
G1 X262.544 Y85.786 E.03858
G1 X263.489 Y86.573 E.03858
G1 X264.362 Y87.44 E.03858
G1 X265.156 Y88.38 E.03858
G1 X265.864 Y89.385 E.03858
G1 X266.527 Y90.533 E.04158
G1 X267.043 Y91.649 E.03858
G1 X267.46 Y92.806 E.03858
G1 X267.774 Y93.995 E.03858
G1 X267.984 Y95.207 E.03858
G1 X268.099 Y97 E.05634
G1 X268.096 Y183.096 E2.70052
G1 X267.882 Y184.311 E.03871
G1 X267.308 Y185.418 E.0391
G1 X266.56 Y186.2 E.03396
G1 X265.479 Y186.821 E.0391
G1 X264.74 Y187.03 E.02409
G1 X264 Y187.099 E.02331
G1 X6 Y187.099 E8.09254
G1 X4.86 Y186.936 E.03613
G1 X4.194 Y186.678 E.0224
G1 X3.689 Y186.384 E.01832
G1 X2.767 Y185.517 E.0397
G1 X2.179 Y184.479 E.03743
G1 X1.98 Y183.793 E.02241
G1 X1.901 Y183 E.02499
G1 X1.951 Y95.819 E2.73456
G1 X2.226 Y93.995 E.05784
G1 X2.769 Y92.133 E.06084
G1 X3.517 Y90.448 E.05784
G1 X4.631 Y88.667 E.06589
G1 X5.997 Y87.065 E.06603
G1 X7.38 Y85.844 E.05784
G1 X8.993 Y84.767 E.06085
G1 X10.649 Y83.957 E.05784
G1 X11.806 Y83.54 E.03858
G1 X13.505 Y83.124 E.05484
G1 X14.724 Y82.96 E.03858
G1 X16 Y82.901 E.04008
G1 X33.892 Y82.901 E.56121
; printing object Ali Box (1) id:0 copy 0
G1 E-.56 F1800
;WIPE_START
G1 F3000
G1 X34.892 Y82.902 E-.24
;WIPE_END
EXCLUDE_OBJECT_START NAME=Ali_Box_1_id_0_copy_0
G1 X42.509 Y83.393 Z.6 F30000
G1 X245.223 Y96.471 Z.6
G1 Z.2
G1 E.8 F1800
;TYPE:Inner wall
;WIDTH:0.439999
G1 F3000
G1 X244.882 Y96.728 E.0134
G1 X244.352 Y96.997 E.01864
G1 X243.491 Y97.225 E.02794
G1 X242.698 Y97.257 E.02489
G1 X241.934 Y97.133 E.02429
G1 X241.248 Y96.869 E.02304
G1 X240.633 Y96.468 E.02301
G1 X240.127 Y95.959 E.02254
G1 X239.71 Y95.316 E.02404
G1 X239.377 Y94.438 E.02944
G1 X239.253 Y93.716 E.023
G1 X239.229 Y92.734 E.03081
G1 X239.382 Y91.62 E.03525
G1 X239.594 Y91.006 E.02038
G1 X239.927 Y90.386 E.02207
G1 X240.473 Y89.744 E.02645
G1 X241.144 Y89.259 E.02597
G1 X241.948 Y88.937 E.02715
G1 X242.749 Y88.815 E.02542
G1 X243.355 Y88.831 E.01901
G1 X244.015 Y88.964 E.02113
G1 X244.604 Y89.196 E.01985
G1 X245.208 Y89.58 E.02244
G1 X245.414 Y89.217 E.01309
G1 X245.657 Y89.021 E.00978
G1 X246.02 Y88.89 E.01212
G1 X247.673 Y88.89 E.05186
G1 X248.102 Y88.987 E.01377
G1 X248.265 Y89.085 E.00597
G1 X248.523 Y89.368 E.01201
G1 X248.785 Y89.801 E.01588
G1 X248.903 Y89.368 E.01408
G1 X249.161 Y89.085 E.01201
G1 X249.324 Y88.987 E.00597
G1 X249.752 Y88.89 E.01377
G1 X251.354 Y88.89 E.05027
G1 X251.652 Y88.936 E.00946
G1 X251.912 Y89.061 E.00904
G1 X252.109 Y89.238 E.00831
G1 X252.305 Y89.596 E.01279
G1 X252.347 Y89.882 E.00909
G1 X252.347 Y96.195 E.198
G1 X252.274 Y96.567 E.0119
G1 X252.056 Y96.895 E.01237
G1 X251.855 Y97.05 E.00793
G1 X251.485 Y97.185 E.01237
G1 X249.833 Y97.185 E.05182
G1 X249.408 Y97.09 E.01366
G1 X249.245 Y96.992 E.00597
G1 X248.984 Y96.707 E.01212
G1 X248.724 Y96.278 E.01572
G1 X248.608 Y96.707 E.01394
G1 X248.347 Y96.992 E.01212
G1 X248.183 Y97.09 E.00597
G1 X247.758 Y97.185 E.01366
G1 X246.15 Y97.185 E.05044
G1 X245.896 Y97.152 E.00804
G1 X245.639 Y97.043 E.00876
G1 X245.327 Y96.747 E.0135
G1 X245.237 Y96.509 E.00798
G1 X245.359 Y95.794 F30000
G1 F3000
G1 X245.281 Y95.895 E.00399
G1 X244.822 Y96.293 E.01906
G1 X244.172 Y96.643 E.02316
G1 X243.402 Y96.838 E.02492
G1 X242.693 Y96.86 E.02224
G1 X242.007 Y96.743 E.02184
G1 X241.402 Y96.503 E.02042
G1 X240.86 Y96.142 E.02042
G1 X240.416 Y95.688 E.01992
G1 X240.05 Y95.109 E.02149
G1 X239.759 Y94.33 E.02609
G1 X239.645 Y93.652 E.02155
G1 X239.626 Y92.728 E.02899
G1 X239.783 Y91.664 E.03376
G1 X239.968 Y91.138 E.01748
G1 X240.272 Y90.581 E.01989
G1 X240.768 Y90.01 E.02374
G1 X241.365 Y89.589 E.0229
G1 X242.083 Y89.311 E.02415
G1 X242.796 Y89.21 E.0226
G1 X243.289 Y89.223 E.01548
G1 X243.87 Y89.333 E.01852
G1 X244.458 Y89.566 E.01985
G1 X244.927 Y89.862 E.01739
G1 X245.289 Y90.196 E.01546
G1 X245.562 Y90.547 E.01395
G1 X245.555 Y89.889 E.02064
G1 X245.599 Y89.657 E.00742
G1 X245.803 Y89.399 E.01031
G1 X246.069 Y89.287 E.00905
G1 X247.673 Y89.287 E.05033
G1 X247.93 Y89.345 E.00826
G1 X248.183 Y89.574 E.01069
G1 X249.174 Y91.21 E.06
G1 X249.156 Y89.89 E.04139
G1 X249.242 Y89.574 E.01029
G1 X249.495 Y89.345 E.01069
G1 X249.752 Y89.287 E.00826
G1 X251.354 Y89.287 E.05027
G1 X251.533 Y89.314 E.00568
G1 X251.807 Y89.496 E.01031
G1 X251.936 Y89.756 E.0091
G1 X251.95 Y90.359 E.01894
G1 X251.95 Y96.194 E.18301
G1 X251.883 Y96.467 E.00881
G1 X251.775 Y96.614 E.00574
G1 X251.45 Y96.788 E.01157
G1 X249.833 Y96.788 E.05072
G1 X249.578 Y96.731 E.00819
G1 X249.323 Y96.501 E.01075
G1 X248.336 Y94.872 E.05976
G1 X248.354 Y96.185 E.04118
G1 X248.268 Y96.501 E.0103
G1 X248.013 Y96.731 E.01075
G1 X247.758 Y96.788 E.0082
G1 X246.15 Y96.788 E.05044
G1 X245.843 Y96.703 E.00999
G1 X245.656 Y96.525 E.0081
G1 X245.555 Y96.186 E.01111
G1 X245.563 Y95.527 E.02064
G1 X245.383 Y95.762 E.00927
G1 X245.036 Y95.547 F30000
;TYPE:Outer wall
G1 F3000
G1 X244.548 Y95.977 E.02039
G1 X243.983 Y96.27 E.01998
G1 X243.309 Y96.43 E.02173
G1 X242.689 Y96.442 E.01945
G1 X242.084 Y96.331 E.01927
G1 X241.564 Y96.117 E.01765
G1 X241.099 Y95.799 E.01768
G1 X240.722 Y95.402 E.01716
G1 X240.407 Y94.892 E.01881
G1 X240.165 Y94.227 E.02219
G1 X240.059 Y93.586 E.02039
G1 X240.045 Y92.723 E.02707
G1 X240.17 Y91.836 E.02808
G1 X240.363 Y91.277 E.01856
G1 X240.637 Y90.787 E.01759
G1 X241.079 Y90.29 E.02089
G1 X241.597 Y89.937 E.01966
G1 X242.225 Y89.704 E.021
G1 X242.846 Y89.625 E.01964
G1 X243.221 Y89.636 E.01175
G1 X243.716 Y89.723 E.01577
G1 X244.305 Y89.955 E.01985
G1 X244.715 Y90.227 E.01544
G1 X244.959 Y90.453 E.01043
G1 X245.28 Y90.866 E.01641
;WIDTH:0.444826
G1 X245.556 Y91.474 E.02119
G1 X245.65 Y92.063 E.01893
;WIDTH:0.420888
G1 X245.681 Y92.568 E.0151
G1 X245.684 Y93.36 E.02365
;WIDTH:0.417221
G1 X245.662 Y93.893 E.01577
;WIDTH:0.440959
G1 X245.585 Y94.502 E.01929
G1 X245.374 Y95.06 E.01875
;WIDTH:0.439999
G1 X245.059 Y95.514 E.01736
G1 E-.56 F1800
;WIPE_START
G1 F3000
G1 X244.548 Y95.977 E-.16535
G1 X244.272 Y96.12 E-.07465
;WIPE_END
G1 X247.785 Y92.908 Z.6 F30000
G1 Z.2
G1 E.8 F1800
G1 F3000
G1 X247.785 Y93.548 E.02007
G1 X247.913 Y94.523 E.03082
G1 X247.936 Y96.19 E.05232
G1 X247.863 Y96.335 E.00508
G1 X247.759 Y96.37 E.00347
G1 X246.15 Y96.37 E.05044
G1 X246.015 Y96.307 E.00469
G1 X245.973 Y96.19 E.00387
G1 X245.987 Y95.008 E.03708
G1 X246.073 Y94.021 E.0311
;WIDTH:0.422826
G1 X246.093 Y93.382 E.01917
;WIDTH:0.414438
G1 X246.102 Y92.736 E.01896
;WIDTH:0.417646
G1 X246.068 Y92.055 E.0202
;WIDTH:0.446422
G1 X246.011 Y91.461 E.019
G1 X245.983 Y90.757 E.02249
;WIDTH:0.439999
G1 X245.973 Y89.885 E.02735
G1 X246.047 Y89.739 E.00513
G1 X246.15 Y89.705 E.0034
G1 X247.673 Y89.705 E.04777
G1 X247.779 Y89.74 E.00348
G1 X248.83 Y91.449 E.06293
G1 X249.386 Y92.615 E.04051
G1 X249.725 Y93.174 E.02052
G1 X249.725 Y92.532 E.02015
G1 X249.597 Y91.555 E.03088
G1 X249.575 Y89.885 E.05241
G1 X249.646 Y89.74 E.00506
G1 X249.752 Y89.705 E.00348
G1 X251.354 Y89.705 E.05027
G1 X251.489 Y89.767 E.00465
G1 X251.531 Y89.882 E.00384
G1 X251.531 Y96.193 E.19794
G1 X251.479 Y96.318 E.00425
G1 X251.354 Y96.37 E.00425
G1 X249.833 Y96.37 E.04772
G1 X249.728 Y96.335 E.00346
G1 X248.678 Y94.629 E.06284
G1 X248.123 Y93.465 E.04044
G1 X247.806 Y92.943 E.01918
G1 E-.56 F1800
;WIPE_START
G1 F3000
G1 X247.785 Y93.548 E-.14545
G1 X247.836 Y93.939 E-.09455
;WIPE_END
G1 X241.115 Y97.556 Z.6 F30000
G1 X81.017 Y183.715 Z.6
G1 Z.2
M73 P0 R106
G1 E.8 F1800
;TYPE:Inner wall
G1 F3000
G1 X81.248 Y183.137 E.01953
G1 X81.318 Y182.656 E.01522
G1 X81.299 Y182.15 E.01591
G1 X81.14 Y181.523 E.02028
G1 X80.867 Y180.975 E.01919
G1 X80.512 Y180.533 E.0178
G1 X80.124 Y180.214 E.01575
G1 X79.684 Y179.963 E.0159
G1 X79.123 Y179.796 E.01835
G1 X78.672 Y179.721 E.01434
G1 X78.092 Y179.753 E.01822
G1 X77.599 Y179.882 E.01598
G1 X77.037 Y180.16 E.01968
G1 X76.497 Y180.61 E.02202
G1 X76.181 Y181.016 E.01615
G1 X75.929 Y181.543 E.0183
G1 X75.792 Y182.05 E.0165
G1 X75.756 Y182.537 E.0153
G1 X75.852 Y183.214 E.02144
G1 X76.033 Y183.714 E.0167
G1 X19.035 Y183.715 E1.78784
G1 X19.141 Y183.486 E.0079
G1 X19.277 Y182.995 E.01598
G1 X19.313 Y182.351 E.02023
G1 X19.23 Y181.81 E.01717
G1 X19.144 Y181.531 E.00916
G1 X18.918 Y181.061 E.01637
G1 X18.575 Y180.604 E.01792
G1 X18.087 Y180.211 E.01966
G1 X17.684 Y179.964 E.01481
G1 X17.174 Y179.79 E.01693
G1 X16.628 Y179.723 E.01725
G1 X16.084 Y179.759 E.0171
G1 X15.554 Y179.897 E.01718
G1 X15.076 Y180.133 E.0167
G1 X14.604 Y180.497 E.01872
G1 X14.254 Y180.906 E.01689
G1 X13.976 Y181.408 E.01799
G1 X13.82 Y181.91 E.0165
G1 X13.761 Y182.615 E.02218
G1 X13.856 Y183.235 E.01968
G1 X14.055 Y183.717 E.01636
G1 X6.096 Y183.708 E.24966
G1 X5.742 Y183.652 E.01123
G1 X5.52 Y183.51 E.00828
G1 X5.355 Y183.257 E.00946
G1 X5.286 Y182.941 E.01018
G1 X5.286 Y97.024 E2.69488
G1 X5.327 Y96.066 E.03008
G1 X5.422 Y95.349 E.02269
G1 X5.538 Y94.692 E.02092
G1 X5.724 Y93.997 E.02257
G1 X5.93 Y93.343 E.02152
G1 X6.195 Y92.688 E.02216
G1 X6.495 Y92.056 E.02194
G1 X6.966 Y91.24 E.02955
G1 X7.361 Y90.668 E.0218
G1 X7.791 Y90.116 E.02194
G1 X8.425 Y89.425 E.02943
G1 X9.307 Y88.637 E.03711
G1 X9.801 Y88.27 E.01929
G1 X10.471 Y87.83 E.02514
G1 X11.043 Y87.502 E.02069
G1 X11.9 Y87.102 E.02967
G1 X12.778 Y86.782 E.02932
G1 X13.477 Y86.595 E.02269
G1 X14.128 Y86.451 E.02092
G1 X15.066 Y86.327 E.02967
G1 X16.024 Y86.286 E.03007
G1 X41.462 Y86.286 E.7979
;WIDTH:0.457464
G1 X42.168 Y86.314 E.02313
G1 X41.505 Y86.496 E.02251
;WIDTH:0.439999
G1 X40.945 Y86.756 E.01938
G1 X40.4 Y87.165 E.02136
G1 X39.961 Y87.667 E.02092
G1 X39.808 Y87.901 E.00878
G1 X39.496 Y88.623 E.02467
G1 X39.39 Y89.19 E.01809
G1 X39.394 Y89.864 E.02115
G1 X39.509 Y90.418 E.01774
G1 X39.757 Y91.009 E.02008
G1 X40.175 Y91.612 E.02303
G1 X40.576 Y91.992 E.01731
G1 X41.058 Y92.307 E.01809
G1 X41.695 Y92.564 E.02151
G1 X42.303 Y92.672 E.01937
G1 X42.918 Y92.663 E.01931
G1 X43.41 Y92.565 E.01571
G1 X43.655 Y92.482 E.00814
G1 X44.253 Y92.187 E.02089
G1 X44.484 Y92.029 E.0088
G1 X45.067 Y91.455 E.02567
G1 X45.406 Y90.908 E.0202
G1 X45.655 Y90.235 E.02249
G1 X45.734 Y89.691 E.01726
G1 X45.715 Y89.115 E.01805
G1 X45.538 Y88.4 E.0231
G1 X45.243 Y87.803 E.02089
G1 X45.085 Y87.572 E.00879
G1 X44.519 Y86.995 E.02537
G1 X43.908 Y86.622 E.02245
;WIDTH:0.473283
G1 X43.191 Y86.332 E.02628
G1 X43.396 Y86.309 E.00703
;WIDTH:0.456062
G1 X43.967 Y86.286 E.01864
;WIDTH:0.439999
G1 X81.427 Y86.287 E1.17498
;WIDTH:0.457144
G1 X82.168 Y86.315 E.02426
G1 X81.476 Y86.509 E.02351
;WIDTH:0.439999
G1 X80.959 Y86.75 E.01789
G1 X80.444 Y87.118 E.01985
G1 X80.065 Y87.519 E.01733
G1 X79.758 Y87.983 E.01744
G1 X79.526 Y88.537 E.01885
G1 X79.402 Y89.096 E.01794
G1 X79.379 Y89.689 E.01864
G1 X79.46 Y90.238 E.01741
G1 X79.637 Y90.768 E.01751
G1 X79.856 Y91.156 E.01398
G1 X80.175 Y91.612 E.01747
G1 X80.613 Y92.017 E.01872
G1 X81.178 Y92.372 E.02091
G1 X81.694 Y92.564 E.01727
G1 X82.241 Y92.669 E.01747
G1 X82.746 Y92.678 E.01583
G1 X83.295 Y92.596 E.01741
G1 X83.824 Y92.42 E.01751
G1 X84.147 Y92.242 E.01156
G1 X84.669 Y91.881 E.01989
G1 X85.086 Y91.424 E.0194
G1 X85.431 Y90.854 E.02092
G1 X85.547 Y90.576 E.00945
G1 X85.705 Y89.928 E.02092
G1 X85.733 Y89.648 E.00882
G1 X85.708 Y89.075 E.01798
G1 X85.656 Y88.8 E.00879
G1 X85.442 Y88.168 E.02092
G1 X85.315 Y87.918 E.0088
G1 X84.813 Y87.259 E.02599
G1 X84.155 Y86.751 E.02606
G1 X83.637 Y86.509 E.01794
;WIDTH:0.459834
G1 X82.948 Y86.315 E.02359
