; HEADER_BLOCK_START
; generated by OrcaSlicer 2.3.1 on 2025-10-13 at 21:34:07
; total layer number: 5
; filament_density: 1.24,1.02,1.02,1.24,1.24,1.24
; filament_diameter: 1.75,1.75,1.75,1.75,1.75,1.75
; max_z_height: 1.00
; HEADER_BLOCK_END

; THUMBNAIL_BLOCK_START

;
; THUMBNAIL_BLOCK_END

; external perimeters extrusion width = 0.42mm
; perimeters extrusion width = 0.45mm
; infill extrusion width = 0.45mm
; solid infill extrusion width = 0.42mm
; top infill extrusion width = 0.42mm
; first layer extrusion width = 0.44mm

; EXECUTABLE_BLOCK_START
EXCLUDE_OBJECT_DEFINE NAME=box_-_bottom_1_.step_id_0_copy_0 CENTER=130.224,135 POLYGON=[[65.1556,42.9461],[186.486,42.9462],[186.787,42.9499],[186.837,42.9518],[186.895,42.9556],[188.671,43.2129],[188.694,43.2169],[188.717,43.2213],[188.757,43.2301],[189.046,43.3105],[189.484,43.46],[190.834,44.0551],[190.844,44.0599],[190.904,44.0916],[190.963,44.1235],[191.022,44.1556],[191.864,44.6935],[191.991,44.7865],[192.181,44.9468],[193.009,45.7815],[193.029,45.8039],[193.736,46.6929],[194.195,47.4329],[194.213,47.4615],[194.237,47.5076],[194.302,47.6273],[194.356,47.7298],[194.37,47.7583],[194.384,47.7867],[194.397,47.8152],[194.409,47.8437],[194.819,48.8871],[194.845,48.9561],[194.87,49.0256],[194.912,49.152],[194.949,49.2807],[195.186,50.4284],[195.25,50.8516],[195.253,50.8739],[195.27,51.0441],[195.276,51.1116],[195.278,51.1461],[195.281,51.1788],[195.282,51.2101],[195.284,51.2379],[195.285,51.2659],[195.292,51.7258],[195.292,206.744],[195.292,218.274],[195.29,218.576],[195.287,218.662],[195.284,218.75],[195.279,218.838],[195.273,218.924],[195.271,218.952],[195.268,218.983],[195.23,219.297],[195.098,220.11],[195.047,220.339],[195.016,220.451],[194.982,220.561],[194.943,220.671],[194.387,222.193],[194.365,222.244],[194.341,222.295],[194.315,222.345],[194.241,222.481],[194.178,222.595],[193.736,223.307],[193.031,224.193],[193.009,224.219],[192.714,224.547],[192.665,224.598],[192.462,224.796],[191.603,225.474],[191.458,225.573],[191.225,225.722],[191.165,225.759],[191.104,225.794],[189.439,226.54],[189.389,226.562],[189.339,226.583],[189.288,226.603],[189.237,226.622],[189.121,226.66],[189.005,226.696],[188.771,226.762],[188.714,226.776],[187.626,226.98],[187.596,226.985],[187.28,227.02],[187.26,227.022],[187.24,227.024],[187.222,227.026],[187.204,227.027],[187.187,227.029],[187.17,227.03],[187.128,227.033],[187.084,227.036],[187.038,227.038],[186.992,227.041],[186.944,227.043],[186.893,227.045],[186.808,227.048],[186.643,227.052],[186.487,227.054],[90.4348,227.054],[65.1556,227.054],[65.1556,42.9461]]
M73 P0 R31
M106 S0
M106 P2 S0
;TYPE:Custom
PRINT_START BED=55 HOTEND=220 CHAMBER=0 EXTRUDER=0
SET_PRINT_STATS_INFO TOTAL_LAYER=5
M83
M140 S55
M104 S220
M141 S0
G4 P3000
T0
G1 X108.000 Y1 F30000
G0 Z0.2 F600
;G1 E3 F1800
G90
M83
G0 X128 E8  F1320
G0 X133 E.3742  F2200
G0 X138 E.3742  F8800
G0 X143 E.3742  F2200
G0 X148 E.3742  F8800
G0 X153 E.3742  F2200
G91
G1 X1 Z-0.300
G1 X4
G1 Z1 F1200
G90
M400
G1 X108.000 Y2.5 F30000
G0 Z0.2 F600
M83
G0 X128 E10  F1320
G0 X133 E.3742  F2200
G0 X138 E.3742  F8800
G0 X143 E.3742  F2200
G0 X148 E.3742  F8800
G0 X153 E.3742  F2200
G91
G1 X1 Z-0.300
G1 X4
G1 Z1 F1200
G90
M400
G1 Z1 F600
G90
G21
M83 ; use relative distances for extrusion
; Filament gcode
T0
M106 P2 S0
;LAYER_CHANGE
;Z:0.2
;HEIGHT:0.2
;BEFORE_LAYER_CHANGE
;0.2
G92 E0

G1 E-.8 F1800
 ; timelapse without wipe tower
TIMELAPSE_TAKE_FRAME

G92 E0
SET_PRINT_STATS_INFO CURRENT_LAYER=1
;_SET_FAN_SPEED_CHANGING_LAYER
SET_VELOCITY_LIMIT ACCEL=500
G1 X62.957 Y53.864 F30000
G1 Z.6
G1 Z.2
G1 E.8 F1800
;TYPE:Skirt
;WIDTH:0.44
G1 F3000
G1 X62.957 Y43.894 E.31273
G1 X63.348 Y42.642 E.04112
G1 X64.382 Y41.836 E.04112
G1 X65.156 Y41.695 E.02467
G1 X186.515 Y41.695 E3.80662
G1 X188.413 Y41.879 E.05981
G1 X190.215 Y42.408 E.05889
G1 X191.938 Y43.296 E.06081
G1 X193.428 Y44.47 E.0595
G1 X194.666 Y45.899 E.05932
G1 X195.63 Y47.571 E.06052
G1 X195.991 Y48.479 E.03065
G1 X196.282 Y49.508 E.03355
G1 X196.519 Y51.306 E.0569
G1 X196.528 Y218.298 E5.23792
G1 X196.415 Y219.784 E.04676
G1 X196.136 Y221.059 E.04094
G1 X195.604 Y222.485 E.04774
G1 X194.886 Y223.779 E.04643
G1 X194.211 Y224.692 E.0356
G1 X193.268 Y225.68 E.04284
G1 X192.339 Y226.43 E.03745
G1 X191.344 Y227.058 E.03692
G1 X190.291 Y227.562 E.03661
G1 X189.206 Y227.934 E.03598
G1 X187.923 Y228.204 E.04112
G1 X186.789 Y228.3 E.0357
G1 X65.156 Y228.305 E3.8152
G1 X63.904 Y227.914 E.04112
G1 X63.098 Y226.88 E.04112
G1 X62.957 Y226.106 E.02467
G1 X62.957 Y53.904 E5.40137
; printing object box - bottom (1).step id:0 copy 0
G1 E-.56 F1800
;WIPE_START
G1 F3000
G1 X62.957 Y52.904 E-.24
;WIPE_END
EXCLUDE_OBJECT_START NAME=box_-_bottom_1_.step_id_0_copy_0
G1 X67.814 Y58.792 Z.6 F30000
G1 X113.921 Y114.689 Z.6
G1 Z.2
M73 P1 R31
G1 E.8 F1800
;TYPE:Inner wall
;WIDTH:0.439999
G1 F3000
G1 X113.842 Y114.473 E.00722
G1 X113.636 Y114.285 E.00874
G1 X113.348 Y114.211 E.0093
G1 X65.944 Y114.211 E1.4869
G1 X65.944 Y44.682 E2.18088
G1 X186.792 Y44.689 E3.79057
G1 X187.608 Y44.77 E.02571
G1 X188.129 Y44.874 E.01666
G1 X188.854 Y45.105 E.02389
G1 X189.419 Y45.322 E.01896
G1 X190.017 Y45.636 E.0212
G1 X190.549 Y45.967 E.01965
G1 X191.057 Y46.368 E.02029
G1 X191.619 Y46.901 E.02429
G1 X192.133 Y47.511 E.02502
G1 X192.458 Y47.979 E.01788
G1 X192.795 Y48.581 E.02163
G1 X193.08 Y49.211 E.0217
G1 X193.257 Y49.74 E.01751
G1 X193.47 Y50.724 E.03157
G1 X193.527 Y51.357 E.01995
G1 X193.541 Y51.875 E.01625
G1 X193.541 Y218.277 E5.21944
G1 X193.493 Y219.102 E.0259
G1 X193.404 Y219.663 E.01782
G1 X193.102 Y220.727 E.03468
G1 X192.786 Y221.45 E.02475
G1 X192.504 Y221.936 E.01764
G1 X192.201 Y222.405 E.01752
G1 X191.798 Y222.918 E.02045
G1 X191.227 Y223.498 E.02552
G1 X190.831 Y223.829 E.01619
G1 X190.108 Y224.323 E.02748
G1 X189.413 Y224.682 E.02455
G1 X188.897 Y224.892 E.01745
G1 X188.201 Y225.11 E.02288
G1 X187.705 Y225.214 E.01592
G1 X187.207 Y225.282 E.01576
G1 X186.47 Y225.318 E.02314
G1 X65.944 Y225.318 E3.78046
G1 X65.944 Y155.789 E2.18088
M73 P1 R30
G1 X113.415 Y155.785 E1.489
G1 X113.68 Y155.688 E.00883
G1 X113.875 Y155.472 E.00912
G1 X113.944 Y155.193 E.00903
G1 X113.941 Y114.745 E1.2687
G1 X113.934 Y114.727 E.0006
G1 X113.526 Y114.807 F30000
;TYPE:Outer wall
G1 F3000
G1 X113.488 Y114.698 E.00361
G1 X113.348 Y114.63 E.00488
G1 X65.526 Y114.63 E1.50003
G1 X65.526 Y44.264 E2.20714
G1 X186.813 Y44.271 E3.80435
G1 X187.669 Y44.356 E.027
M73 P2 R30
G1 X188.234 Y44.468 E.01804
G1 X189.293 Y44.806 E.03488
G1 X189.842 Y45.054 E.01888
G1 X190.337 Y45.337 E.0179
G1 X190.789 Y45.625 E.01681
G1 X191.327 Y46.049 E.02149
G1 X191.923 Y46.613 E.02573
G1 X192.465 Y47.257 E.0264
G1 X192.812 Y47.756 E.01907
G1 X193.167 Y48.389 E.02275
G1 X193.471 Y49.063 E.02321
G1 X193.661 Y49.629 E.01872
G1 X193.884 Y50.656 E.03297
G1 X193.945 Y51.342 E.02158
G1 X193.96 Y51.875 E.01674
G1 X193.959 Y218.29 E5.21982
G1 X193.909 Y219.147 E.02694
G1 X193.813 Y219.753 E.01926
G1 X193.497 Y220.868 E.03635
G1 X193.16 Y221.639 E.0264
G1 X192.866 Y222.147 E.0184
G1 X192.542 Y222.648 E.01873
G1 X192.109 Y223.198 E.02193
G1 X191.511 Y223.806 E.02674
G1 X191.084 Y224.163 E.01747
G1 X190.327 Y224.68 E.02876
G1 X189.839 Y224.948 E.01746
G1 X189.347 Y225.173 E.01697
G1 X188.796 Y225.375 E.01842
G1 X188.302 Y225.516 E.0161
G1 X187.776 Y225.627 E.01686
G1 X187.245 Y225.699 E.0168
G1 X186.48 Y225.736 E.02403
G1 X65.526 Y225.736 E3.79391
G1 X65.526 Y155.37 E2.20714
G1 X113.348 Y155.37 E1.50003
G1 X113.456 Y155.333 E.00358
G1 X113.526 Y155.195 E.00485
G1 X113.526 Y114.847 E1.26557
G1 E-.56 F1800
;WIPE_START
G1 F3000
G1 X113.488 Y114.698 E-.03682
G1 X113.348 Y114.63 E-.03732
G1 X112.657 Y114.63 E-.16586
;WIPE_END
G1 X118.992 Y110.372 Z.6 F30000
G1 X164.228 Y79.965 Z.6
G1 Z.2
G1 E.8 F1800
;TYPE:Inner wall
G1 F3000
G1 X164.243 Y79.931 E.00117
G1 X164.519 Y79.519 E.01553
G1 X164.889 Y79.121 E.01705
G1 X165.432 Y78.728 E.02103
G1 X166.046 Y78.458 E.02103
G1 X166.724 Y78.324 E.02168
G1 X167.225 Y78.318 E.01574
G1 X167.812 Y78.422 E.0187
G1 X168.437 Y78.666 E.02103
G1 X168.996 Y79.037 E.02105
G1 X169.358 Y79.387 E.01578
G1 X169.718 Y79.902 E.01972
G1 X169.941 Y80.377 E.01647
G1 X170.085 Y80.938 E.01816
G1 X170.123 Y81.609 E.02107
G1 X170.017 Y82.272 E.02106
G1 X169.772 Y82.896 E.02103
G1 X169.401 Y83.454 E.02101
G1 X168.92 Y83.921 E.02103
G1 X168.351 Y84.274 E.021
G1 X167.72 Y84.498 E.02102
G1 X167.219 Y84.579 E.0159
G1 X166.608 Y84.561 E.0192
G1 X165.955 Y84.408 E.02102
G1 X165.495 Y84.207 E.01575
G1 X165.071 Y83.929 E.01588
G1 X164.666 Y83.553 E.01735
G1 X164.272 Y83.011 E.021
G1 X164 Y82.393 E.02119
G1 X163.868 Y81.735 E.02103
G1 X163.878 Y81.066 E.021
G1 X164.031 Y80.412 E.02105
G1 X164.212 Y80.002 E.01409
G1 X164.61 Y80.133 F30000
;TYPE:Outer wall
G1 F3000
G1 X164.825 Y79.804 E.01233
G1 X165.195 Y79.406 E.01705
G1 X165.67 Y79.071 E.01823
G1 X166.206 Y78.845 E.01823
G1 X166.796 Y78.737 E.01882
G1 X167.203 Y78.737 E.01276
G1 X167.738 Y78.834 E.01705
G1 X168.277 Y79.052 E.01823
G1 X168.757 Y79.381 E.01826
G1 X169.058 Y79.682 E.01335
G1 X169.374 Y80.139 E.01744
G1 X169.545 Y80.515 E.01295
G1 X169.679 Y81.042 E.01705
G1 X169.704 Y81.624 E.01827
G1 X169.605 Y82.197 E.01826
G1 X169.386 Y82.736 E.01824
G1 X169.058 Y83.215 E.01822
G1 X168.635 Y83.614 E.01823
G1 X168.138 Y83.914 E.01821
G1 X167.587 Y84.101 E.01823
G1 X167.165 Y84.162 E.01337
G1 X166.623 Y84.142 E.01704
G1 X166.058 Y84.003 E.01823
G1 X165.676 Y83.829 E.01316
G1 X165.347 Y83.614 E.01234
G1 X164.949 Y83.244 E.01705
G1 X164.616 Y82.772 E.0181
G1 X164.387 Y82.232 E.01839
G1 X164.28 Y81.661 E.01823
G1 X164.297 Y81.081 E.01821
G1 X164.436 Y80.516 E.01826
G1 X164.594 Y80.17 E.01192
G1 E-.56 F1800
;WIPE_START
G1 F3000
G1 X164.825 Y79.804 E-.10381
G1 X165.195 Y79.406 E-.13048
G1 X165.215 Y79.393 E-.00571
;WIPE_END
G1 X158.028 Y76.822 Z.6 F30000
G1 X149.991 Y73.947 Z.6
G1 Z.2
G1 E.8 F1800
;TYPE:Inner wall
G1 F3000
G1 X149.953 Y74.004 E.00215
G1 X149.583 Y74.402 E.01705
G1 X149.034 Y74.799 E.02126
G1 X148.425 Y75.066 E.02084
G1 X147.768 Y75.198 E.02101
G1 X147.098 Y75.187 E.02103
G1 X146.445 Y75.035 E.02102
G1 X145.956 Y74.818 E.01678
G1 X145.476 Y74.486 E.0183
G1 X145.113 Y74.136 E.01582
G1 X144.76 Y73.633 E.01927
G1 X144.49 Y73.018 E.02105
G1 X144.358 Y72.361 E.02104
G1 X144.369 Y71.692 E.02099
G1 X144.521 Y71.039 E.02102
G1 X144.729 Y70.566 E.01619
G1 X145.07 Y70.07 E.0189
G1 X145.551 Y69.603 E.02102
G1 X145.969 Y69.324 E.01577
G1 X146.536 Y69.085 E.01928
G1 X147.214 Y68.951 E.02168
G1 X147.866 Y68.963 E.02045
G1 X148.517 Y69.115 E.02098
G1 X148.98 Y69.317 E.01585
G1 X149.486 Y69.664 E.01924
G1 X149.953 Y70.145 E.02102
G1 X150.306 Y70.715 E.02103
G1 X150.531 Y71.346 E.02102
G1 X150.613 Y71.871 E.01665
G1 X150.593 Y72.458 E.01844
G1 X150.441 Y73.111 E.02102
G1 X150.239 Y73.573 E.01582
G1 X150.013 Y73.914 E.01281
G1 X149.647 Y73.719 F30000
;TYPE:Outer wall
G1 F3000
G1 X149.277 Y74.117 E.01705
G1 X148.795 Y74.455 E.01845
G1 X148.265 Y74.679 E.01805
G1 X147.694 Y74.786 E.01823
G1 X147.113 Y74.769 E.01824
G1 X146.548 Y74.629 E.01823
G1 X146.162 Y74.453 E.01333
G1 X145.714 Y74.142 E.01708
G1 X145.414 Y73.842 E.01332
G1 X145.103 Y73.395 E.01709
G1 X144.877 Y72.858 E.01825
G1 X144.77 Y72.287 E.01825
G1 X144.787 Y71.707 E.0182
G1 X144.927 Y71.143 E.01823
G1 X145.103 Y70.755 E.01336
G1 X145.414 Y70.309 E.01705
G1 X145.836 Y69.91 E.01823
G1 X146.194 Y69.68 E.01333
G1 X146.696 Y69.472 E.01705
G1 X147.286 Y69.363 E.01882
G1 X147.85 Y69.381 E.01768
G1 X148.413 Y69.521 E.01822
G1 X148.801 Y69.698 E.01337
G1 X149.247 Y70.008 E.01704
G1 X149.646 Y70.43 E.01823
G1 X149.946 Y70.928 E.01824
G1 X150.134 Y71.478 E.01823
G1 X150.195 Y71.9 E.01336
G1 X150.175 Y72.443 E.01705
G1 X150.035 Y73.008 E.01823
G1 X149.859 Y73.395 E.01334
G1 X149.669 Y73.686 E.0109
G1 E-.56 F1800
;WIPE_START
G1 F3000
G1 X149.277 Y74.117 E-.13995
G1 X148.935 Y74.357 E-.10005
;WIPE_END
G1 X141.622 Y76.539 Z.6 F30000
G1 X132.169 Y79.36 Z.6
G1 Z.2
G1 E.8 F1800
;TYPE:Inner wall
G1 F3000
G1 X132.5 Y79.039 E.01446
G1 X132.947 Y78.729 E.01705
G1 X133.561 Y78.46 E.02103
G1 X134.239 Y78.326 E.02168
G1 X134.745 Y78.321 E.0159
G1 X135.327 Y78.424 E.01853
G1 X135.97 Y78.678 E.02168
G1 X136.411 Y78.956 E.01637
G1 X136.834 Y79.349 E.01808
G1 X137.228 Y79.892 E.02106
G1 X137.497 Y80.506 E.02103
G1 X137.629 Y81.163 E.021
G1 X137.618 Y81.833 E.02102
G1 X137.514 Y82.347 E.01644
G1 X137.288 Y82.898 E.01868
G1 X136.919 Y83.452 E.0209
G1 X136.437 Y83.92 E.02106
G1 X135.867 Y84.275 E.02106
G1 X135.235 Y84.5 E.02105
G1 X134.736 Y84.58 E.01585
G1 X134.123 Y84.562 E.01924
G1 X133.47 Y84.41 E.02102
G1 X133.011 Y84.21 E.01571
G1 X132.596 Y83.939 E.01554
G1 X132.174 Y83.546 E.01808
G1 X131.784 Y83.008 E.02084
G1 X131.516 Y82.395 E.02098
G1 X131.383 Y81.737 E.02106
G1 X131.394 Y81.067 E.02104
G1 X131.546 Y80.415 E.021
G1 X131.834 Y79.809 E.02105
G1 X132.134 Y79.395 E.01602
G1 X132.14 Y79.388 E.0003
G1 X132.459 Y79.659 F30000
;TYPE:Outer wall
G1 F3000
G1 X132.739 Y79.383 E.01234
G1 X133.185 Y79.073 E.01705
G1 X133.721 Y78.847 E.01823
G1 X134.311 Y78.738 E.01882
G1 X134.718 Y78.739 E.01276
G1 X135.253 Y78.835 E.01705
G1 X135.808 Y79.064 E.01882
G1 X136.15 Y79.284 E.01276
G1 X136.549 Y79.655 E.01708
G1 X136.884 Y80.131 E.01826
G1 X137.11 Y80.667 E.01823
G1 X137.217 Y81.237 E.01821
G1 X137.2 Y81.818 E.01823
G1 X137.11 Y82.235 E.01337
G1 X136.901 Y82.737 E.01707
G1 X136.575 Y83.214 E.0181
G1 X136.152 Y83.614 E.01826
G1 X135.653 Y83.915 E.01828
G1 X135.103 Y84.103 E.01826
G1 X134.681 Y84.164 E.01336
G1 X134.138 Y84.144 E.01705
G1 X133.573 Y84.004 E.01823
G1 X133.191 Y83.831 E.01316
G1 X132.868 Y83.621 E.01211
G1 X132.46 Y83.24 E.0175
G1 X132.128 Y82.77 E.01805
G1 X131.903 Y82.235 E.0182
G1 X131.795 Y81.663 E.01826
G1 X131.812 Y81.082 E.01824
G1 X131.951 Y80.518 E.01821
G1 X132.208 Y79.996 E.01826
G1 X132.435 Y79.691 E.01191
G1 E-.56 F1800
;WIPE_START
G1 F3000
G1 X132.739 Y79.383 E-.10389
G1 X133.185 Y79.073 E-.13049
G1 X133.207 Y79.064 E-.00563
;WIPE_END
G1 X125.575 Y79.127 Z.6 F30000
G1 X91.73 Y79.406 Z.6
G1 Z.2
G1 E.8 F1800
;TYPE:Inner wall
G1 F3000
G1 X91.763 Y79.363 E.00169
G1 X92.1 Y79.039 E.01466
G1 X92.547 Y78.729 E.01705
G1 X93.161 Y78.46 E.02103
G1 X93.673 Y78.355 E.01642
G1 X94.288 Y78.318 E.0193
G1 X94.927 Y78.424 E.02033
G1 X95.57 Y78.678 E.02168
G1 X96.113 Y79.04 E.02048
G1 X96.578 Y79.52 E.02096
G1 X96.931 Y80.089 E.021
G1 X97.156 Y80.721 E.02105
G1 X97.238 Y81.242 E.01652
G1 X97.227 Y81.747 E.01587
G1 X97.132 Y82.272 E.01671
G1 X96.889 Y82.896 E.02102
G1 X96.517 Y83.455 E.02105
G1 X96.154 Y83.828 E.01633
G1 X95.659 Y84.174 E.01896
G1 X95.05 Y84.441 E.02084
G1 X94.393 Y84.573 E.02101
G1 X93.723 Y84.562 E.02103
G1 X93.07 Y84.41 E.02102
G1 X92.608 Y84.208 E.01581
G1 X92.177 Y83.922 E.01623
G1 X91.778 Y83.551 E.01709
G1 X91.384 Y83.007 E.02106
G1 X91.115 Y82.393 E.02102
G1 X91.006 Y81.86 E.01706
G1 X90.974 Y81.609 E.00795
G1 X90.994 Y81.067 E.01702
G1 X91.125 Y80.498 E.01831
G1 X91.312 Y80.052 E.01515
G1 X91.49 Y79.718 E.01188
G1 X91.706 Y79.438 E.0111
G1 X92.059 Y79.659 F30000
;TYPE:Outer wall
G1 F3000
G1 X92.339 Y79.383 E.01234
G1 X92.786 Y79.073 E.01705
G1 X93.321 Y78.847 E.01823
G1 X93.911 Y78.738 E.01882
G1 X94.318 Y78.739 E.01276
G1 X94.856 Y78.836 E.01714
G1 X95.408 Y79.064 E.01874
G1 X95.873 Y79.383 E.01771
G1 X96.271 Y79.805 E.0182
G1 X96.571 Y80.302 E.01821
G1 X96.759 Y80.853 E.01826
G1 X96.82 Y81.269 E.01318
G1 X96.815 Y81.673 E.01268
G1 X96.721 Y82.197 E.0167
G1 X96.502 Y82.736 E.01823
G1 X96.173 Y83.216 E.01826
G1 X95.873 Y83.517 E.01334
G1 X95.42 Y83.83 E.01726
G1 X94.89 Y84.054 E.01805
G1 X94.319 Y84.161 E.01823
G1 X93.738 Y84.144 E.01824
G1 X93.173 Y84.004 E.01823
G1 X92.786 Y83.828 E.01334
G1 X92.462 Y83.616 E.01216
G1 X92.063 Y83.245 E.01709
G1 X91.728 Y82.769 E.01826
G1 X91.502 Y82.233 E.01823
G1 X91.395 Y81.662 E.01823
G1 X91.412 Y81.082 E.01821
G1 X91.551 Y80.518 E.01821
G1 X91.808 Y79.996 E.01826
G1 X92.035 Y79.691 E.01191
G1 E-.56 F1800
;WIPE_START
G1 F3000
G1 X92.339 Y79.383 E-.10389
G1 X92.786 Y79.073 E-.13049
G1 X92.807 Y79.064 E-.00562
;WIPE_END
G1 X86.132 Y75.362 Z.6 F30000
G1 X78.205 Y70.967 Z.6
G1 Z.2
