; HEADER_BLOCK_START
; generated by OrcaSlicer 2.3.1 on 2025-10-15 at 21:25:45
; total layer number: 5
; filament_density: 1.24,1.02,1.02,1.24,1.24,1.24
; filament_diameter: 1.75,1.75,1.75,1.75,1.75,1.75
; max_z_height: 1.00
; HEADER_BLOCK_END

; THUMBNAIL_BLOCK_START

;
; THUMBNAIL_BLOCK_END

; external perimeters extrusion width = 0.42mm
; perimeters extrusion width = 0.45mm
; infill extrusion width = 0.45mm
; solid infill extrusion width = 0.42mm
; top infill extrusion width = 0.42mm
; first layer extrusion width = 0.44mm

; EXECUTABLE_BLOCK_START
EXCLUDE_OBJECT_DEFINE NAME=box_-_Part_5.step_id_0_copy_0 CENTER=135,135 POLYGON=[[50.1935,100.139],[50.1992,99.8774],[50.2163,99.6162],[50.2448,99.3559],[50.2846,99.0972],[50.3357,98.8405],[50.3979,98.5862],[50.4712,98.3349],[50.5553,98.087],[50.6502,97.843],[50.7556,97.6034],[50.8714,97.3686],[50.9973,97.1391],[51.1331,96.9153],[51.2786,96.6976],[51.4334,96.4865],[51.5972,96.2824],[51.7698,96.0856],[51.9508,95.8965],[95.8965,51.9508],[96.0856,51.7698],[96.2824,51.5972],[96.4865,51.4334],[96.6976,51.2786],[96.9153,51.1331],[97.1391,50.9973],[97.3686,50.8714],[97.6034,50.7556],[97.843,50.6502],[98.087,50.5553],[98.3349,50.4712],[98.5862,50.3979],[98.8405,50.3357],[99.0972,50.2846],[99.3559,50.2448],[99.6162,50.2163],[99.8774,50.1992],[100.139,50.1935],[100.401,50.1992],[100.662,50.2163],[100.922,50.2448],[101.181,50.2846],[101.438,50.3357],[101.692,50.3979],[101.943,50.4712],[102.191,50.5553],[102.435,50.6502],[102.675,50.7556],[102.91,50.8714],[103.139,50.9973],[103.363,51.1331],[103.581,51.2786],[103.792,51.4334],[103.996,51.5972],[104.193,51.7698],[104.382,51.9508],[218.049,165.618],[218.23,165.807],[218.403,166.004],[218.567,166.208],[218.721,166.419],[218.867,166.637],[219.003,166.861],[219.129,167.09],[219.244,167.325],[219.35,167.565],[219.445,167.809],[219.529,168.057],[219.602,168.308],[219.664,168.562],[219.715,168.819],[219.755,169.078],[219.784,169.338],[219.801,169.599],[219.807,169.861],[219.801,170.123],[219.784,170.384],[219.755,170.644],[219.715,170.903],[219.664,171.16],[219.602,171.414],[219.529,171.665],[219.445,171.913],[219.35,172.157],[219.244,172.397],[219.129,172.631],[219.003,172.861],[218.867,173.085],[218.721,173.302],[218.567,173.513],[218.403,173.718],[218.23,173.914],[218.049,174.104],[174.104,218.049],[173.914,218.23],[173.718,218.403],[173.513,218.567],[173.302,218.721],[173.085,218.867],[172.861,219.003],[172.631,219.129],[172.397,219.244],[172.157,219.35],[171.913,219.445],[171.665,219.529],[171.414,219.602],[171.16,219.664],[170.903,219.715],[170.644,219.755],[170.384,219.784],[170.123,219.801],[169.861,219.807],[169.599,219.801],[169.338,219.784],[169.078,219.755],[168.819,219.715],[168.562,219.664],[168.308,219.602],[168.057,219.529],[167.809,219.445],[167.565,219.35],[167.325,219.244],[167.09,219.129],[166.861,219.003],[166.637,218.867],[166.419,218.721],[166.208,218.567],[166.004,218.403],[165.807,218.23],[165.618,218.049],[51.9508,104.382],[51.7698,104.193],[51.5972,103.996],[51.4334,103.792],[51.2786,103.581],[51.1331,103.363],[50.9973,103.139],[50.8714,102.91],[50.7556,102.675],[50.6502,102.435],[50.5553,102.191],[50.4712,101.943],[50.3979,101.692],[50.3357,101.438],[50.2846,101.181],[50.2448,100.922],[50.2163,100.662],[50.1992,100.401],[50.1935,100.139]]
M73 P0 R16
M106 S0
M106 P2 S0
;TYPE:Custom
PRINT_START BED=55 HOTEND=220 CHAMBER=0 EXTRUDER=0
SET_PRINT_STATS_INFO TOTAL_LAYER=5
M83
M140 S55
M104 S220
M141 S0
G4 P3000
T0
G1 X108.000 Y1 F30000
G0 Z0.2 F600
;G1 E3 F1800
G90
M83
G0 X128 E8  F904.991
G0 X133 E.3742  F1508.32
G0 X138 E.3742  F6033.27
G0 X143 E.3742  F1508.32
G0 X148 E.3742  F6033.27
G0 X153 E.3742  F1508.32
G91
G1 X1 Z-0.300
G1 X4
G1 Z1 F1200
G90
M400
G1 X108.000 Y2.5 F30000
G0 Z0.2 F600
M83
G0 X128 E10  F904.991
G0 X133 E.3742  F1508.32
G0 X138 E.3742  F6033.27
G0 X143 E.3742  F1508.32
G0 X148 E.3742  F6033.27
G0 X153 E.3742  F1508.32
G91
G1 X1 Z-0.300
G1 X4
G1 Z1 F1200
G90
M400
G1 Z1 F600
G90
G21
M83 ; use relative distances for extrusion
; Filament gcode
T0
M106 P2 S0
;LAYER_CHANGE
;Z:0.2
;HEIGHT:0.2
;BEFORE_LAYER_CHANGE
;0.2
G92 E0

G1 E-.8 F1800
 ; timelapse without wipe tower
TIMELAPSE_TAKE_FRAME

G92 E0
SET_PRINT_STATS_INFO CURRENT_LAYER=1
;_SET_FAN_SPEED_CHANGING_LAYER
SET_VELOCITY_LIMIT ACCEL=500
G1 X72.374 Y72.373 F30000
G1 Z.6
G1 Z.2
G1 E.8 F1800
;TYPE:Skirt
;WIDTH:0.44
G1 F3000
G1 X94.565 Y50.182 E.9844
G1 X95.775 Y49.254 E.04782
G1 X97.29 Y48.506 E.053
G1 X98.763 Y48.112 E.04782
G1 X100.423 Y48.001 E.05218
G1 X101.867 Y48.179 E.04564
G1 X103.321 Y48.638 E.04782
G1 X104.802 Y49.451 E.05299
G1 X105.936 Y50.396 E.04633
G1 X219.604 Y164.064 E5.04215
G1 X220.549 Y165.198 E.04633
M73 P1 R16
G1 X221.362 Y166.679 E.053
G1 X221.738 Y167.785 E.03664
G1 X221.941 Y168.838 E.03364
G1 X222.005 Y169.909 E.03364
G1 X221.89 Y171.229 E.04155
G1 X221.64 Y172.28 E.03391
G1 X221.216 Y173.369 E.03664
G1 X220.695 Y174.306 E.03364
G1 X219.883 Y175.364 E.04183
G1 X175.658 Y219.604 E1.96209
G1 X174.524 Y220.549 E.04632
G1 X173.042 Y221.362 E.053
G1 X172.029 Y221.713 E.03364
G1 X170.883 Y221.941 E.03664
G1 X169.551 Y221.999 E.04183
G1 X168.45 Y221.882 E.03473
G1 X167.35 Y221.611 E.03554
G1 X166.118 Y221.1 E.04183
G1 X165.119 Y220.494 E.03664
G1 X164.287 Y219.818 E.03364
G1 X50.396 Y105.936 E5.05187
G1 X49.451 Y104.802 E.04632
G1 X48.638 Y103.321 E.053
G1 X48.279 Y102.273 E.03473
G1 X48.059 Y101.162 E.03554
G1 X47.995 Y100.091 E.03364
G1 X48.112 Y98.763 E.04183
G1 X48.389 Y97.628 E.03664
G1 X48.9 Y96.396 E.04182
G1 X49.506 Y95.398 E.03664
G1 X50.182 Y94.565 E.03363
G1 X72.345 Y72.402 E.98315
; printing object box - Part 5.step id:0 copy 0
G1 E-.56 F1800
;WIPE_START
G1 F3000
G1 X73.052 Y71.695 E-.24
;WIPE_END
EXCLUDE_OBJECT_START NAME=box_-_Part_5.step_id_0_copy_0
G1 X77.273 Y78.054 Z.6 F30000
G1 X140.129 Y172.756 Z.6
G1 Z.2
G1 E.8 F1800
;TYPE:Inner wall
;WIDTH:0.439999
G1 F3000
G1 X140.101 Y172.228 E.01658
G1 X140.104 Y171.072 E.03627
G1 X140.157 Y169.947 E.03532
G1 X140.245 Y168.952 E.03133
G1 X140.381 Y167.884 E.03376
G1 X140.625 Y166.456 E.04543
G1 X141.011 Y164.822 E.05267
G1 X141.348 Y163.675 E.0375
G1 X141.725 Y162.572 E.03657
G1 X142.047 Y161.751 E.02767
G1 X142.622 Y160.424 E.04534
G1 X143.031 Y159.604 E.02875
G1 X144.013 Y157.844 E.06322
G1 X144.63 Y156.885 E.03578
G1 X145.35 Y155.868 E.03906
G1 X146.053 Y154.975 E.03567
G1 X147.149 Y153.7 E.05273
G1 X147.68 Y153.15 E.02397
G1 X148.83 Y152.034 E.05028
G1 X149.687 Y151.291 E.03555
G1 X150.298 Y150.805 E.02451
G1 X151.31 Y150.046 E.03969
G1 X152.048 Y149.539 E.02808
G1 X153.006 Y148.937 E.03548
G1 X154.071 Y148.332 E.03841
G1 X155.052 Y147.829 E.03459
G1 X155.592 Y147.573 E.01875
G1 X156.646 Y147.117 E.03602
G1 X157.733 Y146.702 E.0365
G1 X158.728 Y146.37 E.03288
G1 X159.608 Y146.115 E.02874
G1 X161.645 Y145.633 E.06567
G1 X162.807 Y145.435 E.03696
G1 X163.837 Y145.306 E.03257
G1 X165.122 Y145.197 E.04043
G1 X166.342 Y145.154 E.0383
G1 X168.016 Y145.185 E.0525
G1 X169.191 Y145.27 E.03696
G1 X170.377 Y145.409 E.03747
G1 X171.496 Y145.591 E.03554
G1 X172.669 Y145.834 E.03758
G1 X174.073 Y146.201 E.04551
G1 X175.454 Y146.641 E.04548
G1 X176.549 Y147.051 E.03665
G1 X177.62 Y147.506 E.03651
G1 X178.642 Y147.995 E.03555
G1 X179.423 Y148.407 E.0277
G1 X180.203 Y148.848 E.02808
G1 X181.19 Y149.46 E.03644
G1 X182.151 Y150.117 E.03651
G1 X183.057 Y150.796 E.03554
G1 X183.541 Y151.183 E.01943
G1 X184.42 Y151.936 E.03629
G1 X185.269 Y152.732 E.0365
G1 X186.083 Y153.564 E.03651
G1 X186.839 Y154.408 E.03554
G1 X187.238 Y154.882 E.01943
G1 X187.952 Y155.792 E.03629
G1 X188.63 Y156.74 E.03654
G1 X189.298 Y157.769 E.03849
G1 X190.133 Y159.22 E.05251
G1 X190.661 Y160.265 E.03674
G1 X191.14 Y161.326 E.03651
G1 X191.575 Y162.413 E.03673
G1 X192.111 Y163.999 E.05251
G1 X192.442 Y165.181 E.03849
G1 X192.697 Y166.286 E.03559
G1 X192.911 Y167.43 E.0365
G1 X193.001 Y168.021 E.01874
M73 P2 R16
G1 X193.137 Y169.161 E.03602
G1 X193.218 Y170.237 E.03384
G1 X193.254 Y171.283 E.03283
G1 X193.246 Y172.649 E.04284
G1 X193.18 Y173.81 E.0365
G1 X193.127 Y174.406 E.01874
G1 X192.987 Y175.546 E.03602
G1 X192.795 Y176.693 E.03651
G1 X192.631 Y177.464 E.0247
G1 X192.261 Y178.959 E.04831
G1 X191.726 Y180.636 E.05523
G1 X191.318 Y181.71 E.03602
G1 X190.858 Y182.779 E.0365
G1 X190.569 Y183.39 E.02121
G1 X190.067 Y184.369 E.03452
G1 X189.492 Y185.381 E.03649
G1 X188.872 Y186.366 E.03651
G1 X188.211 Y187.323 E.03651
G1 X187.507 Y188.252 E.03654
G1 X186.722 Y189.195 E.03849
G1 X185.584 Y190.422 E.05251
G1 X184.742 Y191.237 E.03674
G1 X183.87 Y192.01 E.03654
G1 X182.916 Y192.781 E.03849
G1 X181.56 Y193.762 E.05251
G1 X180.569 Y194.4 E.03697
G1 X179.114 Y195.228 E.0525
G1 X178.017 Y195.778 E.03849
G1 X176.98 Y196.239 E.03559
G1 X175.898 Y196.666 E.0365
G1 X175.148 Y196.925 E.02487
G1 X173.677 Y197.378 E.04828
G1 X173.104 Y197.528 E.01859
G1 X172.005 Y197.777 E.03535
G1 X171.004 Y197.959 E.03192
G1 X169.178 Y198.197 E.05776
G1 X168.106 Y198.275 E.0337
G1 X166.782 Y198.316 E.04153
G1 X166.185 Y198.312 E.01875
G1 X165.455 Y198.282 E.02291
G1 X163.847 Y198.165 E.05057
G1 X162.693 Y198.016 E.03651
G1 X161.546 Y197.817 E.03651
G1 X160.41 Y197.567 E.0365
G1 X159.314 Y197.276 E.03554
G1 X158.721 Y197.097 E.01943
G1 X157.625 Y196.727 E.03628
G1 X156.54 Y196.307 E.03651
G1 X155.473 Y195.839 E.03654
G1 X154.372 Y195.296 E.03849
G1 X152.914 Y194.475 E.05251
G1 X151.925 Y193.847 E.03673
G1 X150.972 Y193.18 E.03651
G1 X150.072 Y192.49 E.03554
G1 X149.593 Y192.098 E.01943
G1 X148.723 Y191.335 E.03629
G1 X147.882 Y190.531 E.03651
G1 X147.077 Y189.69 E.03651
G1 X146.31 Y188.815 E.0365
G1 X145.601 Y187.931 E.03554
G1 X145.229 Y187.435 E.01944
G1 X144.566 Y186.487 E.03629
G1 X143.941 Y185.504 E.03654
G1 X143.33 Y184.44 E.03849
G1 X142.576 Y182.946 E.05251
G1 X142.105 Y181.873 E.03674
G1 X141.683 Y180.781 E.03673
G1 X141.163 Y179.189 E.05251
G1 X140.846 Y178.004 E.03849
G1 X140.596 Y176.866 E.03654
G1 X140.396 Y175.72 E.03651
G1 X140.251 Y174.596 E.03555
G1 X140.185 Y173.84 E.02379
G1 X140.131 Y172.796 E.0328
G1 X140.525 Y172.735 F30000
G1 F3000
G1 X140.498 Y172.225 E.01604
G1 X140.501 Y171.083 E.0358
G1 X140.553 Y169.965 E.03511
G1 X140.641 Y168.988 E.03079
G1 X140.774 Y167.937 E.03321
G1 X141.014 Y166.536 E.0446
G1 X141.394 Y164.924 E.05195
G1 X141.729 Y163.787 E.03716
G1 X142.101 Y162.701 E.03601
G1 X142.417 Y161.896 E.02712
G1 X142.985 Y160.586 E.04479
G1 X143.386 Y159.782 E.02819
G1 X144.353 Y158.05 E.06221
G1 X144.964 Y157.1 E.03545
G1 X145.67 Y156.104 E.03828
G1 X146.365 Y155.22 E.03527
G1 X147.448 Y153.962 E.05208
G1 X147.965 Y153.426 E.02334
G1 X149.097 Y152.328 E.04946
G1 X149.947 Y151.591 E.03528
G1 X150.545 Y151.116 E.02396
M73 P2 R15
G1 X151.544 Y150.367 E.03919
G1 X152.267 Y149.871 E.02748
G1 X153.217 Y149.273 E.03523
G1 X154.264 Y148.679 E.03776
G1 X155.233 Y148.182 E.03415
G1 X155.762 Y147.932 E.01834
G1 X156.804 Y147.482 E.03561
G1 X157.875 Y147.073 E.03596
G1 X158.853 Y146.747 E.03234
G1 X159.716 Y146.498 E.02817
G1 X161.732 Y146.02 E.065
G1 X162.873 Y145.826 E.03629
G1 X163.886 Y145.7 E.03203
G1 X165.153 Y145.593 E.03989
G1 X166.356 Y145.551 E.03774
G1 X168.008 Y145.582 E.05183
G1 X169.162 Y145.666 E.03628
G1 X170.322 Y145.803 E.03665
G1 X171.432 Y145.983 E.03527
G1 X172.579 Y146.221 E.03673
G1 X173.962 Y146.582 E.04485
G1 X175.324 Y147.016 E.04484
G1 X176.401 Y147.419 E.03607
G1 X177.456 Y147.868 E.03596
G1 X178.471 Y148.354 E.03528
G1 X179.238 Y148.758 E.0272
G1 X180 Y149.189 E.02748
G1 X180.973 Y149.793 E.03591
G1 X181.92 Y150.44 E.03596
G1 X182.819 Y151.114 E.03527
G1 X183.288 Y151.489 E.01883
G1 X184.155 Y152.232 E.0358
G1 X184.991 Y153.016 E.03596
G1 X185.793 Y153.835 E.03596
G1 X186.544 Y154.673 E.03527
G1 X186.93 Y155.133 E.01883
G1 X187.634 Y156.031 E.0358
G1 X188.302 Y156.964 E.03599
G1 X188.959 Y157.976 E.03787
G1 X189.783 Y159.409 E.05183
G1 X190.303 Y160.437 E.03613
G1 X190.774 Y161.482 E.03596
G1 X191.202 Y162.551 E.03613
G1 X191.732 Y164.116 E.05183
G1 X192.057 Y165.279 E.03787
G1 X192.31 Y166.376 E.0353
G1 X192.52 Y167.503 E.03595
G1 X192.608 Y168.08 E.01834
G1 X192.742 Y169.208 E.03561
G1 X192.822 Y170.266 E.03329
G1 X192.857 Y171.295 E.03228
G1 X192.849 Y172.643 E.0423
G1 X192.784 Y173.788 E.03595
G1 X192.731 Y174.37 E.01834
G1 X192.593 Y175.497 E.03561
G1 X192.403 Y176.627 E.03596
G1 X192.243 Y177.381 E.02416
G1 X191.876 Y178.859 E.04776
G1 X191.351 Y180.507 E.05428
G1 X190.947 Y181.568 E.03561
G1 X190.494 Y182.621 E.03596
G1 X190.213 Y183.215 E.02059
G1 X189.718 Y184.18 E.03404
G1 X189.151 Y185.177 E.03595
G1 X188.541 Y186.147 E.03596
G1 X187.889 Y187.091 E.03596
G1 X187.196 Y188.005 E.03599
G1 X186.424 Y188.933 E.03787
G1 X185.3 Y190.145 E.05183
G1 X184.472 Y190.946 E.03613
G1 X183.614 Y191.706 E.03599
G1 X182.675 Y192.466 E.03787
G1 X181.336 Y193.434 E.05183
G1 X180.363 Y194.06 E.03629
G1 X178.927 Y194.878 E.05183
G1 X177.847 Y195.418 E.03787
G1 X176.819 Y195.876 E.03531
G1 X175.752 Y196.297 E.03596
G1 X175.019 Y196.55 E.02433
G1 X173.566 Y196.997 E.04769
G1 X173.004 Y197.144 E.01823
G1 X171.917 Y197.389 E.03494
G1 X170.933 Y197.568 E.03137
G1 X169.129 Y197.803 E.05709
G1 X168.078 Y197.879 E.03303
G1 X166.773 Y197.919 E.04097
G1 X166.188 Y197.915 E.01834
G1 X164.607 Y197.832 E.04967
G1 X163.89 Y197.771 E.02258
G1 X162.752 Y197.623 E.03596
G1 X161.623 Y197.427 E.03596
G1 X160.503 Y197.181 E.03596
G1 X159.417 Y196.892 E.03527
G1 X158.841 Y196.719 E.01883
G1 X157.76 Y196.354 E.0358
G1 X156.691 Y195.94 E.03596
G1 X155.64 Y195.479 E.03599
G1 X154.558 Y194.945 E.03787
G1 X153.118 Y194.134 E.05183
G1 X152.146 Y193.516 E.03612
G1 X151.206 Y192.859 E.03596
G1 X150.314 Y192.175 E.03527
G1 X149.849 Y191.795 E.01883
G1 X148.991 Y191.043 E.0358
G1 X148.163 Y190.25 E.03596
G1 X147.37 Y189.422 E.03596
G1 X146.614 Y188.56 E.03596
G1 X145.911 Y187.682 E.03527
G1 X145.55 Y187.202 E.01883
G1 X144.896 Y186.267 E.0358
G1 X144.281 Y185.299 E.03598
G1 X143.679 Y184.252 E.03787
G1 X142.935 Y182.776 E.05183
G1 X142.473 Y181.721 E.03613
G1 X142.057 Y180.647 E.03613
G1 X141.544 Y179.076 E.05183
G1 X141.232 Y177.91 E.03787
G1 X140.986 Y176.79 E.03599
G1 X140.789 Y175.66 E.03596
G1 X140.645 Y174.545 E.03528
G1 X140.581 Y173.806 E.02324
G1 X140.527 Y172.775 E.03239
G1 X140.915 Y172.702 F30000
G1 F3000
G1 X140.89 Y171.67 E.0324
G1 X140.898 Y171.095 E.01802
G1 X140.95 Y169.984 E.0349
G1 X141.036 Y169.023 E.03024
G1 X141.168 Y167.99 E.03267
G1 X141.403 Y166.615 E.04377
G1 X141.778 Y165.025 E.05123
G1 X142.109 Y163.899 E.03683
G1 X142.476 Y162.83 E.03545
G1 X142.786 Y162.041 E.02658
G1 X143.348 Y160.747 E.04425
G1 X143.741 Y159.96 E.02762
G1 X144.692 Y158.256 E.0612
G1 X145.298 Y157.315 E.03511
G1 X145.99 Y156.339 E.0375
G1 X146.677 Y155.466 E.03487
G1 X147.747 Y154.223 E.05144
G1 X148.25 Y153.702 E.02272
G1 X149.364 Y152.623 E.04864
G1 X150.207 Y151.891 E.035
G1 X150.791 Y151.427 E.02342
G1 X151.778 Y150.687 E.03869
G1 X152.485 Y150.203 E.02687
G1 X153.429 Y149.61 E.03497
G1 X154.025 Y149.27 E.02153
G1 X155.432 Y148.527 E.04989
G1 X155.933 Y148.291 E.01738
G1 X156.961 Y147.846 E.03514
G1 X158.016 Y147.444 E.03541
G1 X158.978 Y147.124 E.03179
G1 X159.824 Y146.88 E.02761
G1 X161.819 Y146.407 E.06433
G1 X162.939 Y146.218 E.03561
G1 X163.935 Y146.094 E.03148
G1 X165.185 Y145.989 E.03934
G1 X166.369 Y145.948 E.03717
G1 X168 Y145.979 E.05116
G1 X169.132 Y146.062 E.03561
G1 X170.279 Y146.198 E.03623
G1 X171.368 Y146.375 E.0346
G1 X172.488 Y146.608 E.03588
G1 X173.852 Y146.964 E.0442
G1 X175.194 Y147.391 E.0442
G1 X176.254 Y147.788 E.03548
G1 X177.293 Y148.23 E.03542
G1 X178.299 Y148.712 E.035
G1 X179.052 Y149.109 E.0267
G1 X179.798 Y149.531 E.02687
G1 X180.756 Y150.126 E.03538
G1 X181.688 Y150.763 E.03542
G1 X182.581 Y151.432 E.035
G1 X183.035 Y151.795 E.01823
G1 X183.889 Y152.528 E.03531
G1 X184.714 Y153.3 E.03541
G1 X185.503 Y154.107 E.03542
G1 X186.248 Y154.938 E.035
G1 X186.622 Y155.383 E.01823
G1 X187.316 Y156.269 E.03531
G1 X187.974 Y157.187 E.03543
G1 X188.62 Y158.183 E.03725
G1 X189.434 Y159.597 E.05116
G1 X189.944 Y160.608 E.03552
G1 X190.409 Y161.637 E.03541
G1 X190.829 Y162.688 E.03552
