; HEADER_BLOCK_START
; generated by OrcaSlicer 2.3.1 on 2025-11-17 at 16:55:59
; total layer number: 20
; filament_density: 1.02,1.02,1.02,1.24,1.24,1.24
; filament_diameter: 1.75,1.75,1.75,1.75,1.75,1.75
; max_z_height: 4.00
; HEADER_BLOCK_END

; THUMBNAIL_BLOCK_START

;
; THUMBNAIL_BLOCK_END

; external perimeters extrusion width = 0.62mm
; perimeters extrusion width = 0.62mm
; infill extrusion width = 0.62mm
; solid infill extrusion width = 0.62mm
; top infill extrusion width = 0.62mm
; first layer extrusion width = 0.62mm

; EXECUTABLE_BLOCK_START
EXCLUDE_OBJECT_DEFINE NAME=box_-_New_TOP_1_.step_id_0_copy_0 CENTER=132.232,132.231 POLYGON=[[31.9769,74.3663],[31.9818,74.0241],[31.9829,73.9885],[31.9964,73.6823],[32.0008,73.6112],[32.0207,73.3411],[32.0308,73.2328],[32.0546,73.0008],[32.0727,72.855],[32.0982,72.6616],[32.1266,72.4782],[32.1514,72.324],[32.1924,72.103],[32.2142,71.988],[32.2616,71.7672],[32.2865,71.654],[32.3404,71.4337],[32.3682,71.3223],[32.4285,71.1027],[32.4594,70.9931],[32.5258,70.7748],[32.5598,70.6667],[32.6323,70.4503],[32.6695,70.3434],[32.7478,70.1296],[32.7883,70.0234],[32.8721,69.8131],[32.9162,69.7069],[33.0204,69.4666],[33.053,69.3943],[33.18,69.1244],[33.1986,69.0857],[33.3529,68.7815],[33.5158,68.4818],[33.6871,68.187],[33.7246,68.1264],[33.8668,67.8971],[33.9273,67.805],[34.0546,67.6126],[34.1184,67.5213],[34.2505,67.3336],[34.3174,67.2431],[34.4541,67.0603],[34.5241,66.971],[34.6655,66.7929],[34.7382,66.7051],[34.8844,66.5317],[34.9596,66.4457],[35.1106,66.2769],[35.1878,66.1933],[35.344,66.0286],[35.4227,65.9481],[35.4767,65.8936],[35.6115,65.7607],[35.6911,65.6843],[35.7484,65.63],[35.8874,65.5014],[35.9682,65.4288],[36.0283,65.3751],[36.1713,65.251],[36.254,65.1815],[36.463,65.0098],[36.548,64.943],[36.6981,64.8271],[36.7622,64.7779],[36.8499,64.7136],[37.0037,64.6023],[37.0686,64.5556],[37.1593,64.4935],[37.3166,64.3871],[37.3819,64.3431],[37.4756,64.2833],[37.7017,64.1407],[37.7658,64.1027],[38.0279,63.9485],[38.36,63.7667],[38.5282,63.6797],[38.6643,63.6121],[38.6977,63.5955],[38.8686,63.5139],[38.9718,63.4663],[39.0407,63.4351],[39.2141,63.3589],[39.2828,63.3296],[39.3887,63.2856],[39.5644,63.215],[39.632,63.1887],[39.7412,63.1471],[39.9191,63.0821],[39.9861,63.0587],[40.098,63.02],[40.2779,62.9606],[40.4588,62.9041],[40.7083,62.8318],[40.823,62.7997],[41.0755,62.7353],[41.1905,62.7069],[41.4459,62.6504],[41.5607,62.6258],[41.6322,62.6123],[41.8191,62.5771],[41.9334,62.5563],[42.1568,62.5212],[42.3082,62.4988],[42.4959,62.475],[42.6847,62.453],[42.836,62.4385],[43.0625,62.4192],[43.1765,62.4116],[43.2518,62.4068],[43.4413,62.3974],[43.5172,62.3946],[43.6918,62.3896],[43.7298,62.3889],[43.9425,62.387],[220.523,62.387],[220.864,62.3918],[220.9,62.3929],[221.205,62.4064],[221.276,62.4108],[221.546,62.4307],[221.654,62.4408],[221.886,62.4646],[222.031,62.4827],[222.224,62.5082],[222.407,62.5366],[222.561,62.5614],[222.782,62.6024],[222.897,62.6242],[223.117,62.6716],[223.23,62.6965],[223.45,62.7504],[223.561,62.7783],[223.781,62.8385],[223.89,62.8694],[224.108,62.9359],[224.216,62.9699],[224.432,63.0424],[224.539,63.0796],[224.752,63.1579],[224.858,63.1984],[225.068,63.2822],[225.174,63.3263],[225.414,63.4306],[225.486,63.4631],[225.756,63.5902],[225.795,63.6088],[226.098,63.7632],[226.398,63.9261],[226.692,64.0975],[226.753,64.135],[227.013,64.2978],[227.074,64.3378],[227.232,64.443],[227.328,64.508],[227.388,64.5507],[227.636,64.7282],[227.937,64.958],[228.201,65.1735],[228.23,65.1972],[228.374,65.3203],[228.46,65.3958],[228.516,65.4456],[228.656,65.5732],[228.711,65.6249],[228.794,65.7029],[228.929,65.8349],[228.955,65.8607],[229.063,65.969],[229.194,66.1052],[229.218,66.1301],[229.324,66.2434],[229.451,66.3837],[229.472,66.4083],[229.576,66.526],[229.719,66.6952],[229.819,66.8164],[229.956,66.9904],[230.052,67.1145],[230.184,67.2934],[230.276,67.4198],[230.403,67.6038],[230.491,67.7321],[230.613,67.9211],[230.695,68.051],[230.792,68.2122],[230.889,68.3764],[230.963,68.5082],[231.073,68.7077],[231.126,68.8087],[231.246,69.0448],[231.28,69.1134],[231.329,69.2154],[231.409,69.3873],[231.424,69.4218],[231.486,69.5604],[231.56,69.7336],[231.56,69.7347],[231.632,69.9103],[231.701,70.0869],[231.767,70.2647],[231.831,70.4435],[231.891,70.6232],[231.949,70.804],[232.055,71.1681],[232.15,71.5355],[232.234,71.9059],[232.27,72.0891],[232.306,72.2787],[232.366,72.6538],[232.405,72.9547],[232.414,73.0306],[232.44,73.2954],[232.45,73.4088],[232.464,73.5984],[232.466,73.6366],[232.474,73.7881],[232.482,73.9778],[232.485,74.0771],[232.486,74.172],[232.488,74.3663],[232.488,198.076],[232.487,198.185],[232.482,198.295],[232.475,198.404],[232.464,198.513],[232.451,198.621],[232.434,198.73],[232.392,198.944],[232.339,199.157],[232.274,199.366],[232.198,199.571],[232.11,199.772],[232.012,199.967],[231.903,200.157],[231.784,200.341],[231.72,200.43],[231.654,200.518],[231.586,200.604],[231.516,200.688],[231.443,200.77],[231.368,200.849],[231.323,200.895],[231.291,200.927],[231.212,201.003],[231.168,201.042],[231.13,201.077],[231.047,201.148],[230.962,201.217],[230.875,201.283],[230.695,201.409],[230.509,201.525],[230.317,201.631],[230.119,201.726],[229.917,201.81],[229.71,201.883],[229.499,201.944],[229.286,201.994],[229.069,202.032],[228.961,202.047],[228.852,202.059],[228.717,202.069],[228.666,202.072],[228.599,202.074],[228.481,202.076],[35.9844,202.076],[35.8747,202.074],[35.765,202.07],[35.6555,202.062],[35.5463,202.052],[35.4374,202.038],[35.3289,202.022],[35.1134,201.98],[34.9006,201.927],[34.691,201.862],[34.4853,201.785],[34.2841,201.698],[34.0881,201.6],[33.8977,201.491],[33.7136,201.372],[33.624,201.308],[33.5362,201.243],[33.4503,201.175],[33.3663,201.104],[33.2842,201.032],[33.2042,200.957],[33.1583,200.912],[33.1262,200.88],[33.0504,200.8],[33.0111,200.757],[32.9768,200.719],[32.9054,200.636],[32.8364,200.551],[32.7697,200.464],[32.6436,200.285],[32.5275,200.099],[32.4218,199.908],[32.3267,199.71],[32.2426,199.508],[32.1698,199.302],[32.1083,199.092],[32.0584,198.878],[32.0203,198.663],[32.0057,198.554],[31.9941,198.446],[31.9842,198.312],[31.9812,198.261],[31.9788,198.194],[31.9769,198.076],[31.9769,74.3663]]
M73 P0 R61
M106 S0
M106 P2 S0
;TYPE:Custom
PRINT_START BED=100 HOTEND=260 CHAMBER=60 EXTRUDER=0
SET_PRINT_STATS_INFO TOTAL_LAYER=20
M83
M140 S100
M104 S260
M141 S60
G4 P3000
T0
G1 X108.000 Y1 F30000
G0 Z0.2 F600
;G1 E3 F1800
G90
M83
G0 X128 E8  F1320
G0 X133 E.3742  F2200
G0 X138 E.3742  F8800
G0 X143 E.3742  F2200
G0 X148 E.3742  F8800
G0 X153 E.3742  F2200
G91
G1 X1 Z-0.300
G1 X4
G1 Z1 F1200
G90
M400
G1 X108.000 Y2.5 F30000
G0 Z0.2 F600
M83
G0 X128 E10  F1320
G0 X133 E.3742  F2200
G0 X138 E.3742  F8800
G0 X143 E.3742  F2200
G0 X148 E.3742  F8800
G0 X153 E.3742  F2200
G91
G1 X1 Z-0.300
G1 X4
G1 Z1 F1200
G90
M400
G1 Z1 F600
M106 P3 S255
G90
G21
M83 ; use relative distances for extrusion
; Filament gcode
SET_PRESSURE_ADVANCE ADVANCE=0.015; Override pressure advance value
T0
M106 P2 S0
;LAYER_CHANGE
;Z:0.2
;HEIGHT:0.2
;BEFORE_LAYER_CHANGE
;0.2
G92 E0

 ; timelapse without wipe tower
TIMELAPSE_TAKE_FRAME

G92 E0
SET_PRINT_STATS_INFO CURRENT_LAYER=1
;_SET_FAN_SPEED_CHANGING_LAYER
SET_VELOCITY_LIMIT ACCEL=500
G1 E-.8 F1800
G1 X43.819 Y60.25 F30000
G1 Z.6
G1 Z.2
G1 E.8 F1800
;TYPE:Skirt
;WIDTH:0.62
G1 F3000
G1 X220.557 Y60.249 E7.80222
G1 X221.887 Y60.314 E.05876
M73 P0 R60
G1 X223.212 Y60.506 E.05914
G1 X224.717 Y60.885 E.0685
G1 X225.862 Y61.297 E.05372
G1 X227.146 Y61.898 E.06257
G1 X228.24 Y62.544 E.05608
G1 X229.241 Y63.262 E.05438
G1 X230.16 Y64.052 E.05352
G1 X231.077 Y64.996 E.05808
G1 X231.907 Y66.027 E.05843
G1 X232.574 Y67.027 E.05305
G1 X233.198 Y68.169 E.05748
G1 X233.708 Y69.348 E.0567
G1 X234.119 Y70.604 E.05832
G1 X234.41 Y71.892 E.05831
G1 X234.576 Y73.153 E.05613
G1 X234.627 Y74.366 E.05362
G1 X234.625 Y198.148 E5.4644
G1 X234.45 Y199.526 E.06135
G1 X233.927 Y200.91 E.06531
G1 X233.13 Y202.088 E.06277
G1 X232.132 Y203.012 E.06007
G1 X231.358 Y203.497 E.04031
G1 X230.378 Y203.911 E.04696
G1 X229.418 Y204.141 E.04361
G1 X228.481 Y204.214 E.04149
G1 X35.984 Y204.214 E8.49787
G1 X34.532 Y204.038 E.06458
G1 X33.26 Y203.574 E.05977
G1 X32.079 Y202.814 E.06202
G1 X31.043 Y201.723 E.0664
G1 X30.557 Y200.95 E.0403
G1 X30.142 Y199.971 E.04694
G1 X29.911 Y199.011 E.04358
G1 X29.838 Y198.076 E.04143
G1 X29.846 Y73.904 E5.48164
G1 X30.003 Y72.209 E.07514
G1 X30.353 Y70.582 E.07349
G1 X30.876 Y69.045 E.07166
G1 X31.474 Y67.759 E.06263
G1 X32.344 Y66.324 E.07406
G1 X33.338 Y65.051 E.07131
G1 X34.498 Y63.876 E.07288
G1 X35.597 Y62.982 E.06254
G1 X37.414 Y61.849 E.09456
G1 X39.369 Y61.009 E.09393
G1 X41.613 Y60.441 E.10215
G1 X43.759 Y60.255 E.09511
; printing object box - New TOP (1).step id:0 copy 0
G1 E-.8 F1800
EXCLUDE_OBJECT_START NAME=box_-_New_TOP_1_.step_id_0_copy_0
G1 X51.344 Y61.105 Z.6 F30000
G1 X229.716 Y81.113 Z.6
G1 Z.2
G1 E.8 F1800
;TYPE:Inner wall
;WIDTH:0.619999
G1 F3000
G1 X229.436 Y81.148 E.01249
G1 X229.057 Y81.248 E.0173
G1 X228.576 Y81.443 E.02292
G1 X228.01 Y81.813 E.02982
G1 X227.531 Y82.29 E.02984
G1 X227.161 Y82.855 E.02985
G1 X226.913 Y83.485 E.02984
G1 X226.808 Y84.014 E.02384
G1 X226.795 Y84.565 E.02434
G1 X226.872 Y85.084 E.02314
G1 X226.988 Y85.483 E.01833
G1 X227.21 Y85.977 E.02391
G1 X227.494 Y86.401 E.02253
G1 X227.881 Y86.81 E.02487
G1 X228.428 Y87.208 E.02984
G1 X229.045 Y87.486 E.02988
G1 X229.554 Y87.606 E.0231
G1 X230.147 Y87.633 E.02621
G1 X230.148 Y173.592 E3.79474
G1 X229.961 Y173.591 E.00823
G1 X229.436 Y173.658 E.02338
G1 X229.057 Y173.757 E.0173
G1 X228.576 Y173.953 E.02292
G1 X228.01 Y174.322 E.02982
G1 X227.603 Y174.709 E.0248
G1 X227.28 Y175.146 E.02395
G1 X227.05 Y175.602 E.02256
G1 X226.913 Y175.994 E.01833
G1 X226.812 Y176.488 E.02226
G1 X226.794 Y177.042 E.02448
G1 X226.872 Y177.594 E.02459
G1 X226.988 Y177.992 E.01833
G1 X227.22 Y178.503 E.02475
G1 X227.517 Y178.941 E.02338
G1 X227.881 Y179.32 E.0232
G1 X228.428 Y179.718 E.02983
G1 X229.045 Y179.996 E.02988
G1 X229.554 Y180.115 E.02312
G1 X230.148 Y180.142 E.02621
G1 X230.147 Y198.048 E.79045
G1 X230.03 Y198.657 E.02737
G1 X229.743 Y199.136 E.02468
G1 X229.444 Y199.417 E.01808
G1 X229.093 Y199.608 E.01766
G1 X228.575 Y199.729 E.02347
G1 X222.546 Y199.736 E.26618
G1 X222.517 Y199.705 E.00188
G1 X222.491 Y199.181 E.02315
G1 X222.421 Y198.796 E.0173
G1 X222.263 Y198.301 E.02291
G1 X221.938 Y197.709 E.02982
G1 X221.499 Y197.195 E.02985
G1 X220.964 Y196.782 E.02984
G1 X220.412 Y196.505 E.02727
G1 X219.876 Y196.357 E.02453
G1 X219.362 Y196.291 E.02287
G1 X218.795 Y196.314 E.02507
G1 X218.282 Y196.425 E.02317
G1 X217.797 Y196.618 E.02303
G1 X217.436 Y196.823 E.01834
G1 X216.952 Y197.205 E.02721
G1 X216.591 Y197.628 E.02459
G1 X216.313 Y198.065 E.02286
G1 X216.065 Y198.695 E.02985
G1 X215.952 Y199.362 E.02989
G1 X215.955 Y199.735 E.01644
G1 X44.544 Y199.735 E7.56701
G1 X44.517 Y199.705 E.00178
G1 X44.491 Y199.181 E.02315
G1 X44.421 Y198.796 E.0173
G1 X44.263 Y198.301 E.02291
G1 X43.938 Y197.709 E.02982
G1 X43.499 Y197.195 E.02985
G1 X42.964 Y196.782 E.02984
G1 X42.376 Y196.493 E.02892
G1 X41.876 Y196.357 E.02287
G1 X41.362 Y196.291 E.02287
G1 X40.689 Y196.334 E.0298
G1 X40.037 Y196.514 E.02984
G1 X39.436 Y196.823 E.02984
G1 X39.026 Y197.134 E.0227
G1 X38.591 Y197.628 E.0291
G1 X38.313 Y198.065 E.02286
G1 X38.065 Y198.695 E.02985
G1 X37.952 Y199.362 E.02989
G1 X37.955 Y199.737 E.01652
G1 X35.997 Y199.728 E.08641
G1 X35.456 Y199.637 E.02426
G1 X35.03 Y199.418 E.02113
G1 X34.635 Y199.032 E.0244
G1 X34.444 Y198.682 E.01757
G1 X34.324 Y198.17 E.02321
G1 X34.318 Y180.156 E.79524
G1 X34.678 Y180.15 E.0159
G1 X35.346 Y180.019 E.03007
G1 X35.97 Y179.756 E.0299
G1 X36.526 Y179.37 E.02985
G1 X36.888 Y178.998 E.02293
G1 X37.317 Y178.371 E.03355
G1 X37.511 Y177.902 E.02239
G1 X37.64 Y177.336 E.02562
G1 X37.672 Y176.922 E.01834
G1 X37.612 Y176.249 E.02984
G1 X37.432 Y175.639 E.02804
G1 X37.21 Y175.187 E.02223
G1 X36.855 Y174.701 E.02659
G1 X36.455 Y174.322 E.02432
G1 X35.889 Y173.953 E.02984
G1 X35.406 Y173.757 E.02299
G1 X35.027 Y173.657 E.01731
G1 X34.317 Y173.592 E.03145
G1 X34.318 Y87.647 E3.79411
G1 X34.678 Y87.64 E.01589
G1 X35.194 Y87.547 E.02317
G1 X35.834 Y87.322 E.02993
G1 X36.445 Y86.933 E.03197
G1 X36.909 Y86.479 E.02865
G1 X37.29 Y85.914 E.0301
G1 X37.546 Y85.283 E.03009
G1 X37.667 Y84.611 E.03011
G1 X37.659 Y84.036 E.02542
G1 X37.552 Y83.485 E.02478
G1 X37.415 Y83.092 E.01834
G1 X37.091 Y82.499 E.02984
G1 X36.651 Y81.985 E.02985
G1 X36.116 Y81.572 E.02984
G1 X35.507 Y81.277 E.02989
G1 X34.845 Y81.112 E.03012
G1 X34.316 Y81.094 E.02337
G1 X34.323 Y74.09 E.30921
G1 X34.395 Y73.152 E.04151
G1 X34.487 Y72.562 E.0264
G1 X34.605 Y72.027 E.02416
G1 X34.754 Y71.493 E.02446
G1 X34.929 Y70.984 E.02376
G1 X35.288 Y70.148 E.04019
G1 X35.737 Y69.323 E.04145
G1 X36.043 Y68.852 E.0248
G1 X36.368 Y68.412 E.02416
G1 X36.72 Y67.989 E.0243
G1 X37.095 Y67.587 E.02426
G1 X37.513 Y67.19 E.02546
G1 X37.937 Y66.832 E.02447
G1 X38.793 Y66.223 E.04636
G1 X39.478 Y65.826 E.03497
G1 X39.983 Y65.58 E.02478
G1 X40.803 Y65.255 E.03894
G1 X41.698 Y64.994 E.04117
G1 X42.377 Y64.857 E.03056
G1 X43.077 Y64.768 E.03117
G1 X43.907 Y64.729 E.03666
G1 X50.659 Y64.727 E.29811
G1 X50.709 Y65.361 E.02807
G1 X50.799 Y65.743 E.0173
G1 X50.982 Y66.228 E.02292
G1 X51.336 Y66.803 E.02982
G1 X51.801 Y67.294 E.02985
G1 X52.357 Y67.679 E.02984
G1 X52.979 Y67.943 E.02984
G1 X53.643 Y68.073 E.02984
G1 X54.319 Y68.065 E.02985
G1 X54.849 Y67.964 E.02382
G1 X55.416 Y67.743 E.02689
G1 X55.891 Y67.451 E.02462
G1 X56.329 Y67.061 E.02587
G1 X56.741 Y66.525 E.02984
G1 X57.035 Y65.915 E.02986
G1 X57.167 Y65.41 E.02305
G1 X57.217 Y65.022 E.01728
G1 X57.207 Y64.725 E.01314
G1 X207.234 Y64.728 E6.62304
G1 X207.247 Y65.179 E.01991
G1 X207.354 Y65.691 E.0231
G1 X207.483 Y66.061 E.0173
G1 X207.715 Y66.525 E.0229
G1 X208.126 Y67.061 E.02982
G1 X208.639 Y67.501 E.02985
G1 X209.131 Y67.786 E.02511
G1 X209.623 Y67.968 E.02312
G1 X210.136 Y68.065 E.02307
G1 X210.551 Y68.087 E.01834
G1 X211.223 Y68.009 E.02985
G1 X211.726 Y67.859 E.02318
G1 X212.252 Y67.594 E.026
G1 X212.709 Y67.249 E.02528
G1 X213.119 Y66.803 E.02673
G1 X213.473 Y66.228 E.02984
G1 X213.703 Y65.591 E.02988
G1 X213.783 Y65.069 E.0233
G1 X213.79 Y64.726 E.01518
G1 X220.474 Y64.728 E.29505
G1 X220.976 Y64.752 E.02222
G1 X221.923 Y64.843 E.04198
G1 X222.753 Y65 E.03727
G1 X223.547 Y65.226 E.03645
G1 X224.334 Y65.524 E.03716
G1 X225.012 Y65.846 E.03315
G1 X225.569 Y66.161 E.02824
G1 X226.048 Y66.474 E.02526
G1 X226.489 Y66.803 E.02429
G1 X226.907 Y67.154 E.0241
G1 X227.316 Y67.54 E.02481
G1 X227.693 Y67.939 E.02423
G1 X228.184 Y68.538 E.03419
G1 X228.56 Y69.062 E.02848
G1 X228.829 Y69.508 E.023
G1 X229.18 Y70.151 E.03233
G1 X229.422 Y70.693 E.02618
G1 X229.625 Y71.231 E.02538
G1 X229.806 Y71.821 E.02725
G1 X229.95 Y72.419 E.02716
G1 X230.045 Y72.963 E.02438
G1 X230.117 Y73.622 E.02926
G1 X230.147 Y74.406 E.03467
G1 X230.15 Y81.083 E.29474
G1 X229.961 Y81.082 E.00832
G1 X229.776 Y81.105 E.00824
G1 X229.856 Y81.686 F30000
G1 F3000
G1 X229.583 Y81.706 E.01212
G1 X228.86 Y81.946 E.03361
G1 X228.391 Y82.246 E.02459
G1 X227.993 Y82.636 E.02461
G1 X227.683 Y83.1 E.02461
G1 X227.485 Y83.578 E.02284
G1 X227.383 Y84.068 E.02211
G1 X227.373 Y84.569 E.02213
G1 X227.462 Y85.082 E.02297
G1 X227.642 Y85.557 E.02241
G1 X227.907 Y85.986 E.02227
G1 X228.284 Y86.397 E.02461
G1 X228.737 Y86.721 E.02461
G1 X229.248 Y86.946 E.02464
G1 X230.001 Y87.071 E.03371
G1 X230.459 Y87.043 E.02025
G1 X230.724 Y86.985 E.01198
G1 X230.725 Y174.249 E3.85233
G1 X230.219 Y174.17 E.02259
M73 P1 R60
G1 X229.583 Y174.216 E.02818
G1 X228.86 Y174.455 E.03361
G1 X228.391 Y174.756 E.02459
G1 X227.993 Y175.146 E.02461
G1 X227.683 Y175.61 E.02461
G1 X227.484 Y176.091 E.02302
G1 X227.381 Y176.592 E.02255
G1 X227.376 Y177.114 E.02303
G1 X227.47 Y177.621 E.0228
G1 X227.667 Y178.118 E.02359
G1 X227.937 Y178.54 E.0221
G1 X228.284 Y178.906 E.02229
G1 X228.737 Y179.231 E.0246
G1 X229.248 Y179.456 E.02463
G1 X230.002 Y179.58 E.03374
G1 X230.461 Y179.553 E.02029
G1 X230.725 Y179.494 E.01193
G1 X230.724 Y198.031 E.81834
