; HEADER_BLOCK_START
; generated by OrcaSlicer 2.3.1 on 2025-10-12 at 13:08:27
; total layer number: 100
; filament_density: 1.02,1.02,1.02,1.24,1.24,1.24
; filament_diameter: 1.75,1.75,1.75,1.75,1.75,1.75
; max_z_height: 20.00
; HEADER_BLOCK_END

; THUMBNAIL_BLOCK_START

;
; THUMBNAIL_BLOCK_END

; external perimeters extrusion width = 0.42mm
; perimeters extrusion width = 0.45mm
; infill extrusion width = 0.45mm
; solid infill extrusion width = 0.42mm
; top infill extrusion width = 0.42mm
; first layer extrusion width = 0.44mm

; EXECUTABLE_BLOCK_START
EXCLUDE_OBJECT_DEFINE NAME=box_-_Part_4.step_id_0_copy_0 CENTER=135,135 POLYGON=[[17.1313,153.963],[17.1398,153.584],[17.1603,153.206],[17.1928,152.829],[17.2372,152.452],[17.2936,152.077],[17.3617,151.705],[17.4416,151.334],[17.5333,150.967],[17.6365,150.602],[17.7512,150.241],[17.8773,149.884],[18.0146,149.53],[18.1478,149.216],[18.2898,148.906],[18.4406,148.6],[18.6001,148.298],[18.7681,148.001],[18.9446,147.709],[19.1293,147.422],[19.3221,147.141],[19.5229,146.865],[19.7314,146.594],[19.9476,146.33],[20.1713,146.072],[20.4022,145.821],[20.6403,145.576],[145.576,20.6401],[145.731,20.488],[145.888,20.3388],[146.17,20.0848],[146.46,19.8399],[146.757,19.6043],[147.062,19.3783],[147.373,19.162],[147.691,18.9557],[148.016,18.7596],[148.346,18.5739],[148.683,18.3988],[149.024,18.2344],[149.371,18.0809],[149.722,17.9384],[150.077,17.8072],[150.437,17.6873],[150.8,17.5788],[151.166,17.4818],[151.535,17.3966],[151.907,17.323],[152.281,17.2613],[152.657,17.2114],[153.034,17.1735],[153.412,17.1475],[153.79,17.1335],[154.169,17.1315],[154.548,17.1414],[154.927,17.1634],[155.266,17.1934],[155.605,17.2331],[155.943,17.2824],[156.279,17.3413],[156.613,17.4098],[156.945,17.4878],[157.275,17.5752],[157.602,17.672],[157.927,17.778],[158.248,17.8933],[158.566,18.0177],[158.88,18.1511],[159.191,18.2934],[159.497,18.4445],[159.799,18.6043],[160.096,18.7726],[160.389,18.9493],[160.676,19.1343],[160.958,19.3274],[161.234,19.5285],[161.505,19.7374],[161.769,19.9539],[162.028,20.1779],[162.28,20.4091],[162.525,20.6475],[252.869,110.992],[110.992,252.869],[20.6477,162.525],[20.5086,162.383],[20.3718,162.239],[20.1166,161.958],[19.8704,161.669],[19.6336,161.372],[19.4062,161.068],[19.1886,160.757],[18.981,160.439],[18.7836,160.115],[18.5965,159.784],[18.42,159.448],[18.2542,159.107],[18.0993,158.761],[17.9554,158.41],[17.8228,158.054],[17.7014,157.695],[17.5915,157.332],[17.4932,156.966],[17.4065,156.597],[17.3315,156.225],[17.2683,155.851],[17.217,155.476],[17.1776,155.099],[17.1502,154.721],[17.1347,154.342],[17.1313,153.963]]
M73 P0 R74
M106 S0
M106 P2 S0
;TYPE:Custom
PRINT_START BED=100 HOTEND=260 CHAMBER=60 EXTRUDER=0
SET_PRINT_STATS_INFO TOTAL_LAYER=100
M83
M140 S100
M104 S260
M141 S60
G4 P3000
T0
G1 X108.000 Y1 F30000
G0 Z0.2 F600
;G1 E3 F1800
G90
M83
G0 X128 E8  F904.991
G0 X133 E.3742  F1508.32
G0 X138 E.3742  F6033.27
G0 X143 E.3742  F1508.32
G0 X148 E.3742  F6033.27
G0 X153 E.3742  F1508.32
G91
G1 X1 Z-0.300
G1 X4
G1 Z1 F1200
G90
M400
G1 X108.000 Y2.5 F30000
G0 Z0.2 F600
M83
G0 X128 E10  F904.991
G0 X133 E.3742  F1508.32
G0 X138 E.3742  F6033.27
G0 X143 E.3742  F1508.32
G0 X148 E.3742  F6033.27
G0 X153 E.3742  F1508.32
G91
G1 X1 Z-0.300
G1 X4
G1 Z1 F1200
G90
M400
G1 Z1 F600
M106 P3 S255
G90
G21
M83 ; use relative distances for extrusion
; Filament gcode
SET_PRESSURE_ADVANCE ADVANCE=0.025; Override pressure advance value
T0
M106 P2 S0
;LAYER_CHANGE
;Z:0.2
;HEIGHT:0.2
;BEFORE_LAYER_CHANGE
;0.2
G92 E0

G1 E-.8 F1800
 ; timelapse without wipe tower
TIMELAPSE_TAKE_FRAME

G92 E0
SET_PRINT_STATS_INFO CURRENT_LAYER=1
;_SET_FAN_SPEED_CHANGING_LAYER
SET_VELOCITY_LIMIT ACCEL=500
G1 X87.728 Y87.728 F30000
G1 Z.6
G1 Z.2
G1 E.8 F1800
;TYPE:Skirt
;WIDTH:0.44
G1 F3000
G1 X147.664 Y27.793 E2.65868
G1 X148.359 Y27.164 E.02941
G1 X149.295 Y26.474 E.03648
G1 X150.244 Y25.921 E.03444
G1 X151.16 Y25.505 E.03156
G1 X153.157 Y24.935 E.06512
G1 X154.248 Y24.797 E.03451
G1 X155.321 Y24.778 E.03364
G1 X157.3 Y25.026 E.06256
G1 X158.984 Y25.559 E.0554
G1 X159.845 Y25.961 E.02982
G1 X160.821 Y26.541 E.03562
G1 X162.27 Y27.713 E.05844
G1 X249.21 Y114.65 E3.8565
G1 X249.819 Y115.811 E.04112
G1 X249.658 Y117.113 E.04112
G1 X249.21 Y117.759 E.02467
G1 X117.76 Y249.21 E5.83099
G1 X116.598 Y249.818 E.04112
G1 X115.297 Y249.658 E.04112
G1 X114.65 Y249.21 E.02467
G1 X27.761 Y162.319 E3.85434
G1 X26.961 Y161.403 E.03815
G1 X26.248 Y160.357 E.0397
G1 X25.717 Y159.35 E.03573
G1 X25.234 Y158.082 E.04255
G1 X24.938 Y156.868 E.03919
G1 X24.777 Y155.369 E.04729
G1 X24.799 Y154.239 E.03545
G1 X24.95 Y153.082 E.03661
G1 X25.417 Y151.392 E.05498
G1 X25.972 Y150.146 E.04279
G1 X26.831 Y148.783 E.05053
G1 X27.784 Y147.673 E.04589
G1 X87.7 Y87.757 E2.65781
; printing object box - Part 4.step id:0 copy 0
G1 E-.56 F1800
;WIPE_START
G1 F3000
G1 X88.407 Y87.05 E-.24
;WIPE_END
EXCLUDE_OBJECT_START NAME=box_-_Part_4.step_id_0_copy_0
G1 X89.727 Y94.567 Z.6 F30000
G1 X116.205 Y245.417 Z.6
G1 Z.2
G1 E.8 F1800
;TYPE:Inner wall
;WIDTH:0.439999
G1 F3000
G1 X30.518 Y159.73 E3.80096
G1 X29.982 Y159.124 E.02538
G1 X29.464 Y158.364 E.02886
G1 X29.158 Y157.775 E.02082
G1 X28.842 Y156.942 E.02795
G1 X28.725 Y156.458 E.0156
G1 X28.61 Y155.839 E.01975
G1 X28.555 Y155.2 E.02012
G1 X28.568 Y154.57 E.01977
G1 X28.634 Y154.062 E.01606
G1 X28.765 Y153.37 E.0221
G1 X28.925 Y152.823 E.01786
G1 X29.148 Y152.256 E.01912
G1 X29.527 Y151.543 E.02532
G1 X29.875 Y151.03 E.01944
G1 X30.525 Y150.279 E.03118
G1 X150.289 Y30.515 E5.31257
G1 X150.736 Y30.107 E.01897
G1 X151.33 Y29.663 E.02325
G1 X152.015 Y29.264 E.02488
G1 X152.583 Y29.01 E.01951
G1 X153.581 Y28.714 E.03265
G1 X154.196 Y28.612 E.01956
G1 X154.902 Y28.563 E.02219
G1 X155.441 Y28.574 E.01692
M73 P0 R73
G1 X156.187 Y28.671 E.02359
G1 X156.731 Y28.783 E.01744
G1 X157.227 Y28.942 E.01632
G1 X157.895 Y29.219 E.02267
G1 X158.429 Y29.501 E.01895
G1 X159.14 Y30.014 E.02751
G1 X159.706 Y30.496 E.02331
G1 X245.417 Y116.205 E3.802
G1 X116.233 Y245.389 E5.73044
G1 X116.205 Y245.979 F30000
G1 F3000
G1 X30.229 Y160.003 E3.81379
G1 X29.668 Y159.368 E.02655
G1 X29.123 Y158.568 E.03039
G1 X28.795 Y157.937 E.02229
G1 X28.462 Y157.059 E.02946
G1 X28.339 Y156.551 E.01639
G1 X28.217 Y155.893 E.021
G1 X28.158 Y155.208 E.02156
G1 X28.171 Y154.54 E.02096
G1 X28.24 Y154.011 E.01674
G1 X28.379 Y153.276 E.02346
G1 X28.549 Y152.697 E.01891
G1 X28.789 Y152.086 E.02059
G1 X29.187 Y151.338 E.02657
G1 X29.56 Y150.788 E.02084
G1 X30.234 Y150.008 E.03236
G1 X150.015 Y30.228 E5.31331
G1 X150.482 Y29.801 E.01987
G1 X151.11 Y29.332 E.02458
G1 X151.834 Y28.91 E.02626
G1 X152.441 Y28.639 E.02086
G1 X152.971 Y28.468 E.01746
G1 X153.494 Y28.326 E.01702
G1 X154.147 Y28.218 E.02077
G1 X154.896 Y28.166 E.02353
G1 X155.467 Y28.178 E.01793
G1 X156.253 Y28.28 E.02486
G1 X156.833 Y28.399 E.01857
G1 X157.358 Y28.567 E.01728
G1 X158.06 Y28.858 E.02383
G1 X158.642 Y29.166 E.02065
G1 X159.597 Y29.854 E.03694
G1 X159.987 Y30.215 E.01664
G1 X245.979 Y116.205 E3.81445
G1 X116.233 Y245.95 E5.75535
G1 X116.205 Y246.54 F30000
M73 P1 R73
G1 F3000
G1 X29.94 Y160.275 E3.82663
G1 X29.354 Y159.613 E.02772
G1 X28.781 Y158.772 E.03191
G1 X28.432 Y158.1 E.02376
G1 X28.082 Y157.177 E.03097
G1 X27.953 Y156.644 E.01717
G1 X27.823 Y155.947 E.02225
G1 X27.761 Y155.216 E.02301
G1 X27.775 Y154.51 E.02215
G1 X27.846 Y153.959 E.01743
G1 X27.993 Y153.182 E.02482
G1 X28.173 Y152.571 E.01997
G1 X28.43 Y151.916 E.02207
G1 X28.846 Y151.133 E.02782
G1 X29.244 Y150.546 E.02224
G1 X29.943 Y149.737 E.03354
G1 X149.74 Y29.94 E5.31404
G1 X150.229 Y29.494 E.02076
G1 X150.891 Y29 E.0259
G1 X151.652 Y28.557 E.02764
G1 X152.299 Y28.268 E.02221
G1 X153.125 Y28.002 E.02723
G1 X153.704 Y27.872 E.01862
G1 X154.49 Y27.775 E.02483
G1 X155.235 Y27.764 E.02338
G1 X155.819 Y27.803 E.01834
G1 X156.447 Y27.91 E.01999
G1 X157.14 Y28.07 E.0223
G1 X157.791 Y28.298 E.02162
G1 X158.413 Y28.583 E.02148
G1 X158.856 Y28.83 E.0159
G1 X159.847 Y29.545 E.03835
G1 X160.268 Y29.934 E.01796
G1 X246.54 Y116.205 E3.82691
G1 X116.233 Y246.512 E5.78026
G1 X116.205 Y247.132 F30000
;TYPE:Outer wall
G1 F3000
G1 X29.635 Y160.562 E3.84016
G1 X29.023 Y159.87 E.02895
G1 X28.421 Y158.987 E.03352
G1 X28.049 Y158.271 E.02531
G1 X27.681 Y157.3 E.03257
G1 X27.462 Y156.394 E.02926
G1 X27.374 Y155.751 E.02034
G1 X27.342 Y155.225 E.01653
G1 X27.357 Y154.479 E.0234
G1 X27.484 Y153.505 E.03082
G1 X27.658 Y152.788 E.02314
G1 X27.849 Y152.22 E.01878
G1 X28.051 Y151.736 E.01645
G1 X28.487 Y150.916 E.02913
G1 X28.911 Y150.291 E.02371
G1 X29.637 Y149.452 E.03478
G1 X149.451 Y29.638 E5.31482
G1 X149.962 Y29.171 E.02171
G1 X150.659 Y28.65 E.0273
G1 X151.461 Y28.184 E.0291
G1 X152.149 Y27.876 E.02362
G1 X153.015 Y27.597 E.02855
G1 X153.633 Y27.46 E.01986
G1 X154.461 Y27.357 E.02618
G1 X155.246 Y27.346 E.02463
G1 X155.868 Y27.387 E.01954
G1 X156.517 Y27.497 E.02066
G1 X157.263 Y27.67 E.024
G1 X157.947 Y27.909 E.02275
G1 X158.603 Y28.21 E.02262
G1 X159.081 Y28.477 E.01718
G1 X160.111 Y29.219 E.03983
G1 X160.563 Y29.638 E.01934
G1 X247.132 Y116.205 E3.84004
G1 X116.233 Y247.104 E5.80652
G1 E-.56 F1800
;WIPE_START
G1 F3000
G1 X115.526 Y246.397 E-.24
;WIPE_END
G1 X117.009 Y238.91 Z.6 F30000
G1 X158.465 Y29.675 Z.6
G1 Z.2
G1 E.8 F1800
;TYPE:Bottom surface
;WIDTH:0.4406
G1 F6300
G1 X244.996 Y116.205 E3.8442
G1 X244.715 Y116.486 E.00766
G1 X157.673 Y29.445 E3.86688
G1 X157.382 Y29.312 E.00574
G1 X156.767 Y29.101 E.01478
G1 X244.433 Y116.767 E3.89467
G1 X244.152 Y117.049 E.00766
G1 X156.054 Y28.951 E3.91383
G1 X155.691 Y28.889 E.00693
G1 X155.411 Y28.87 E.00474
G1 X243.871 Y117.33 E3.92989
G1 X243.59 Y117.611 E.00766
G1 X154.841 Y28.862 E3.94275
G1 X154.565 Y28.866 E.00464
G1 X154.314 Y28.897 E.00408
G1 X243.309 Y117.892 E3.95368
G1 X243.027 Y118.173 E.00766
G1 X153.819 Y28.966 E3.96314
G1 X153.363 Y29.072 E.00954
G1 X242.746 Y118.455 E3.97091
G1 X242.465 Y118.736 E.00766
G1 X152.938 Y29.209 E3.97732
G1 X152.528 Y29.361 E.0087
G1 X242.184 Y119.017 E3.98304
G1 X241.903 Y119.298 E.00766
M73 P1 R72
G1 X152.14 Y29.536 E3.98777
G1 X151.785 Y29.743 E.00801
M73 P2 R72
G1 X241.621 Y119.579 E3.99107
G1 X241.34 Y119.861 E.00766
G1 X151.435 Y29.956 E3.9941
G1 X151.114 Y30.197 E.00777
G1 X241.059 Y120.142 E3.9959
G1 X240.778 Y120.423 E.00766
G1 X150.803 Y30.449 E3.9972
G1 X150.509 Y30.717 E.00767
G1 X240.497 Y120.704 E3.99777
G1 X240.215 Y120.985 E.00766
G1 X150.227 Y30.998 E3.9978
G1 X149.946 Y31.279 E.00766
G1 X239.934 Y121.267 E3.9978
G1 X239.653 Y121.548 E.00766
G1 X149.665 Y31.56 E3.9978
G1 X149.384 Y31.841 E.00766
G1 X239.372 Y121.829 E3.9978
G1 X239.091 Y122.11 E.00766
G1 X149.103 Y32.122 E3.9978
G1 X148.821 Y32.404 E.00766
G1 X238.809 Y122.391 E3.9978
G1 X238.528 Y122.673 E.00766
G1 X148.54 Y32.685 E3.9978
G1 X148.259 Y32.966 E.00766
G1 X238.247 Y122.954 E3.9978
G1 X237.966 Y123.235 E.00766
G1 X147.978 Y33.247 E3.9978
G1 X147.697 Y33.528 E.00766
G1 X237.685 Y123.516 E3.9978
G1 X237.403 Y123.798 E.00766
G1 X147.415 Y33.81 E3.9978
G1 X147.134 Y34.091 E.00766
G1 X237.122 Y124.079 E3.9978
G1 X236.841 Y124.36 E.00766
G1 X146.853 Y34.372 E3.9978
G1 X146.572 Y34.653 E.00766
G1 X236.56 Y124.641 E3.9978
G1 X236.279 Y124.922 E.00766
G1 X146.291 Y34.934 E3.9978
G1 X146.009 Y35.216 E.00766
G1 X235.997 Y125.204 E3.9978
G1 X235.716 Y125.485 E.00766
G1 X145.728 Y35.497 E3.9978
G1 X145.447 Y35.778 E.00766
G1 X235.435 Y125.766 E3.9978
G1 X235.154 Y126.047 E.00766
G1 X145.166 Y36.059 E3.9978
G1 X144.885 Y36.34 E.00766
G1 X234.872 Y126.328 E3.9978
G1 X234.591 Y126.61 E.00766
G1 X144.603 Y36.622 E3.9978
G1 X144.322 Y36.903 E.00766
G1 X234.31 Y126.891 E3.9978
G1 X234.029 Y127.172 E.00766
G1 X144.041 Y37.184 E3.9978
G1 X143.76 Y37.465 E.00766
G1 X233.748 Y127.453 E3.9978
G1 X233.466 Y127.734 E.00766
G1 X143.479 Y37.746 E3.9978
G1 X143.197 Y38.028 E.00766
G1 X233.185 Y128.016 E3.9978
G1 X232.904 Y128.297 E.00766
G1 X142.916 Y38.309 E3.9978
G1 X142.635 Y38.59 E.00766
M73 P3 R72
G1 X232.623 Y128.578 E3.9978
G1 X232.342 Y128.859 E.00766
G1 X142.354 Y38.871 E3.9978
G1 X142.073 Y39.152 E.00766
G1 X232.06 Y129.14 E3.9978
G1 X231.779 Y129.422 E.00766
G1 X141.791 Y39.434 E3.9978
G1 X141.51 Y39.715 E.00766
G1 X231.498 Y129.703 E3.9978
G1 X231.217 Y129.984 E.00766
G1 X141.229 Y39.996 E3.9978
G1 X140.948 Y40.277 E.00766
G1 X230.936 Y130.265 E3.9978
G1 X230.654 Y130.546 E.00766
G1 X140.667 Y40.558 E3.9978
G1 X140.385 Y40.84 E.00766
G1 X230.373 Y130.828 E3.9978
G1 X230.092 Y131.109 E.00766
M73 P3 R71
G1 X140.104 Y41.121 E3.9978
G1 X139.823 Y41.402 E.00766
G1 X229.811 Y131.39 E3.9978
G1 X229.53 Y131.671 E.00766
G1 X139.542 Y41.683 E3.9978
G1 X139.261 Y41.964 E.00766
G1 X229.248 Y131.952 E3.9978
G1 X228.967 Y132.234 E.00766
G1 X138.979 Y42.246 E3.9978
G1 X138.698 Y42.527 E.00766
G1 X228.686 Y132.515 E3.9978
G1 X228.405 Y132.796 E.00766
G1 X138.417 Y42.808 E3.9978
G1 X138.136 Y43.089 E.00766
G1 X228.124 Y133.077 E3.9978
G1 X227.842 Y133.358 E.00766
G1 X137.855 Y43.37 E3.9978
G1 X137.573 Y43.652 E.00766
G1 X227.561 Y133.64 E3.9978
G1 X227.28 Y133.921 E.00766
G1 X137.292 Y43.933 E3.9978
G1 X137.011 Y44.214 E.00766
G1 X226.999 Y134.202 E3.9978
G1 X226.718 Y134.483 E.00766
G1 X136.73 Y44.495 E3.9978
G1 X136.448 Y44.776 E.00766
G1 X226.436 Y134.764 E3.9978
G1 X226.155 Y135.046 E.00766
G1 X136.167 Y45.058 E3.9978
G1 X135.886 Y45.339 E.00766
G1 X225.874 Y135.327 E3.9978
G1 X225.593 Y135.608 E.00766
G1 X135.605 Y45.62 E3.9978
G1 X135.324 Y45.901 E.00766
G1 X225.312 Y135.889 E3.9978
G1 X225.03 Y136.17 E.00766
G1 X135.042 Y46.182 E3.9978
G1 X134.761 Y46.464 E.00766
G1 X224.749 Y136.452 E3.9978
G1 X224.468 Y136.733 E.00766
G1 X134.48 Y46.745 E3.9978
G1 X134.199 Y47.026 E.00766
G1 X224.187 Y137.014 E3.9978
G1 X223.906 Y137.295 E.00766
M73 P4 R71
G1 X133.918 Y47.307 E3.9978
G1 X133.636 Y47.588 E.00766
G1 X223.624 Y137.576 E3.9978
G1 X223.343 Y137.858 E.00766
G1 X133.355 Y47.87 E3.9978
G1 X133.074 Y48.151 E.00766
G1 X223.062 Y138.139 E3.9978
G1 X222.781 Y138.42 E.00766
G1 X132.793 Y48.432 E3.9978
G1 X132.512 Y48.713 E.00766
G1 X222.5 Y138.701 E3.9978
G1 X222.218 Y138.982 E.00766
G1 X132.23 Y48.994 E3.9978
G1 X131.949 Y49.276 E.00766
G1 X221.937 Y139.264 E3.9978
G1 X221.656 Y139.545 E.00766
G1 X131.668 Y49.557 E3.9978
G1 X131.387 Y49.838 E.00766
G1 X221.375 Y139.826 E3.9978
G1 X221.094 Y140.107 E.00766
G1 X131.106 Y50.119 E3.9978
G1 X130.824 Y50.4 E.00766
G1 X220.812 Y140.388 E3.9978
G1 X220.531 Y140.67 E.00766
G1 X130.543 Y50.682 E3.9978
G1 X130.262 Y50.963 E.00766
G1 X220.25 Y140.951 E3.9978
G1 X219.969 Y141.232 E.00766
G1 X129.981 Y51.244 E3.9978
G1 X129.7 Y51.525 E.00766
G1 X219.688 Y141.513 E3.9978
G1 X219.406 Y141.794 E.00766
G1 X129.418 Y51.807 E3.9978
G1 X129.137 Y52.088 E.00766
G1 X219.125 Y142.076 E3.9978
G1 X218.844 Y142.357 E.00766
G1 X128.856 Y52.369 E3.9978
G1 X128.575 Y52.65 E.00766
G1 X218.563 Y142.638 E3.9978
G1 X218.282 Y142.919 E.00766
M73 P4 R70
G1 X128.294 Y52.931 E3.9978
G1 X128.012 Y53.213 E.00766
G1 X218 Y143.2 E3.9978
G1 X217.719 Y143.482 E.00766
G1 X127.731 Y53.494 E3.9978
G1 X127.45 Y53.775 E.00766
G1 X217.438 Y143.763 E3.9978
G1 X217.157 Y144.044 E.00766
G1 X127.169 Y54.056 E3.9978
G1 X126.888 Y54.337 E.00766
G1 X216.876 Y144.325 E3.9978
G1 X216.594 Y144.606 E.00766
G1 X126.606 Y54.619 E3.9978
G1 X126.325 Y54.9 E.00766
G1 X216.313 Y144.888 E3.9978
G1 X216.032 Y145.169 E.00766
G1 X126.044 Y55.181 E3.9978
G1 X125.763 Y55.462 E.00766
G1 X215.751 Y145.45 E3.9978
G1 X215.47 Y145.731 E.00766
G1 X125.482 Y55.743 E3.9978
G1 X125.2 Y56.025 E.00766
G1 X215.188 Y146.012 E3.9978
G1 X214.907 Y146.294 E.00766
M73 P5 R70
G1 X124.919 Y56.306 E3.9978
G1 X124.638 Y56.587 E.00766
G1 X214.626 Y146.575 E3.9978
G1 X214.345 Y146.856 E.00766
G1 X124.357 Y56.868 E3.9978
G1 X124.076 Y57.149 E.00766
G1 X214.064 Y147.137 E3.9978
G1 X213.782 Y147.418 E.00766
G1 X123.794 Y57.431 E3.9978
G1 X123.513 Y57.712 E.00766
G1 X213.501 Y147.7 E3.9978
G1 X213.22 Y147.981 E.00766
G1 X123.232 Y57.993 E3.9978
G1 X122.951 Y58.274 E.00766
G1 X212.939 Y148.262 E3.9978
G1 X212.658 Y148.543 E.00766
G1 X122.67 Y58.555 E3.9978
G1 X122.388 Y58.837 E.00766
G1 X212.376 Y148.824 E3.9978
