; HEADER_BLOCK_START
; generated by OrcaSlicer 2.3.1 on 2025-10-31 at 22:37:10
; total layer number: 5
; filament_density: 1.02,1.02,1.02,1.24,1.24,1.24
; filament_diameter: 1.75,1.75,1.75,1.75,1.75,1.75
; max_z_height: 1.00
; HEADER_BLOCK_END

; THUMBNAIL_BLOCK_START

;
; THUMBNAIL_BLOCK_END

; external perimeters extrusion width = 0.62mm
; perimeters extrusion width = 0.62mm
; infill extrusion width = 0.62mm
; solid infill extrusion width = 0.62mm
; top infill extrusion width = 0.62mm
; first layer extrusion width = 0.62mm

; EXECUTABLE_BLOCK_START
EXCLUDE_OBJECT_DEFINE NAME=box_-_Filter_cover.step_id_0_copy_0 CENTER=135,135 POLYGON=[[123.2,122.2],[123.206,122.051],[123.222,121.902],[123.25,121.755],[123.289,121.61],[123.338,121.469],[123.398,121.332],[123.468,121.2],[123.548,121.073],[123.636,120.953],[123.734,120.84],[123.84,120.734],[123.953,120.636],[124.073,120.548],[124.2,120.468],[124.332,120.398],[124.469,120.338],[124.61,120.289],[124.755,120.25],[124.902,120.222],[125.051,120.206],[125.2,120.2],[144.8,120.2],[144.949,120.206],[145.098,120.222],[145.245,120.25],[145.39,120.289],[145.531,120.338],[145.668,120.398],[145.8,120.468],[145.927,120.548],[146.047,120.636],[146.16,120.734],[146.266,120.84],[146.364,120.953],[146.452,121.073],[146.532,121.2],[146.602,121.332],[146.662,121.469],[146.711,121.61],[146.75,121.755],[146.778,121.902],[146.794,122.051],[146.8,122.2],[146.8,147.8],[146.794,147.949],[146.778,148.098],[146.75,148.245],[146.711,148.39],[146.662,148.531],[146.602,148.668],[146.532,148.8],[146.452,148.927],[146.364,149.047],[146.266,149.16],[146.16,149.266],[146.047,149.364],[145.927,149.452],[145.8,149.532],[145.668,149.602],[145.531,149.662],[145.39,149.711],[145.245,149.75],[145.098,149.778],[144.949,149.794],[144.8,149.8],[125.2,149.8],[125.051,149.794],[124.902,149.778],[124.755,149.75],[124.61,149.711],[124.469,149.662],[124.332,149.602],[124.2,149.532],[124.073,149.452],[123.953,149.364],[123.84,149.266],[123.734,149.16],[123.636,149.047],[123.548,148.927],[123.468,148.8],[123.398,148.668],[123.338,148.531],[123.289,148.39],[123.25,148.245],[123.222,148.098],[123.206,147.949],[123.2,147.8],[123.2,122.2]]
M73 P0 R1
M106 S0
M106 P2 S0
;TYPE:Custom
PRINT_START BED=100 HOTEND=260 CHAMBER=60 EXTRUDER=0
SET_PRINT_STATS_INFO TOTAL_LAYER=5
M83
M140 S100
M104 S260
M141 S60
G4 P3000
T0
G1 X108.000 Y1 F30000
G0 Z0.2 F600
;G1 E3 F1800
G90
M83
G0 X128 E8  F692.496
G0 X133 E.3742  F1154.16
M73 P2 R1
G0 X138 E.3742  F4616.64
G0 X143 E.3742  F1154.16
G0 X148 E.3742  F4616.64
M73 P3 R1
G0 X153 E.3742  F1154.16
G91
G1 X1 Z-0.300
G1 X4
G1 Z1 F1200
G90
M400
G1 X108.000 Y2.5 F30000
G0 Z0.2 F600
M73 P4 R1
M83
G0 X128 E10  F692.496
G0 X133 E.3742  F1154.16
M73 P6 R1
G0 X138 E.3742  F4616.64
G0 X143 E.3742  F1154.16
G0 X148 E.3742  F4616.64
G0 X153 E.3742  F1154.16
G91
G1 X1 Z-0.300
M73 P7 R1
G1 X4
G1 Z1 F1200
G90
M400
G1 Z1 F600
M106 P3 S255
G90
G21
M83 ; use relative distances for extrusion
; Filament gcode
SET_PRESSURE_ADVANCE ADVANCE=0.015; Override pressure advance value
T0
M106 P2 S0
;LAYER_CHANGE
;Z:0.2
;HEIGHT:0.2
;BEFORE_LAYER_CHANGE
;0.2
G92 E0

 ; timelapse without wipe tower
TIMELAPSE_TAKE_FRAME

G92 E0
SET_PRINT_STATS_INFO CURRENT_LAYER=1
;_SET_FAN_SPEED_CHANGING_LAYER
SET_VELOCITY_LIMIT ACCEL=500
G1 E-.8 F1800
G1 X121.412 Y120.287 F30000
G1 Z.6
M73 P8 R1
G1 Z.2
G1 E.8 F1800
;TYPE:Skirt
;WIDTH:0.62
G1 F3000
G1 X121.61 Y119.856 E.02095
G1 X122.221 Y119.116 E.04239
G1 X122.982 Y118.53 E.04239
G1 X123.855 Y118.129 E.04238
G1 X124.794 Y117.931 E.04239
G1 X144.815 Y117.912 E.88382
G1 X145.524 Y117.974 E.0314
M73 P9 R1
G1 X146.287 Y118.178 E.03487
G1 X147.018 Y118.53 E.03582
G1 X147.653 Y118.999 E.03487
G1 X148.205 Y119.594 E.03582
G1 X148.625 Y120.263 E.03487
G1 X148.922 Y121.018 E.03582
G1 X149.069 Y121.794 E.03487
G1 X149.087 Y147.886 E1.15182
G1 X148.871 Y149.145 E.05642
G1 X148.39 Y150.144 E.04894
G1 X147.779 Y150.884 E.04239
G1 X146.869 Y151.555 E.04988
G1 X145.982 Y151.922 E.04239
G1 X145.035 Y152.081 E.04238
G1 X125.114 Y152.087 E.87941
G1 X123.855 Y151.871 E.05642
M73 P10 R1
G1 X122.856 Y151.39 E.04894
G1 X122.116 Y150.779 E.04239
G1 X121.515 Y149.991 E.04372
G1 X121.078 Y148.982 E.04855
G1 X120.919 Y148.035 E.04239
G1 X120.913 Y122.114 E1.14428
G1 X121.078 Y121.018 E.04894
M73 P11 R1
G1 X121.387 Y120.342 E.03282
; printing object box - Filter cover.step id:0 copy 0
G1 E-.8 F1800
EXCLUDE_OBJECT_START NAME=box_-_Filter_cover.step_id_0_copy_0
G1 X128.999 Y120.909 Z.6 F30000
G1 X141.145 Y121.814 Z.6
G1 Z.2
G1 E.8 F1800
;TYPE:Inner wall
;WIDTH:0.619999
G1 F3000
G1 X141.014 Y122.433 E.02792
G1 X141.002 Y123.116 E.03016
G1 X141.089 Y123.607 E.02201
G1 X141.335 Y124.248 E.03031
G1 X141.633 Y124.729 E.02499
;WIDTH:0.66227
G1 X141.693 Y124.827 E.00545
;WIDTH:0.704541
G1 X141.753 Y124.926 E.00582
;WIDTH:0.746811
G1 X141.812 Y125.024 E.00619
;WIDTH:0.789082
G1 X141.872 Y125.122 E.00656
;WIDTH:0.831352
G1 X141.932 Y125.22 E.00693
G1 X142.16 Y125.403 E.01764
;WIDTH:0.833242
G1 X142.577 Y125.69 E.03061
G1 X142.683 Y125.723 E.00668
;WIDTH:0.796318
G1 X142.788 Y125.756 E.00636
;WIDTH:0.759394
G1 X142.893 Y125.79 E.00605
;WIDTH:0.722469
G1 X143.073 Y125.833 E.00962
;WIDTH:0.688313
G1 X143.253 Y125.876 E.00914
;WIDTH:0.654156
G1 X143.433 Y125.919 E.00865
;WIDTH:0.619999
G1 X143.979 Y126.004 E.0244
G1 X144.532 Y125.994 E.02441
G1 X145.186 Y125.851 E.02956
M73 P12 R1
G1 X145.186 Y130.558 E.20779
G1 X144.676 Y129.528 E.05074
G1 X144.041 Y128.532 E.05215
G1 X143.391 Y127.719 E.04592
G1 X142.995 Y127.281 E.02605
;WIDTH:0.635739
G1 X142.509 Y126.796 E.03115
;WIDTH:0.676767
G1 X142.444 Y126.714 E.00505
;WIDTH:0.717794
G1 X142.38 Y126.632 E.00538
;WIDTH:0.758822
G1 X142.316 Y126.55 E.00571
;WIDTH:0.799849
G1 X142.252 Y126.468 E.00604
;WIDTH:0.840876
G1 X142.187 Y126.386 E.00636
G1 X141.859 Y126.133 E.02534
;WIDTH:0.831352
G1 X141.422 Y125.817 E.0325
G1 X141.324 Y125.771 E.00651
;WIDTH:0.793743
G1 X141.227 Y125.725 E.0062
;WIDTH:0.756134
G1 X141.129 Y125.68 E.00589
;WIDTH:0.718524
G1 X140.871 Y125.547 E.01498
;WIDTH:0.669262
G1 X140.613 Y125.414 E.01389
;WIDTH:0.619999
G1 X140.166 Y125.16 E.02269
G1 X139.549 Y124.86 E.0303
G1 X138.348 Y124.403 E.05674
G1 X137.588 Y124.192 E.03484
G1 X136.789 Y124.033 E.03593
G1 X135.689 Y123.905 E.04891
G1 X134.549 Y123.897 E.0503
G1 X133.67 Y123.966 E.03895
G1 X132.891 Y124.089 E.03482
G1 X132.122 Y124.266 E.03484
G1 X131.344 Y124.506 E.03593
G1 X130.317 Y124.918 E.04884
G1 X129.271 Y125.474 E.05228
G1 X128.328 Y126.114 E.05033
G1 X127.625 Y126.688 E.04006
G1 X126.839 Y127.453 E.04843
G1 X126.288 Y128.1 E.03751
G1 X125.821 Y128.735 E.03484
G1 X125.4 Y129.402 E.0348
G1 X125.026 Y130.097 E.03485
G1 X124.814 Y130.565 E.02269
G1 X124.814 Y122.351 E.36263
G1 X124.847 Y122.091 E.01158
M73 P13 R1
G1 X124.966 Y121.908 E.0096
G1 X125.199 Y121.819 E.01104
G1 X141.085 Y121.814 E.70128
G1 E-.8 F1800
G1 X142.814 Y129.248 Z.6 F30000
G1 X145.186 Y139.447 Z.6
G1 Z.2
M73 P14 R1
G1 E.8 F1800
G1 F3000
G1 X145.186 Y147.689 E.36385
G1 X145.1 Y148.019 E.01506
G1 X144.963 Y148.131 E.00781
G1 X144.715 Y148.186 E.0112
G1 X128.85 Y148.186 E.70037
G1 X128.968 Y147.703 E.02194
G1 X128.999 Y146.925 E.0344
G1 X128.913 Y146.426 E.02232
G1 X128.72 Y145.863 E.02628
;WIDTH:0.622214
G1 X128.36 Y145.254 E.03135
;WIDTH:0.66369
G1 X128.306 Y145.163 E.00503
;WIDTH:0.705166
G1 X128.252 Y145.072 E.00537
;WIDTH:0.746642
G1 X128.198 Y144.981 E.0057
;WIDTH:0.788118
G1 X128.144 Y144.889 E.00604
;WIDTH:0.829594
G1 X128.091 Y144.798 E.00638
G1 X127.543 Y144.387 E.04119
;WIDTH:0.82422
G1 X127.438 Y144.354 E.0066
;WIDTH:0.776492
G1 X127.332 Y144.322 E.00619
;WIDTH:0.728764
G1 X127.227 Y144.289 E.00579
M73 P15 R1
;WIDTH:0.681036
G1 X126.934 Y144.197 E.01502
;WIDTH:0.650518
G1 X126.64 Y144.104 E.0143
;WIDTH:0.619999
G1 X125.86 Y143.99 E.03481
G1 X125.35 Y144.021 E.02255
G1 X124.814 Y144.147 E.02431
G1 X124.814 Y139.432 E.20818
G1 X124.913 Y139.661 E.01103
G1 X125.419 Y140.636 E.04849
G1 X125.894 Y141.369 E.03856
G1 X126.569 Y142.245 E.04882
G1 X127.334 Y143.045 E.04887
;WIDTH:0.650518
G1 X127.542 Y143.246 E.01343
;WIDTH:0.681036
G1 X127.75 Y143.446 E.0141
;WIDTH:0.726347
G1 X127.889 Y143.594 E.01063
;WIDTH:0.771658
G1 X128.029 Y143.742 E.01134
;WIDTH:0.816969
G1 X128.169 Y143.889 E.01204
;WIDTH:0.829594
G1 X128.586 Y144.191 E.03098
G1 X128.687 Y144.237 E.00667
;WIDTH:0.79121
G1 X128.788 Y144.282 E.00634
;WIDTH:0.752826
G1 X128.889 Y144.328 E.00602
;WIDTH:0.714442
G1 X128.99 Y144.373 E.00569
;WIDTH:0.676058
G1 X129.267 Y144.523 E.01525
;WIDTH:0.648029
G1 X129.544 Y144.673 E.01457
;WIDTH:0.619999
G1 X130.032 Y144.94 E.02457
G1 X131.093 Y145.404 E.0511
G1 X131.865 Y145.661 E.03594
G1 X132.931 Y145.921 E.04842
G1 X133.771 Y146.045 E.0375
G1 X134.558 Y146.105 E.03484
G1 X135.356 Y146.107 E.03519
G1 X136.249 Y146.041 E.03953
G1 X137.303 Y145.872 E.04713
G1 X138.092 Y145.673 E.03595
G1 X139.14 Y145.317 E.04884
G1 X140.213 Y144.818 E.05224
G1 X141.161 Y144.248 E.04884
G1 X142.226 Y143.442 E.05898
G1 X143.025 Y142.691 E.0484
G1 X143.588 Y142.054 E.03754
G1 X144.081 Y141.405 E.03594
G1 X144.676 Y140.473 E.04884
G1 X145.159 Y139.501 E.04793
G1 E-.8 F1800
G1 X143.912 Y131.971 Z.6 F30000
G1 X142.13 Y121.217 Z.6
M73 P16 R1
G1 Z.2
G1 E.8 F1800
G1 F3000
G1 X141.994 Y121.385 E.00956
G1 X141.77 Y121.797 E.0207
G1 X141.62 Y122.268 E.02181
G1 X141.57 Y122.915 E.02865
G1 X141.648 Y123.465 E.02453
G1 X141.858 Y124.002 E.02546
G1 X142.101 Y124.391 E.02022
G1 X142.423 Y124.745 E.02114
G1 X142.807 Y125.022 E.02089
G1 X143.201 Y125.234 E.01975
G1 X143.795 Y125.401 E.02726
G1 X144.192 Y125.431 E.01758
G1 X144.746 Y125.378 E.02457
G1 X145.345 Y125.166 E.02805
G1 X145.783 Y124.872 E.02328
G1 X145.763 Y125.646 E.03415
G1 X145.763 Y132.591 E.30662
;WIDTH:0.665215
G1 X145.74 Y132.739 E.00709
;WIDTH:0.710431
G1 X145.718 Y132.886 E.0076
;WIDTH:0.755647
G1 X145.695 Y133.033 E.00812
;WIDTH:0.800863
G1 X145.673 Y133.18 E.00863
;WIDTH:0.846079
G1 X145.65 Y133.327 E.00915
;WIDTH:0.891294
G1 X145.627 Y133.474 E.00966
;WIDTH:0.93651
G1 X145.605 Y133.621 E.01018
M73 P17 R1
G1 X145.562 Y133.495 E.00913
;WIDTH:0.891294
G1 X145.518 Y133.369 E.00867
;WIDTH:0.846079
G1 X145.475 Y133.242 E.00821
;WIDTH:0.800863
G1 X145.432 Y133.116 E.00775
;WIDTH:0.755647
G1 X145.388 Y132.989 E.00728
;WIDTH:0.710431
G1 X145.345 Y132.863 E.00682
;WIDTH:0.665215
G1 X145.302 Y132.737 E.00636
;WIDTH:0.619999
G1 X144.946 Y131.519 E.05601
G1 X144.652 Y130.775 E.0353
G1 X144.173 Y129.812 E.04748
G1 X143.569 Y128.865 E.04958
G1 X142.826 Y127.953 E.05192
G1 X142.41 Y127.516 E.02665
G1 X141.988 Y127.117 E.02565
G1 X141.471 Y126.685 E.02975
G1 X140.563 Y126.051 E.04887
G1 X139.914 Y125.679 E.03302
G1 X139.297 Y125.379 E.0303
G1 X138.191 Y124.958 E.05222
G1 X137.471 Y124.757 E.03303
G1 X136.723 Y124.606 E.03368
G1 X135.654 Y124.482 E.0475
G1 X134.592 Y124.472 E.04689
G1 X133.757 Y124.537 E.03699
G1 X133.018 Y124.652 E.03301
G1 X132.288 Y124.818 E.03303
G1 X131.559 Y125.042 E.03368
G1 X130.561 Y125.442 E.04748
G1 X129.57 Y125.968 E.04951
G1 X128.69 Y126.563 E.04691
G1 X128.028 Y127.101 E.03766
G1 X127.261 Y127.847 E.04721
G1 X126.751 Y128.444 E.03465
G1 X126.307 Y129.046 E.03303
G1 X125.907 Y129.677 E.03299
G1 X125.552 Y130.336 E.03304
G1 X125.24 Y131.032 E.03366
G1 X124.882 Y132.052 E.04773
G1 X124.802 Y132.437 E.01737
;WIDTH:0.590346
G1 X124.722 Y132.822 E.01648
;WIDTH:0.560692
G1 X124.659 Y133.348 E.02096
;WIDTH:0.51949
G1 X124.595 Y133.873 E.0193
;WIDTH:0.478288
G1 X124.555 Y134.657 E.02613
;WIDTH:0.448726
G1 X124.557 Y135.399 E.02302
;WIDTH:0.476923
G1 X124.597 Y136.14 E.02466
;WIDTH:0.505888
G1 X124.637 Y136.511 E.01321
;WIDTH:0.534853
G1 X124.676 Y136.882 E.01403
;WIDTH:0.577426
G1 X124.735 Y137.251 E.01531
;WIDTH:0.619999
G1 X124.795 Y137.621 E.01653
G1 X125.012 Y138.353 E.03368
G1 X125.403 Y139.354 E.04748
G1 X125.918 Y140.345 E.04927
G1 X126.351 Y141.017 E.0353
G1 X127.007 Y141.868 E.04746
G1 X127.751 Y142.646 E.04751
G1 X128.142 Y142.982 E.02274
G1 X128.676 Y143.427 E.0307
G1 X129.331 Y143.873 E.03497
G1 X129.826 Y144.17 E.0255
G1 X130.266 Y144.413 E.02216
G1 X131.279 Y144.858 E.04885
G1 X132.002 Y145.101 E.03368
G1 X133.041 Y145.354 E.04721
G1 X133.817 Y145.47 E.03465
M73 P18 R1
G1 X134.563 Y145.528 E.03303
G1 X135.316 Y145.532 E.03324
G1 X136.16 Y145.471 E.03734
G1 X137.166 Y145.312 E.04495
G1 X137.906 Y145.127 E.03369
G1 X138.924 Y144.78 E.04748
G1 X139.942 Y144.308 E.04952
G1 X140.915 Y143.723 E.05012
G1 X141.831 Y143.021 E.05095
G1 X142.61 Y142.289 E.04718
G1 X143.131 Y141.701 E.03469
G1 X143.594 Y141.095 E.03368
G1 X144.173 Y140.188 E.04748
G1 X144.669 Y139.19 E.04923
G1 X144.953 Y138.457 E.03468
G1 X145.177 Y137.728 E.03365
;WIDTH:0.668512
G1 X145.234 Y137.583 E.00747
;WIDTH:0.717024
G1 X145.291 Y137.438 E.00805
;WIDTH:0.765537
G1 X145.349 Y137.293 E.00863
;WIDTH:0.814049
G1 X145.406 Y137.147 E.00921
;WIDTH:0.862561
G1 X145.464 Y137.002 E.00979
;WIDTH:0.911074
G1 X145.521 Y136.857 E.01037
;WIDTH:0.959586
G1 X145.578 Y136.712 E.01095
G1 X145.618 Y136.908 E.01402
;WIDTH:0.911074
G1 X145.642 Y137.055 E.00991
;WIDTH:0.862561
G1 X145.666 Y137.202 E.00935
;WIDTH:0.814049
G1 X145.69 Y137.349 E.0088
;WIDTH:0.765537
G1 X145.715 Y137.497 E.00825
;WIDTH:0.717024
G1 X145.739 Y137.644 E.00769
;WIDTH:0.668512
G1 X145.763 Y137.791 E.00714
;WIDTH:0.619999
G1 X145.763 Y147.649 E.43517
G1 X145.733 Y147.928 E.01242
G1 X145.649 Y148.209 E.01294
G1 X145.462 Y148.49 E.01488
G1 X145.1 Y148.703 E.01854
G1 X144.747 Y148.763 E.01577
G1 X128.606 Y148.764 E.71257
G1 X127.87 Y148.784 E.03253
M73 P19 R1
G1 X128.193 Y148.29 E.02605
G1 X128.354 Y147.845 E.02091
G1 X128.432 Y147.198 E.02874
G1 X128.345 Y146.525 E.02995
G1 X128.204 Y146.127 E.01863
G1 X127.944 Y145.668 E.02332
G1 X127.615 Y145.287 E.02222
G1 X127.147 Y144.938 E.02579
G1 X126.571 Y144.68 E.02784
G1 X126.08 Y144.583 E.0221
G1 X125.607 Y144.572 E.02091
G1 X124.99 Y144.694 E.02775
G1 X124.544 Y144.894 E.02158
G1 X124.217 Y145.132 E.01786
G1 X124.237 Y144.354 E.03434
G1 X124.237 Y137.62 E.2973
G1 X124.213 Y137.239 E.01685
;WIDTH:0.572887
G1 X124.19 Y136.858 E.01547
;WIDTH:0.525774
G1 X124.177 Y136.479 E.01402
;WIDTH:0.499438
G1 X124.163 Y136.099 E.01325
;WIDTH:0.473102
G1 X124.151 Y135.343 E.02488
;WIDTH:0.448722
G1 X124.151 Y134.587 E.02347
;WIDTH:0.478288
G1 X124.166 Y133.811 E.02587
;WIDTH:0.51949
G1 X124.194 Y133.126 E.02498
;WIDTH:0.560692
G1 X124.221 Y132.441 E.02714
;WIDTH:0.590346
G1 X124.229 Y132.219 E.0093
;WIDTH:0.619999
G1 X124.237 Y122.351 E.43565
G1 X124.29 Y121.919 E.01922
G1 X124.419 Y121.649 E.01322
G1 X124.721 Y121.371 E.0181
G1 X125.145 Y121.242 E.01956
M73 P20 R1
G1 X141.407 Y121.237 E.71789
G1 X142.07 Y121.218 E.02926
G1 E-.8 F1800
G1 X134.44 Y121.003 Z.6 F30000
G1 X124.747 Y120.73 Z.6
G1 Z.2
G1 E.8 F1800
;TYPE:Outer wall
G1 F3000
M73 P21 R1
G1 X125.091 Y120.665 E.01546
G1 X141.391 Y120.66 E.71957
G1 X142.4 Y120.63 E.04459
G1 X143.335 Y120.518 E.04157
;WIDTH:0.587064
G1 X143.698 Y120.478 E.01518
;WIDTH:0.554129
G1 X144.419 Y120.465 E.02821
;WIDTH:0.559156
G1 X144.706 Y120.487 E.01139
;WIDTH:0.588689
G1 X144.994 Y120.51 E.01204
;WIDTH:0.625117
G1 X145.415 Y120.631 E.01952
G1 X145.803 Y120.879 E.02051
;WIDTH:0.624633
G1 X146.173 Y121.271 E.02399
;WIDTH:0.619268
G1 X146.402 Y121.671 E.02033
;WIDTH:0.612167
G1 X146.519 Y122.282 E.02707
;WIDTH:0.552441
G1 X146.536 Y122.791 E.01986
;WIDTH:0.571163
G1 X146.514 Y123.469 E.02741
;WIDTH:0.619999
G1 X146.369 Y124.624 E.05138
G1 X146.34 Y125.646 E.04513
G1 X146.34 Y147.649 E.97133
G1 X146.268 Y148.253 E.02686
M73 P22 R1
G1 X146.067 Y148.67 E.02044
G1 X145.849 Y148.924 E.01476
G1 X145.613 Y149.085 E.01262
G1 X145.29 Y149.248 E.01596
G1 X144.78 Y149.34 E.0229
G1 X128.718 Y149.34 E.70905
G1 X127.612 Y149.369 E.04883
G1 X126.655 Y149.481 E.04254
;WIDTH:0.582272
G1 X126.213 Y149.528 E.01837
;WIDTH:0.544545
G1 X125.49 Y149.532 E.02773
;WIDTH:0.573405
G1 X125.121 Y149.478 E.01513
;WIDTH:0.611129
G1 X124.752 Y149.424 E.01621
;WIDTH:0.627314
G1 X124.302 Y149.199 E.02249
;WIDTH:0.633236
G1 X123.927 Y148.859 E.02284
G1 X123.686 Y148.505 E.01932
;WIDTH:0.617056
G1 X123.549 Y148.154 E.01656
