; HEADER_BLOCK_START
; generated by OrcaSlicer 2.3.1 on 2025-10-13 at 18:04:43
; total layer number: 22
; filament_density: 1.24,1.02,1.02,1.24,1.24,1.24
; filament_diameter: 1.75,1.75,1.75,1.75,1.75,1.75
; max_z_height: 4.40
; HEADER_BLOCK_END

; THUMBNAIL_BLOCK_START

;
; THUMBNAIL_BLOCK_END

; external perimeters extrusion width = 0.42mm
; perimeters extrusion width = 0.45mm
; infill extrusion width = 0.45mm
; solid infill extrusion width = 0.42mm
; top infill extrusion width = 0.42mm
; first layer extrusion width = 0.44mm

; EXECUTABLE_BLOCK_START
EXCLUDE_OBJECT_DEFINE NAME=box_-_Top.step_id_0_copy_0 CENTER=135,135 POLYGON=[[34.5,65],[235.5,65],[235.5,193.021],[235.497,193.31],[235.486,193.599],[235.462,193.978],[235.426,194.356],[235.378,194.733],[235.318,195.108],[235.246,195.481],[235.162,195.851],[235.067,196.219],[234.961,196.583],[234.842,196.943],[234.713,197.3],[234.572,197.652],[234.421,198],[234.258,198.342],[234.085,198.679],[233.901,199.011],[233.707,199.336],[233.503,199.655],[233.288,199.967],[233.064,200.272],[232.831,200.571],[232.588,200.861],[232.336,201.144],[232.075,201.418],[231.805,201.684],[231.528,201.941],[231.242,202.19],[230.949,202.429],[230.648,202.659],[230.34,202.879],[230.025,203.089],[229.704,203.289],[229.41,203.461],[229.11,203.624],[228.806,203.778],[228.498,203.924],[228.186,204.061],[227.87,204.189],[227.551,204.307],[227.228,204.417],[226.902,204.518],[226.573,204.609],[226.242,204.69],[225.909,204.763],[225.573,204.826],[225.236,204.879],[224.898,204.922],[224.558,204.956],[224.217,204.981],[223.876,204.995],[223.534,205],[46.4655,205],[46.2149,204.997],[45.9644,204.99],[45.5856,204.968],[45.2078,204.934],[44.8313,204.888],[44.4565,204.831],[44.0838,204.761],[43.7135,204.68],[43.3461,204.587],[42.9818,204.483],[42.6211,204.367],[42.2643,204.24],[41.9117,204.101],[41.5638,203.952],[41.2208,203.791],[40.883,203.62],[40.551,203.438],[40.2248,203.246],[39.9049,203.044],[39.5916,202.831],[39.2852,202.609],[38.986,202.377],[38.6943,202.136],[38.4104,201.886],[38.1346,201.626],[37.8671,201.358],[37.6337,201.11],[37.4075,200.855],[37.1886,200.594],[36.9772,200.327],[36.7735,200.053],[36.5777,199.774],[36.3899,199.49],[36.2102,199.2],[36.0389,198.905],[35.876,198.605],[35.7216,198.301],[35.576,197.993],[35.4392,197.68],[35.3114,197.364],[35.1926,197.044],[35.0829,196.72],[34.9824,196.394],[34.8913,196.065],[34.8096,195.733],[34.7373,195.399],[34.6745,195.063],[34.6213,194.725],[34.5777,194.386],[34.5437,194.046],[34.5194,193.705],[34.5049,193.363],[34.5,193.021],[34.5,65]]
M73 P0 R77
M106 S0
M106 P2 S0
;TYPE:Custom
PRINT_START BED=55 HOTEND=220 CHAMBER=0 EXTRUDER=0
SET_PRINT_STATS_INFO TOTAL_LAYER=22
M83
M140 S55
M104 S220
M141 S0
G4 P3000
T0
G1 X108.000 Y1 F30000
G0 Z0.2 F600
;G1 E3 F1800
G90
M83
G0 X128 E8  F1320
G0 X133 E.3742  F2200
G0 X138 E.3742  F8800
G0 X143 E.3742  F2200
G0 X148 E.3742  F8800
G0 X153 E.3742  F2200
G91
G1 X1 Z-0.300
G1 X4
G1 Z1 F1200
G90
M400
G1 X108.000 Y2.5 F30000
G0 Z0.2 F600
M83
G0 X128 E10  F1320
G0 X133 E.3742  F2200
G0 X138 E.3742  F8800
G0 X143 E.3742  F2200
G0 X148 E.3742  F8800
G0 X153 E.3742  F2200
G91
G1 X1 Z-0.300
G1 X4
G1 Z1 F1200
G90
M400
G1 Z1 F600
G90
G21
M83 ; use relative distances for extrusion
; Filament gcode
T0
M106 P2 S0
;LAYER_CHANGE
;Z:0.2
;HEIGHT:0.2
;BEFORE_LAYER_CHANGE
;0.2
G92 E0

G1 E-.8 F1800
 ; timelapse without wipe tower
TIMELAPSE_TAKE_FRAME

G92 E0
SET_PRINT_STATS_INFO CURRENT_LAYER=1
;_SET_FAN_SPEED_CHANGING_LAYER
SET_VELOCITY_LIMIT ACCEL=500
G1 X46.237 Y62.801 F30000
G1 Z.6
G1 Z.2
G1 E.8 F1800
;TYPE:Skirt
;WIDTH:0.44
G1 F3000
G1 X235.494 Y62.801 E5.93632
G1 X236.745 Y63.192 E.04112
G1 X237.552 Y64.226 E.04112
G1 X237.692 Y65 E.02467
G1 X237.677 Y193.67 E4.03593
G1 X237.482 Y195.448 E.05608
G1 X237.171 Y196.829 E.04442
G1 X236.581 Y198.524 E.05628
G1 X235.818 Y200.069 E.05407
G1 X235.054 Y201.26 E.04437
G1 X233.923 Y202.65 E.05621
G1 X232.679 Y203.841 E.05402
G1 X231.555 Y204.699 E.04435
G1 X229.796 Y205.73 E.06395
G1 X227.869 Y206.51 E.0652
G1 X225.573 Y207.043 E.07394
G1 X223.56 Y207.191 E.06332
G1 X46.198 Y207.188 E5.5632
G1 X44.504 Y207.053 E.05332
G1 X42.814 Y206.711 E.05408
G1 X41.467 Y206.278 E.04437
G1 X39.833 Y205.541 E.05622
G1 X38.307 Y204.603 E.0562
G1 X36.962 Y203.527 E.05402
G1 X35.769 Y202.307 E.05351
G1 X34.784 Y201.03 E.05061
G1 X33.739 Y199.232 E.06522
G1 X32.988 Y197.359 E.06329
G1 X32.456 Y195.06 E.07403
G1 X32.308 Y193.044 E.0634
G1 X32.308 Y65 E4.01629
G1 X32.698 Y63.749 E.04112
G1 X33.732 Y62.942 E.04112
G1 X34.506 Y62.801 E.02467
G1 X46.197 Y62.801 E.3667
; printing object box - Top.step id:0 copy 0
G1 E-.56 F1800
;WIPE_START
G1 F3000
G1 X47.197 Y62.801 E-.24
;WIPE_END
EXCLUDE_OBJECT_START NAME=box_-_Top.step_id_0_copy_0
G1 X54.734 Y64.006 Z.6 F30000
G1 X234.311 Y92.714 Z.6
G1 Z.2
G1 E.8 F1800
;TYPE:Inner wall
;WIDTH:0.439999
G1 F3000
G1 X234.319 Y179.995 E2.73769
G1 X233.628 Y179.841 E.02219
G1 X232.897 Y179.869 E.02296
G1 X232.39 Y179.999 E.0164
G1 X231.81 Y180.287 E.02033
G1 X231.399 Y180.612 E.01644
G1 X230.959 Y181.133 E.02138
G1 X230.717 Y181.597 E.01642
G1 X230.556 Y182.096 E.01644
G1 X230.489 Y182.648 E.01746
G1 X230.525 Y183.168 E.01635
G1 X230.658 Y183.679 E.01656
G1 X230.881 Y184.153 E.01643
G1 X231.2 Y184.607 E.01738
G1 X231.572 Y184.964 E.01618
G1 X232.058 Y185.276 E.01811
G1 X232.547 Y185.469 E.01648
G1 X233.222 Y185.589 E.0215
G1 X233.709 Y185.573 E.0153
G1 X234.312 Y185.423 E.01947
G1 X234.305 Y193.271 E.24617
G1 X234.274 Y193.874 E.01893
G1 X234.197 Y194.556 E.02153
G1 X234.077 Y195.24 E.02176
G1 X233.92 Y195.888 E.02091
G1 X233.595 Y196.877 E.03267
G1 X233.335 Y197.5 E.02117
G1 X233.033 Y198.113 E.02142
G1 X232.692 Y198.704 E.02141
G1 X232.319 Y199.266 E.02115
G1 X231.683 Y200.077 E.03234
G1 X230.973 Y200.825 E.03233
G1 X230.472 Y201.275 E.02113
G1 X229.937 Y201.697 E.02139
G1 X229.383 Y202.08 E.02113
G1 X228.82 Y202.42 E.02061
G1 X228.278 Y202.705 E.01922
G1 X227.719 Y202.96 E.01926
G1 X227.147 Y203.182 E.01926
G1 X226.57 Y203.369 E.01904
G1 X225.66 Y203.594 E.02937
G1 X225.069 Y203.696 E.01882
G1 X224.136 Y203.789 E.0294
G1 X223.512 Y203.807 E.01959
G1 X215.935 Y203.812 E.23768
G1 X216.055 Y203.498 E.01053
G1 X216.155 Y202.98 E.01656
G1 X216.148 Y202.299 E.02138
G1 X216.045 Y201.833 E.01496
G1 X215.841 Y201.345 E.0166
G1 X215.519 Y200.85 E.0185
G1 X215.167 Y200.491 E.0158
G1 X214.712 Y200.174 E.01737
G1 X214.233 Y199.961 E.01644
G1 X213.568 Y199.813 E.02138
G1 X213.046 Y199.812 E.01636
G1 X212.339 Y199.964 E.0227
G1 X211.858 Y200.18 E.01654
G1 X211.432 Y200.475 E.01626
G1 X211.071 Y200.838 E.01603
G1 X210.785 Y201.25 E.01575
G1 X210.551 Y201.79 E.01846
G1 X210.432 Y202.299 E.01639
G1 X210.408 Y202.781 E.01514
G1 X210.474 Y203.313 E.0168
G1 X210.642 Y203.81 E.01646
G1 X59.366 Y203.808 E4.74499
G1 X59.428 Y203.666 E.00484
G1 X59.583 Y203.022 E.02078
G1 X59.594 Y202.498 E.01646
G1 X59.473 Y201.827 E.02139
G1 X59.27 Y201.345 E.01641
G1 X58.857 Y200.751 E.02268
G1 X58.474 Y200.394 E.01641
G1 X58.028 Y200.111 E.01659
G1 X57.527 Y199.913 E.0169
G1 X56.998 Y199.813 E.01689
G1 X56.477 Y199.812 E.01637
G1 X55.773 Y199.962 E.02256
G1 X55.274 Y200.186 E.01715
G1 X54.861 Y200.475 E.0158
G1 X54.49 Y200.851 E.01657
G1 X54.168 Y201.346 E.01853
G1 X53.966 Y201.828 E.01638
G1 X53.861 Y202.299 E.01514
G1 X53.838 Y202.781 E.01514
G1 X53.895 Y203.261 E.01516
G1 X54.072 Y203.811 E.01813
G1 X46.024 Y203.796 E.25243
G1 X44.991 Y203.704 E.03255
G1 X44.325 Y203.591 E.02117
G1 X43.669 Y203.436 E.02116
G1 X42.679 Y203.118 E.03261
G1 X42.055 Y202.861 E.02117
G1 X41.143 Y202.399 E.03205
G1 X40.279 Y201.852 E.03208
G1 X39.465 Y201.221 E.03233
G1 X38.972 Y200.772 E.02092
G1 X38.312 Y200.072 E.03017
G1 X37.741 Y199.35 E.02885
G1 X37.234 Y198.581 E.02889
G1 X36.793 Y197.772 E.02891
G1 X36.424 Y196.928 E.0289
G1 X36.22 Y196.354 E.01909
G1 X35.97 Y195.451 E.02941
G1 X35.849 Y194.854 E.01909
G1 X35.763 Y194.251 E.0191
G1 X35.696 Y193.313 E.02949
G1 X35.686 Y185.393 E.24843
G1 X35.87 Y185.453 E.00605
G1 X36.39 Y185.568 E.01673
G1 X37.073 Y185.575 E.02141
G1 X37.585 Y185.466 E.01641
G1 X38.245 Y185.171 E.02268
G1 X38.766 Y184.771 E.02062
G1 X39.091 Y184.39 E.01569
G1 X39.356 Y183.932 E.0166
G1 X39.542 Y183.427 E.01689
G1 X39.628 Y182.899 E.01677
G1 X39.606 Y182.326 E.018
G1 X39.487 Y181.815 E.01644
G1 X39.259 Y181.288 E.01802
G1 X38.907 Y180.799 E.0189
G1 X38.539 Y180.454 E.01582
G1 X38.104 Y180.165 E.01639
G1 X37.661 Y179.974 E.01514
G1 X37.192 Y179.86 E.01514
G1 X36.71 Y179.826 E.01515
G1 X36.229 Y179.874 E.01517
G1 X35.685 Y180.036 E.0178
G1 X35.685 Y92.684 E2.73992
G1 X35.882 Y92.747 E.00648
G1 X36.39 Y92.858 E.01632
G1 X37.113 Y92.858 E.02266
G1 X37.774 Y92.695 E.02137
G1 X38.244 Y92.462 E.01644
G1 X38.751 Y92.077 E.01998
G1 X39.091 Y91.681 E.01637
G1 X39.356 Y91.223 E.0166
G1 X39.549 Y90.692 E.01771
G1 X39.629 Y90.154 E.01707
G1 X39.606 Y89.616 E.01688
G1 X39.487 Y89.106 E.01644
G1 X39.284 Y88.627 E.0163
G1 X38.993 Y88.187 E.01657
G1 X38.639 Y87.82 E.01598
G1 X38.229 Y87.523 E.01588
G1 X37.697 Y87.28 E.01834
G1 X37.192 Y87.151 E.01637
G1 X36.71 Y87.117 E.01515
G1 X36.229 Y87.164 E.01517
G1 X35.689 Y87.324 E.01765
G1 X35.692 Y66.186 E.66304
G1 X47.549 Y66.184 E.37193
G1 X47.389 Y66.535 E.01208
G1 X47.236 Y67.194 E.02125
G1 X47.224 Y67.71 E.01617
G1 X47.302 Y68.185 E.01509
G1 X47.534 Y68.792 E.02038
G1 X47.821 Y69.227 E.01635
G1 X48.216 Y69.64 E.01793
G1 X48.7 Y69.962 E.01823
G1 X49.183 Y70.158 E.01635
G1 X49.89 Y70.278 E.02249
G1 X50.395 Y70.255 E.01587
G1 X50.898 Y70.137 E.01619
G1 X51.381 Y69.919 E.01662
G1 X51.796 Y69.629 E.01588
G1 X52.165 Y69.249 E.01663
G1 X52.451 Y68.813 E.01635
G1 X52.698 Y68.185 E.02116
G1 X52.775 Y67.714 E.01498
G1 X52.764 Y67.193 E.01635
G1 X52.652 Y66.647 E.01747
G1 X52.45 Y66.182 E.01591
G1 X217.547 Y66.185 E5.17851
G1 X217.389 Y66.535 E.01202
G1 X217.236 Y67.194 E.02125
G1 X217.224 Y67.71 E.01617
G1 X217.302 Y68.185 E.01509
G1 X217.534 Y68.792 E.02038
G1 X217.821 Y69.227 E.01635
G1 X218.262 Y69.676 E.01975
G1 X218.7 Y69.962 E.01641
G1 X219.183 Y70.158 E.01635
G1 X219.839 Y70.279 E.02092
G1 X220.351 Y70.258 E.01608
G1 X220.826 Y70.157 E.01524
G1 X221.298 Y69.962 E.01601
G1 X221.702 Y69.703 E.01506
G1 X222.054 Y69.378 E.01501
G1 X222.402 Y68.911 E.01829
G1 X222.635 Y68.388 E.01793
G1 X222.757 Y67.884 E.01629
G1 X222.782 Y67.406 E.01501
G1 X222.674 Y66.739 E.02119
G1 X222.451 Y66.184 E.01875
G1 X234.308 Y66.186 E.37193
G1 X234.319 Y87.285 E.66182
G1 X233.628 Y87.132 E.02221
G1 X233.096 Y87.13 E.01669
G1 X232.466 Y87.263 E.02019
G1 X231.983 Y87.478 E.0166
G1 X231.427 Y87.873 E.02139
G1 X231.077 Y88.262 E.01641
G1 X230.746 Y88.81 E.02008
G1 X230.575 Y89.305 E.01643
G1 X230.499 Y89.823 E.01644
G1 X230.535 Y90.504 E.02139
G1 X230.675 Y91.008 E.01641
G1 X230.896 Y91.474 E.01618
G1 X231.206 Y91.904 E.01663
G1 X231.589 Y92.268 E.01657
G1 X232.091 Y92.579 E.01852
G1 X232.577 Y92.771 E.01638
G1 X233.05 Y92.865 E.01514
G1 X233.709 Y92.863 E.02067
G1 X234.273 Y92.723 E.0182
G1 X234.739 Y92.032 F30000
G1 F3000
G1 X234.706 Y92.894 E.02704
G1 X234.706 Y179.272 E2.7094
G1 X234.744 Y180.706 E.04498
G1 X234.597 Y180.581 E.00606
G1 X234.167 Y180.36 E.01515
G1 X233.558 Y180.232 E.01951
G1 X232.93 Y180.264 E.01973
G1 X232.505 Y180.379 E.0138
G1 X232.128 Y180.557 E.01306
G1 X231.711 Y180.86 E.01617
G1 X231.364 Y181.246 E.01631
G1 X231.106 Y181.688 E.01604
G1 X230.948 Y182.172 E.01598
G1 X230.889 Y182.608 E.01379
G1 X230.907 Y183.024 E.01306
G1 X230.994 Y183.431 E.01306
G1 X231.184 Y183.89 E.01559
G1 X231.479 Y184.317 E.01629
G1 X231.787 Y184.625 E.01367
G1 X232.132 Y184.864 E.01316
G1 X232.509 Y185.042 E.01308
G1 X233.098 Y185.179 E.01895
G1 X233.534 Y185.191 E.01368
G1 X233.951 Y185.125 E.01325
G1 X234.356 Y184.98 E.0135
G1 X234.739 Y184.742 E.01414
G1 X234.707 Y185.539 E.02503
G1 X234.702 Y193.282 E.24286
G1 X234.67 Y193.906 E.01962
G1 X234.591 Y194.613 E.0223
G1 X234.466 Y195.321 E.02255
G1 X234.302 Y195.996 E.0218
G1 X233.968 Y197.016 E.03366
G1 X233.697 Y197.665 E.02206
G1 X233.383 Y198.3 E.02221
G1 X233.03 Y198.913 E.0222
G1 X232.642 Y199.499 E.02203
G1 X231.984 Y200.337 E.03343
G1 X231.25 Y201.11 E.03342
G1 X230.728 Y201.579 E.02202
G1 X230.173 Y202.017 E.02218
G1 X229.599 Y202.414 E.0219
G1 X229.016 Y202.766 E.02136
G1 X228.453 Y203.062 E.01994
G1 X227.874 Y203.326 E.01997
G1 X227.28 Y203.556 E.01997
G1 X226.679 Y203.751 E.01984
G1 X225.742 Y203.983 E.03026
G1 X225.123 Y204.089 E.01971
G1 X224.162 Y204.185 E.03029
G1 X223.518 Y204.204 E.0202
G1 X215.778 Y204.209 E.24278
G1 X215.198 Y204.228 E.01821
G1 X215.389 Y203.984 E.00973
G1 X215.635 Y203.506 E.01686
G1 X215.742 Y203.098 E.01324
G1 X215.768 Y202.497 E.01888
G1 X215.699 Y202.066 E.01367
G1 X215.562 Y201.67 E.01316
G1 X215.251 Y201.156 E.01884
G1 X214.956 Y200.836 E.01367
G1 X214.609 Y200.574 E.01362
G1 X214.135 Y200.346 E.01652
G1 X213.616 Y200.216 E.01679
G1 X213.113 Y200.204 E.01578
G1 X212.531 Y200.314 E.01858
G1 X212.066 Y200.52 E.01594
G1 X211.703 Y200.768 E.01379
G1 X211.406 Y201.059 E.01306
G1 X211.131 Y201.445 E.01484
G1 X210.917 Y201.944 E.01704
G1 X210.822 Y202.373 E.01379
G1 X210.805 Y202.789 E.01306
G1 X210.858 Y203.203 E.01307
G1 X210.984 Y203.606 E.01324
G1 X211.186 Y203.985 E.01348
G1 X211.385 Y204.228 E.00984
G1 X211.065 Y204.21 E.01006
G1 X210.066 Y204.204 E.03133
G1 X59.727 Y204.204 E4.71557
G1 X58.628 Y204.228 E.03451
G1 X58.795 Y204.017 E.00845
G1 X59.032 Y203.581 E.01556
G1 X59.171 Y203.098 E.01577
G1 X59.207 Y202.681 E.01312
G1 X59.132 Y202.086 E.01882
G1 X58.935 Y201.557 E.01768
G1 X58.614 Y201.07 E.0183
G1 X58.239 Y200.716 E.01618
G1 X57.87 Y200.478 E.01378
G1 X57.486 Y200.317 E.01306
G1 X57.048 Y200.216 E.01409
G1 X56.542 Y200.204 E.01586
G1 X55.954 Y200.317 E.0188
G1 X55.496 Y200.52 E.01569
G1 X55.132 Y200.768 E.01382
G1 X54.798 Y201.101 E.0148
G1 X54.503 Y201.559 E.01709
G1 X54.338 Y201.966 E.01379
G1 X54.252 Y202.373 E.01306
G1 X54.235 Y202.789 E.01306
G1 X54.287 Y203.203 E.01307
G1 X54.412 Y203.602 E.01311
G1 X54.601 Y203.959 E.01266
G1 X54.814 Y204.228 E.01079
G1 X54.454 Y204.209 E.01131
M73 P0 R76
G1 X46.006 Y204.193 E.26497
G1 X44.94 Y204.098 E.03358
G1 X44.247 Y203.98 E.02206
G1 X43.562 Y203.819 E.02205
G1 X42.543 Y203.491 E.0336
G1 X41.889 Y203.222 E.02216
G1 X40.947 Y202.745 E.03313
G1 X40.051 Y202.177 E.03326
G1 X39.209 Y201.525 E.03341
G1 X38.693 Y201.055 E.02189
G1 X38.011 Y200.332 E.03119
G1 X37.419 Y199.583 E.02993
G1 X36.893 Y198.786 E.02996
G1 X36.437 Y197.946 E.02997
G1 X36.055 Y197.074 E.02987
G1 X35.841 Y196.474 E.01998
G1 X35.583 Y195.543 E.0303
G1 X35.458 Y194.921 E.01989
G1 X35.368 Y194.293 E.0199
G1 X35.299 Y193.328 E.03037
G1 X35.289 Y185.394 E.24886
G1 X35.266 Y184.661 E.023
G1 X35.47 Y184.823 E.00818
G1 X35.867 Y185.03 E.01404
G1 X36.278 Y185.151 E.01346
G1 X36.882 Y185.191 E.01898
G1 X37.439 Y185.097 E.01769
G1 X37.955 Y184.886 E.0175
G1 X38.395 Y184.571 E.01698
G1 X38.696 Y184.256 E.01366
G1 X38.968 Y183.834 E.01575
G1 X39.144 Y183.364 E.01574
G1 X39.226 Y182.919 E.01418
G1 X39.227 Y182.5 E.01315
G1 X39.136 Y182.009 E.01567
G1 X38.936 Y181.531 E.01623
G1 X38.658 Y181.114 E.01571
G1 X38.268 Y180.743 E.0169
G1 X37.899 Y180.504 E.01379
G1 X37.515 Y180.343 E.01306
G1 X37.109 Y180.249 E.01306
G1 X36.694 Y180.223 E.01306
G1 X36.279 Y180.267 E.01308
G1 X35.872 Y180.386 E.01329
G1 X35.486 Y180.586 E.01363
G1 X35.265 Y180.762 E.00889
G1 X35.295 Y179.564 E.03759
G1 X35.294 Y93.528 E2.69865
G1 X35.294 Y92.874 E.02051
G1 X35.264 Y91.95 E.029
G1 X35.47 Y92.113 E.00823
G1 X35.867 Y92.321 E.01405
G1 X36.278 Y92.442 E.01346
G1 X36.881 Y92.482 E.01895
G1 X37.494 Y92.371 E.01954
M73 P1 R76
G1 X37.902 Y92.203 E.01384
G1 X38.336 Y91.904 E.01652
G1 X38.695 Y91.548 E.01586
G1 X38.966 Y91.129 E.01564
G1 X39.15 Y90.639 E.01643
G1 X39.226 Y90.21 E.01367
G1 X39.227 Y89.804 E.01273
G1 X39.136 Y89.299 E.0161
G1 X38.936 Y88.822 E.01623
G1 X38.696 Y88.453 E.01379
G1 X38.453 Y88.193 E.01117
G1 X38.028 Y87.865 E.01684
G1 X37.536 Y87.643 E.01692
G1 X37.109 Y87.539 E.01378
G1 X36.694 Y87.513 E.01306
G1 X36.279 Y87.558 E.01308
G1 X35.872 Y87.677 E.01329
G1 X35.486 Y87.876 E.01363
