; HEADER_BLOCK_START
; generated by OrcaSlicer 2.3.1 on 2025-10-27 at 10:43:14
; total layer number: 22
; filament_density: 1.02,1.02,1.02,1.24,1.24,1.24
; filament_diameter: 1.75,1.75,1.75,1.75,1.75,1.75
; max_z_height: 4.40
; HEADER_BLOCK_END

; THUMBNAIL_BLOCK_START

;
; THUMBNAIL_BLOCK_END

; external perimeters extrusion width = 0.62mm
; perimeters extrusion width = 0.62mm
; infill extrusion width = 0.62mm
; solid infill extrusion width = 0.62mm
; top infill extrusion width = 0.62mm
; first layer extrusion width = 0.62mm

; external perimeters extrusion width = 0.62mm
; perimeters extrusion width = 0.62mm
; infill extrusion width = 0.62mm
; solid infill extrusion width = 0.62mm
; top infill extrusion width = 0.62mm
; first layer extrusion width = 0.62mm

; EXECUTABLE_BLOCK_START
EXCLUDE_OBJECT_DEFINE NAME=box_1_id_0_copy_0 CENTER=130.854,130.854 POLYGON=[[30.3538,72.8331],[30.3902,72.1365],[30.4193,71.5791],[30.615,70.3393],[30.9387,69.1274],[31.387,67.9564],[31.9551,66.8391],[32.6365,65.7877],[33.4241,64.8137],[34.3091,63.9276],[35.2821,63.1392],[36.3322,62.4569],[37.4482,61.8882],[38.6179,61.4394],[39.8284,61.1153],[41.0667,60.9194],[42.3193,60.8538],[219.388,60.8538],[220.641,60.9194],[221.879,61.1153],[223.09,61.4394],[224.259,61.8892],[224.278,61.8965],[225.375,62.4569],[226.426,63.1392],[227.399,63.9276],[228.284,64.8137],[229.071,65.7877],[229.753,66.8391],[230.321,67.9564],[230.769,69.1274],[230.978,69.9096],[231.093,70.3393],[231.288,71.5791],[231.317,72.1365],[231.354,72.8331],[231.354,200.854],[30.3538,200.854],[30.3538,72.8331]]
M73 P0 R86
M106 S0
M106 P2 S0
;TYPE:Custom
PRINT_START BED=100 HOTEND=260 CHAMBER=60 EXTRUDER=0
SET_PRINT_STATS_INFO TOTAL_LAYER=22
M83
M140 S100
M104 S260
M141 S60
G4 P3000
T0
G1 X108.000 Y1 F30000
G0 Z0.2 F600
;G1 E3 F1800
G90
M83
G0 X128 E8  F1320
G0 X133 E.3742  F2200
G0 X138 E.3742  F8800
G0 X143 E.3742  F2200
G0 X148 E.3742  F8800
G0 X153 E.3742  F2200
G91
G1 X1 Z-0.300
G1 X4
G1 Z1 F1200
G90
M400
G1 X108.000 Y2.5 F30000
G0 Z0.2 F600
M83
G0 X128 E10  F1320
G0 X133 E.3742  F2200
G0 X138 E.3742  F8800
G0 X143 E.3742  F2200
G0 X148 E.3742  F8800
G0 X153 E.3742  F2200
G91
G1 X1 Z-0.300
G1 X4
G1 Z1 F1200
G90
M400
G1 Z1 F600
M106 P3 S255
G90
G21
M83 ; use relative distances for extrusion
PAUSE Z=1



;_FORCE_RESUME_FAN_SPEED
T0
M104 S260 ; set nozzle temperature
; Filament gcode
SET_PRESSURE_ADVANCE ADVANCE=0.022; Override pressure advance value
M106 P2 S0
;LAYER_CHANGE
;Z:0.2
;HEIGHT:0.2
;BEFORE_LAYER_CHANGE
;0.2
G92 E0

 ; timelapse without wipe tower
TIMELAPSE_TAKE_FRAME

G92 E0
SET_PRINT_STATS_INFO CURRENT_LAYER=1
;_SET_FAN_SPEED_CHANGING_LAYER
SET_VELOCITY_LIMIT ACCEL=500
G1 E-.8 F1800
G1 X42.325 Y58.573 F30000
G1 Z.6
G1 Z.2
G1 E.8 F1800
;TYPE:Skirt
;WIDTH:0.62
G1 F3000
G1 X219.411 Y58.575 E7.81753
G1 X220.754 Y58.642 E.05939
G1 X222.231 Y58.863 E.0659
G1 X223.676 Y59.237 E.06589
G1 X225.075 Y59.761 E.06596
G1 X226.616 Y60.546 E.07636
G1 X227.86 Y61.369 E.06587
G1 X229.012 Y62.318 E.06587
G1 X230.057 Y63.383 E.06587
G1 X230.845 Y64.357 E.0553
G1 X231.667 Y65.602 E.06589
G1 X232.355 Y66.927 E.0659
G1 X232.974 Y68.544 E.07646
G1 X233.347 Y69.99 E.06592
G1 X233.568 Y71.468 E.06593
G1 X233.636 Y72.841 E.0607
G1 X233.636 Y200.854 E5.65121
G1 X233.245 Y202.134 E.05908
G1 X232.205 Y202.976 E.05908
G1 X231.348 Y203.142 E.03855
G1 X30.36 Y203.142 E8.87273
G1 X29.08 Y202.751 E.05908
M73 P0 R85
G1 X28.238 Y201.711 E.05908
G1 X28.071 Y200.854 E.03855
G1 X28.075 Y72.722 E5.65648
G1 X28.14 Y71.468 E.05543
G1 X28.361 Y69.99 E.06594
G1 X28.734 Y68.544 E.06592
G1 X29.256 Y67.146 E.0659
G1 X29.921 Y65.81 E.06589
G1 X30.722 Y64.551 E.06588
G1 X31.651 Y63.383 E.06587
G1 X32.696 Y62.318 E.06587
G1 X33.847 Y61.369 E.06587
G1 X35.299 Y60.426 E.07644
G1 X36.634 Y59.759 E.06587
G1 X37.804 Y59.311 E.05531
G1 X39.477 Y58.863 E.07645
G1 X40.953 Y58.642 E.0659
G1 X42.266 Y58.576 E.058
; printing object box (1) id:0 copy 0
G1 E-.8 F1800
EXCLUDE_OBJECT_START NAME=box_1_id_0_copy_0
G1 X47.079 Y64.499 Z.6 F30000
G1 X152.801 Y194.579 Z.6
G1 Z.2
G1 E.8 F1800
;TYPE:Outer wall
;WIDTH:0.53368
G1 F3000
G1 X152.347 Y194.37 E.01878
;WIDTH:0.554515
G1 X151.943 Y194.028 E.02068
;WIDTH:0.584074
G1 X151.631 Y193.613 E.02151
;WIDTH:0.603609
G1 X151.43 Y193.148 E.0217
;WIDTH:0.614369
G1 X151.298 Y192.568 E.02602
;WIDTH:0.622101
G1 X151.265 Y192.036 E.02364
G1 X151.287 Y191.342 E.03074
;WIDTH:0.619443
G1 X151.412 Y190.709 E.02848
;WIDTH:0.610119
G1 X151.646 Y190.133 E.02697
;WIDTH:0.578339
G1 X151.952 Y189.727 E.02082
;WIDTH:0.552978
G1 X152.365 Y189.406 E.02043
;WIDTH:0.522283
G1 X152.799 Y189.207 E.01748
;WIDTH:0.510899
G1 X153.305 Y189.107 E.01849
;WIDTH:0.505087
G1 X153.823 Y189.136 E.01835
;WIDTH:0.510432
G1 X154.212 Y189.228 E.01429
;WIDTH:0.540774
G1 X154.663 Y189.449 E.01912
;WIDTH:0.560503
G1 X155.066 Y189.806 E.02132
;WIDTH:0.581295
G1 X155.322 Y190.17 E.01832
;WIDTH:0.608493
G1 X155.522 Y190.648 E.0224
;WIDTH:0.612144
G1 X155.659 Y191.279 E.02814
;WIDTH:0.621684
G1 X155.687 Y191.782 E.02231
G1 X155.664 Y192.454 E.02976
;WIDTH:0.6193
G1 X155.552 Y193.058 E.02708
;WIDTH:0.611953
G1 X155.363 Y193.535 E.02233
;WIDTH:0.577039
G1 X155.09 Y193.966 E.02085
;WIDTH:0.560082
G1 X154.766 Y194.274 E.01766
;WIDTH:0.543315
G1 X154.319 Y194.524 E.01963
;WIDTH:0.51963
G1 X153.848 Y194.653 E.01781
;WIDTH:0.511272
G1 X153.253 Y194.665 E.02132
;WIDTH:0.514622
G1 X152.86 Y194.591 E.01446
G1 X152.647 Y193.94 F30000
;WIDTH:0.554515
G1 F3000
G1 X152.32 Y193.622 E.01784
;WIDTH:0.585492
G1 X152.091 Y193.228 E.01893
;WIDTH:0.600846
G1 X151.953 Y192.77 E.02041
;WIDTH:0.622101
G1 X151.886 Y192.036 E.03263
G1 X151.9 Y191.421 E.02726
;WIDTH:0.619443
G1 X151.986 Y190.909 E.02291
;WIDTH:0.610119
G1 X152.148 Y190.425 E.02213
;WIDTH:0.578339
G1 X152.371 Y190.088 E.01655
;WIDTH:0.549432
G1 X152.674 Y189.827 E.01549
;WIDTH:0.518745
G1 X152.923 Y189.702 E.01015
;WIDTH:0.510899
G1 X153.335 Y189.611 E.0151
;WIDTH:0.510593
G1 X153.853 Y189.65 E.01858
;WIDTH:0.531842
G1 X154.151 Y189.768 E.01199
;WIDTH:0.535096
G1 X154.479 Y189.986 E.01486
;WIDTH:0.56338
G1 X154.695 Y190.237 E.01317
;WIDTH:0.585336
G1 X154.867 Y190.564 E.01534
;WIDTH:0.611942
G1 X155.042 Y191.281 E.0321
;WIDTH:0.621684
G1 X155.065 Y191.782 E.0222
G1 X155.051 Y192.376 E.02634
;WIDTH:0.6193
G1 X154.961 Y192.891 E.02304
;WIDTH:0.611953
G1 X154.808 Y193.356 E.02131
;WIDTH:0.580412
G1 X154.577 Y193.707 E.01728
;WIDTH:0.547985
G1 X154.265 Y193.971 E.0158
;WIDTH:0.51596
G1 X153.907 Y194.129 E.01416
;WIDTH:0.501907
G1 X153.612 Y194.174 E.01046
;WIDTH:0.50135
G1 X153.1 Y194.137 E.01799
;WIDTH:0.53368
G1 X152.702 Y193.963 E.0163
G1 E-.8 F1800
G1 X145.074 Y193.718 Z.6 F30000
G1 X97.59 Y192.19 Z.6
G1 Z.2
G1 E.8 F1800
;WIDTH:0.856818
G1 F3000
G1 X98.294 Y192.19 E.04382
G1 E-.8 F1800
G1 X98.228 Y193.998 Z.6 F30000
G1 Z.2
G1 E.8 F1800
;WIDTH:0.547067
G1 F3000
G1 X98.363 Y193.908 E.00623
;WIDTH:0.577064
G1 X98.497 Y193.819 E.00661
;WIDTH:0.610026
G1 X98.556 Y193.682 E.00648
G1 X98.556 Y192.505 E.05106
;WIDTH:0.659385
G1 X98.504 Y192.442 E.00386
;WIDTH:0.708743
G1 X98.451 Y192.379 E.00417
;WIDTH:0.758102
G1 X98.399 Y192.316 E.00448
;WIDTH:0.80746
G1 X98.346 Y192.253 E.00479
;WIDTH:0.856818
G1 X98.294 Y192.19 E.0051
G1 X98.403 Y192.164 E.00699
;WIDTH:0.811906
G1 X98.512 Y192.137 E.0066
;WIDTH:0.766994
G1 X98.621 Y192.11 E.00622
;WIDTH:0.722081
G1 X98.73 Y192.083 E.00583
;WIDTH:0.677169
G1 X98.839 Y192.057 E.00544
;WIDTH:0.632256
G1 X99.155 Y192.057 E.01425
G1 X99.166 Y192.597 E.02438
;WIDTH:0.610026
G1 X99.166 Y193.961 E.05916
G1 X98.897 Y194.223 E.0163
;WIDTH:0.577064
G1 X98.66 Y194.351 E.01099
;WIDTH:0.548881
G1 X98.424 Y194.478 E.01041
;WIDTH:0.520697
G1 X97.938 Y194.614 E.01844
;WIDTH:0.494919
G1 X97.437 Y194.681 E.01748
;WIDTH:0.503659
G1 X96.935 Y194.67 E.01768
;WIDTH:0.515125
G1 X96.439 Y194.571 E.01826
;WIDTH:0.539024
G1 X95.968 Y194.344 E.01986
;WIDTH:0.571547
G1 X95.574 Y194.007 E.02097
;WIDTH:0.590679
G1 X95.332 Y193.679 E.01707
;WIDTH:0.612606
G1 X95.125 Y193.217 E.02206
;WIDTH:0.616467
G1 X94.987 Y192.618 E.02697
;WIDTH:0.626188
G1 X94.951 Y192.098 E.02326
G1 X94.973 Y191.269 E.03701
;WIDTH:0.619552
G1 X95.081 Y190.678 E.02651
;WIDTH:0.609886
G1 X95.222 Y190.292 E.01784
;WIDTH:0.595692
G1 X95.579 Y189.743 E.02768
;WIDTH:0.570233
G1 X95.978 Y189.409 E.02099
;WIDTH:0.53886
G1 X96.462 Y189.193 E.02011
;WIDTH:0.506065
G1 X96.885 Y189.112 E.01528
;WIDTH:0.492448
G1 X97.365 Y189.107 E.01651
;WIDTH:0.50067
G1 X97.804 Y189.171 E.01553
;WIDTH:0.527282
G1 X98.292 Y189.36 E.01938
;WIDTH:0.556673
G1 X98.654 Y189.631 E.01779
;WIDTH:0.577107
G1 X98.894 Y189.949 E.01627
G1 X99.127 Y190.529 E.02551
;WIDTH:0.569715
G1 X98.505 Y190.529 E.02504
G1 X98.476 Y190.412 E.00483
G1 X98.297 Y190.067 E.01568
;WIDTH:0.563278
G1 X98.028 Y189.815 E.01466
;WIDTH:0.53304
G1 X97.693 Y189.662 E.0138
;WIDTH:0.503374
G1 X97.405 Y189.602 E.01039
;WIDTH:0.495176
G1 X97.006 Y189.593 E.01379
;WIDTH:0.499317
G1 X96.718 Y189.642 E.01021
;WIDTH:0.515184
G1 X96.367 Y189.793 E.01381
;WIDTH:0.539971
G1 X96.144 Y189.957 E.01052
;WIDTH:0.569828
G1 X95.876 Y190.3 E.01757
;WIDTH:0.609886
G1 X95.678 Y190.802 E.02339
;WIDTH:0.614709
G1 X95.575 Y191.531 E.03222
;WIDTH:0.620018
G1 X95.604 Y192.575 E.04608
G1 X95.763 Y193.222 E.0294
;WIDTH:0.595589
G1 X95.934 Y193.548 E.0156
;WIDTH:0.57408
G1 X96.293 Y193.915 E.02084
;WIDTH:0.539024
G1 X96.702 Y194.119 E.01733
;WIDTH:0.50538
G1 X97.235 Y194.197 E.01907
;WIDTH:0.49137
G1 X97.736 Y194.161 E.01725
;WIDTH:0.517069
G1 X98.171 Y194.017 E.01661
G1 E-.8 F1800
G1 X105.803 Y193.984 Z.6 F30000
G1 X166.035 Y193.724 Z.6
G1 Z.2
G1 E.8 F1800
;WIDTH:0.602463
G1 F3000
G1 X166.127 Y193.472 E.01149
;WIDTH:0.610567
G1 X166.143 Y193.194 E.01211
G1 X165.987 Y192.77 E.01964
;WIDTH:0.579316
G1 X165.635 Y192.469 E.01898
;WIDTH:0.542727
G1 X165.13 Y192.236 E.02129
;WIDTH:0.547952
G1 X164.123 Y191.863 E.04145
;WIDTH:0.557812
G1 X163.682 Y191.623 E.01981
;WIDTH:0.586739
G1 X163.301 Y191.283 E.02124
;WIDTH:0.595598
G1 X163.138 Y191.025 E.01289
;WIDTH:0.607846
G1 X163.026 Y190.711 E.01442
G1 X163.039 Y190.248 E.02002
;WIDTH:0.607393
G1 X163.175 Y189.886 E.01668
;WIDTH:0.592715
G1 X163.475 Y189.543 E.0192
;WIDTH:0.556947
G1 X163.691 Y189.415 E.00985
;WIDTH:0.530579
G1 X163.906 Y189.287 E.00935
;WIDTH:0.504211
G1 X164.333 Y189.154 E.01579
;WIDTH:0.486729
G1 X164.884 Y189.091 E.01883
;WIDTH:0.496411
G1 X165.394 Y189.143 E.01779
;WIDTH:0.526521
G1 X165.832 Y189.284 E.01701
;WIDTH:0.549204
G1 X166.221 Y189.527 E.01776
;WIDTH:0.580398
G1 X166.589 Y189.973 E.02378
G1 X166.745 Y190.389 E.01828
G1 X166.09 Y190.389 E.02694
G1 X166.063 Y190.251 E.00579
G1 X165.832 Y189.903 E.01717
;WIDTH:0.549204
G1 X165.616 Y189.779 E.00965
;WIDTH:0.523585
G1 X165.399 Y189.655 E.00916
;WIDTH:0.497966
G1 X164.898 Y189.579 E.01765
;WIDTH:0.486729
G1 X164.41 Y189.634 E.01668
;WIDTH:0.500822
G1 X164.183 Y189.711 E.00839
;WIDTH:0.528885
G1 X164.004 Y189.843 E.00825
;WIDTH:0.556947
G1 X163.826 Y189.974 E.00872
;WIDTH:0.592561
G1 X163.669 Y190.236 E.01281
;WIDTH:0.607883
G1 X163.624 Y190.546 E.01354
G1 X163.714 Y190.861 E.01417
;WIDTH:0.584982
G1 X163.953 Y191.136 E.0151
;WIDTH:0.557812
G1 X164.515 Y191.446 E.02527
;WIDTH:0.539861
G1 X165.353 Y191.744 E.03382
;WIDTH:0.542727
G1 X165.875 Y191.982 E.02195
;WIDTH:0.570445
G1 X166.299 Y192.269 E.02065
;WIDTH:0.579316
G1 X166.474 Y192.461 E.01066
;WIDTH:0.614483
G1 X166.69 Y192.861 E.01989
G1 X166.753 Y193.179 E.01419
;WIDTH:0.610567
G1 X166.714 Y193.609 E.01873
;WIDTH:0.60232
G1 X166.582 Y193.968 E.01638
;WIDTH:0.592517
G1 X166.323 Y194.256 E.01628
;WIDTH:0.562106
G1 X165.924 Y194.506 E.0187
;WIDTH:0.520351
G1 X165.419 Y194.653 E.01922
;WIDTH:0.493499
G1 X164.854 Y194.689 E.0195
;WIDTH:0.487385
G1 X164.346 Y194.637 E.01737
G1 X164.121 Y194.577 E.0079
;WIDTH:0.51585
G1 X163.605 Y194.361 E.02026
;WIDTH:0.555874
G1 X163.209 Y194.028 E.02029
;WIDTH:0.584035
G1 X162.939 Y193.608 E.02069
G1 X162.842 Y193.283 E.01405
G1 X163.499 Y193.283 E.02721
G1 X163.537 Y193.489 E.00867
G1 X163.656 Y193.707 E.01029
;WIDTH:0.555874
G1 X163.889 Y193.936 E.01282
;WIDTH:0.51585
G1 X164.361 Y194.147 E.01871
;WIDTH:0.484175
G1 X164.894 Y194.21 E.01811
;WIDTH:0.493499
G1 X165.37 Y194.162 E.01649
;WIDTH:0.506719
G1 X165.606 Y194.084 E.00882
;WIDTH:0.54576
G1 X165.861 Y193.926 E.01154
;WIDTH:0.584995
G1 X165.995 Y193.77 E.00855
G1 E-.8 F1800
G1 X158.364 Y193.878 Z.6 F30000
G1 X130.373 Y194.274 Z.6
G1 Z.2
G1 E.8 F1800
;WIDTH:0.543314
G1 F3000
G1 X129.926 Y194.524 E.01963
;WIDTH:0.519631
G1 X129.455 Y194.653 E.01781
;WIDTH:0.511272
G1 X128.86 Y194.665 E.02132
;WIDTH:0.514623
G1 X128.407 Y194.579 E.01662
;WIDTH:0.533682
G1 X127.953 Y194.37 E.01878
;WIDTH:0.554516
G1 X127.55 Y194.028 E.02068
;WIDTH:0.584075
G1 X127.238 Y193.613 E.02151
;WIDTH:0.603611
G1 X127.037 Y193.148 E.0217
;WIDTH:0.614369
G1 X126.905 Y192.568 E.02602
;WIDTH:0.622103
G1 X126.871 Y192.036 E.02364
G1 X126.894 Y191.342 E.03074
;WIDTH:0.619443
G1 X127.019 Y190.709 E.02848
;WIDTH:0.610119
G1 X127.253 Y190.133 E.02697
;WIDTH:0.578339
G1 X127.559 Y189.727 E.02082
;WIDTH:0.552978
G1 X127.972 Y189.406 E.02043
;WIDTH:0.522282
G1 X128.405 Y189.207 E.01748
;WIDTH:0.510899
G1 X128.912 Y189.107 E.01849
;WIDTH:0.505087
G1 X129.43 Y189.136 E.01835
;WIDTH:0.510432
G1 X129.819 Y189.228 E.01429
;WIDTH:0.540776
G1 X130.27 Y189.449 E.01912
;WIDTH:0.560499
G1 X130.673 Y189.806 E.02132
;WIDTH:0.581289
G1 X130.929 Y190.17 E.01832
;WIDTH:0.608488
G1 X131.128 Y190.648 E.0224
;WIDTH:0.612139
G1 X131.266 Y191.279 E.02814
;WIDTH:0.621677
G1 X131.294 Y191.782 E.02231
G1 X131.271 Y192.454 E.02976
;WIDTH:0.619295
G1 X131.158 Y193.058 E.02708
;WIDTH:0.611946
G1 X130.97 Y193.535 E.02233
;WIDTH:0.577035
G1 X130.696 Y193.966 E.02085
;WIDTH:0.560078
G1 X130.417 Y194.232 E.01528
G1 E-.8 F1800
G1 X128.254 Y193.94 Z.6 F30000
G1 Z.2
G1 E.8 F1800
;WIDTH:0.554516
G1 F3000
G1 X127.927 Y193.622 E.01784
;WIDTH:0.585492
G1 X127.697 Y193.228 E.01893
;WIDTH:0.600846
G1 X127.56 Y192.77 E.02041
;WIDTH:0.622103
G1 X127.493 Y192.036 E.03263
G1 X127.507 Y191.421 E.02726
;WIDTH:0.619443
G1 X127.593 Y190.909 E.02291
;WIDTH:0.610119
G1 X127.755 Y190.425 E.02213
;WIDTH:0.578339
G1 X127.978 Y190.088 E.01655
;WIDTH:0.549434
G1 X128.281 Y189.827 E.01549
;WIDTH:0.518747
G1 X128.53 Y189.702 E.01015
;WIDTH:0.510899
G1 X128.942 Y189.611 E.0151
;WIDTH:0.510594
G1 X129.459 Y189.65 E.01858
;WIDTH:0.531843
G1 X129.758 Y189.768 E.01198
;WIDTH:0.535097
G1 X130.086 Y189.986 E.01486
;WIDTH:0.563376
G1 X130.302 Y190.237 E.01317
;WIDTH:0.585331
G1 X130.474 Y190.564 E.01534
;WIDTH:0.611936
G1 X130.649 Y191.281 E.03209
;WIDTH:0.621677
G1 X130.672 Y191.782 E.0222
G1 X130.658 Y192.376 E.02634
;WIDTH:0.619295
G1 X130.568 Y192.891 E.02304
;WIDTH:0.611946
G1 X130.415 Y193.356 E.02131
;WIDTH:0.580408
G1 X130.184 Y193.707 E.01728
;WIDTH:0.547981
G1 X129.872 Y193.971 E.0158
;WIDTH:0.515961
G1 X129.513 Y194.129 E.01416
;WIDTH:0.501906
G1 X129.219 Y194.174 E.01046
;WIDTH:0.50135
G1 X128.707 Y194.137 E.01799
;WIDTH:0.533682
G1 X128.309 Y193.963 E.0163
G1 E-.8 F1800
G1 X120.677 Y193.93 Z.6 F30000
G1 X74.148 Y193.724 Z.6
G1 Z.2
G1 E.8 F1800
;WIDTH:0.602462
G1 F3000
G1 X74.241 Y193.472 E.01149
;WIDTH:0.61057
G1 X74.256 Y193.194 E.01211
G1 X74.1 Y192.77 E.01964
;WIDTH:0.579312
G1 X73.749 Y192.469 E.01898
;WIDTH:0.542729
G1 X73.243 Y192.236 E.02129
;WIDTH:0.547954
G1 X72.237 Y191.863 E.04145
;WIDTH:0.55839
G1 X71.723 Y191.576 E.02321
;WIDTH:0.586109
G1 X71.349 Y191.201 E.022
;WIDTH:0.60668
G1 X71.16 Y190.787 E.01963
;WIDTH:0.610545
G1 X71.14 Y190.344 E.01927
G1 X71.204 Y190.064 E.01247
;WIDTH:0.601746
G1 X71.476 Y189.645 E.02136
;WIDTH:0.571818
G1 X71.659 Y189.481 E.00991
;WIDTH:0.542042
G1 X72.019 Y189.287 E.01565
;WIDTH:0.504211
G1 X72.447 Y189.154 E.01579
;WIDTH:0.486729
G1 X72.997 Y189.091 E.01883
;WIDTH:0.496411
G1 X73.508 Y189.143 E.01779
;WIDTH:0.526521
G1 X73.945 Y189.284 E.017
;WIDTH:0.549206
G1 X74.334 Y189.527 E.01775
;WIDTH:0.580398
G1 X74.702 Y189.973 E.02378
G1 X74.858 Y190.389 E.01828
G1 X74.203 Y190.389 E.02694
G1 X74.176 Y190.251 E.00579
G1 X73.945 Y189.903 E.01718
;WIDTH:0.549206
G1 X73.712 Y189.773 E.01032
