; HEADER_BLOCK_START
; generated by OrcaSlicer 2.3.1 on 2025-10-25 at 19:47:51
; total layer number: 22
; filament_density: 1.02,1.02,1.02,1.24,1.24,1.24
; filament_diameter: 1.75,1.75,1.75,1.75,1.75,1.75
; max_z_height: 4.40
; HEADER_BLOCK_END

; THUMBNAIL_BLOCK_START

;
; THUMBNAIL_BLOCK_END

; external perimeters extrusion width = 0.62mm
; perimeters extrusion width = 0.62mm
; infill extrusion width = 0.62mm
; solid infill extrusion width = 0.62mm
; top infill extrusion width = 0.62mm
; first layer extrusion width = 0.62mm

; external perimeters extrusion width = 0.62mm
; perimeters extrusion width = 0.62mm
; infill extrusion width = 0.62mm
; solid infill extrusion width = 0.62mm
; top infill extrusion width = 0.62mm
; first layer extrusion width = 0.62mm

; EXECUTABLE_BLOCK_START
EXCLUDE_OBJECT_DEFINE NAME=box_id_0_copy_0 CENTER=135,135 POLYGON=[[65,34.5],[193.021,34.5],[193.717,34.5364],[194.275,34.5655],[195.514,34.7611],[196.726,35.0849],[197.897,35.5332],[199.015,36.1012],[200.066,36.7827],[201.04,37.5703],[201.926,38.4553],[202.715,39.4282],[203.397,40.4784],[203.966,41.5944],[204.414,42.764],[204.739,43.9746],[204.934,45.2129],[205,46.4655],[205,223.534],[204.934,224.787],[204.739,226.025],[204.414,227.236],[203.965,228.405],[203.957,228.424],[203.397,229.522],[202.715,230.572],[201.926,231.545],[201.04,232.43],[200.066,233.217],[199.015,233.899],[197.897,234.467],[196.726,234.915],[195.514,235.239],[194.275,235.435],[193.717,235.464],[193.021,235.5],[65,235.5],[65,34.5]]
M73 P0 R95
M106 S0
M106 P2 S0
;TYPE:Custom
PRINT_START BED=100 HOTEND=260 CHAMBER=60 EXTRUDER=0
SET_PRINT_STATS_INFO TOTAL_LAYER=22
M83
M140 S100
M104 S260
M141 S60
G4 P3000
T0
G1 X108.000 Y1 F30000
G0 Z0.2 F600
;G1 E3 F1800
G90
M83
G0 X128 E8  F1080
G0 X133 E.3742  F1800
G0 X138 E.3742  F7200
G0 X143 E.3742  F1800
G0 X148 E.3742  F7200
G0 X153 E.3742  F1800
G91
G1 X1 Z-0.300
G1 X4
G1 Z1 F1200
G90
M400
G1 X108.000 Y2.5 F30000
G0 Z0.2 F600
M83
G0 X128 E10  F1080
G0 X133 E.3742  F1800
G0 X138 E.3742  F7200
G0 X143 E.3742  F1800
G0 X148 E.3742  F7200
G0 X153 E.3742  F1800
G91
G1 X1 Z-0.300
G1 X4
G1 Z1 F1200
G90
M400
G1 Z1 F600
M106 P3 S255
G90
G21
M83 ; use relative distances for extrusion
PAUSE Z=1



;_FORCE_RESUME_FAN_SPEED
T0
M104 S260 ; set nozzle temperature
; Filament gcode
SET_PRESSURE_ADVANCE ADVANCE=0.025; Override pressure advance value
M106 P2 S0
;LAYER_CHANGE
;Z:0.2
;HEIGHT:0.2
;BEFORE_LAYER_CHANGE
;0.2
G92 E0

G1 E-.8 F1800
 ; timelapse without wipe tower
TIMELAPSE_TAKE_FRAME

G92 E0
SET_PRINT_STATS_INFO CURRENT_LAYER=1
;_SET_FAN_SPEED_CHANGING_LAYER
SET_VELOCITY_LIMIT ACCEL=500
G1 X62.711 Y46.148 F30000
G1 Z.6
G1 Z.2
G1 E.8 F1800
;TYPE:Skirt
;WIDTH:0.62
G1 F3000
G1 X62.711 Y34.506 E.5307
G1 X63.103 Y33.226 E.061
G1 X64.143 Y32.384 E.061
G1 X65 Y32.218 E.03981
G1 X193.044 Y32.219 E5.83692
G1 X194.386 Y32.286 E.06125
G1 X195.863 Y32.507 E.06809
G1 X197.309 Y32.88 E.06807
G1 X198.708 Y33.402 E.06805
G1 X200.044 Y34.067 E.06804
G1 X201.303 Y34.868 E.06803
G1 X202.65 Y35.957 E.07894
G1 X203.536 Y36.842 E.05709
G1 X204.485 Y37.993 E.06801
G1 X205.308 Y39.238 E.06801
G1 X205.997 Y40.561 E.06802
G1 X206.617 Y42.178 E.07894
G1 X206.991 Y43.623 E.06803
G1 X207.212 Y45.099 E.06805
G1 X207.281 Y46.472 E.06263
G1 X207.281 Y223.528 E8.07116
G1 X207.187 Y225.139 E.07353
G1 X206.991 Y226.377 E.05715
G1 X206.617 Y227.822 E.06803
G1 X206.086 Y229.239 E.069
G1 X205.308 Y230.762 E.07796
G1 X204.485 Y232.007 E.06801
G1 X203.536 Y233.158 E.06802
G1 X202.471 Y234.203 E.06801
G1 X201.303 Y235.132 E.06802
G1 X200.252 Y235.813 E.05711
G1 X198.927 Y236.501 E.06805
G1 X197.309 Y237.12 E.07895
G1 X195.863 Y237.493 E.06807
G1 X194.386 Y237.714 E.06809
G1 X193.132 Y237.779 E.05724
G1 X65 Y237.782 E5.84093
G1 X63.72 Y237.391 E.061
G1 X62.878 Y236.351 E.061
G1 X62.711 Y235.494 E.03981
G1 X62.711 Y46.208 E8.62862
; printing object box id:0 copy 0
G1 E-.56 F1800
;WIPE_START
G1 F3000
G1 X62.711 Y45.208 E-.24
;WIPE_END
EXCLUDE_OBJECT_START NAME=box_id_0_copy_0
G1 X67.003 Y51.52 Z.6 F30000
G1 X179.831 Y217.467 Z.6
G1 Z.2
G1 E.8 F1800
;TYPE:Outer wall
;WIDTH:0.771284
G1 F3000
G1 X179.487 Y217.036 E.03174
;WIDTH:0.786603
G1 X179.195 Y216.46 E.03794
;WIDTH:0.817195
G1 X179.023 Y215.935 E.03383
G1 X178.946 Y215.489 E.02766
;WIDTH:0.830157
G1 X178.891 Y214.988 E.03135
G1 X178.908 Y213.861 E.07008
;WIDTH:0.825171
G1 X178.979 Y213.409 E.02831
;WIDTH:0.802539
G1 X179.09 Y212.91 E.03064
;WIDTH:0.798179
G1 X179.308 Y212.378 E.03428
;WIDTH:0.774752
G1 X179.573 Y211.939 E.02968
;WIDTH:0.764253
G1 X179.959 Y211.514 E.0327
;WIDTH:0.736326
G1 X180.433 Y211.178 E.03179
;WIDTH:0.699798
G1 X180.925 Y210.968 E.02776
;WIDTH:0.682218
G1 X181.184 Y210.904 E.01349
;WIDTH:0.675476
G1 X181.752 Y210.835 E.02859
;WIDTH:0.671636
G1 X182.341 Y210.878 E.02936
;WIDTH:0.684366
G1 X182.845 Y211.003 E.02627
;WIDTH:0.714257
G1 X183.432 Y211.299 E.03485
;WIDTH:0.739625
G1 X183.833 Y211.633 E.02876
;WIDTH:0.767436
G1 X184.176 Y212.062 E.03145
;WIDTH:0.782007
G1 X184.49 Y212.7 E.04147
;WIDTH:0.815092
G1 X184.643 Y213.185 E.03105
G1 X184.714 Y213.605 E.02595
;WIDTH:0.826082
G1 X184.773 Y214.382 E.04821
;WIDTH:0.828249
G1 X184.744 Y215.327 E.05868
G1 X184.584 Y216.17 E.05322
;WIDTH:0.802392
G1 X184.366 Y216.714 E.0352
;WIDTH:0.77813
G1 X184.103 Y217.155 E.0298
;WIDTH:0.766968
G1 X183.723 Y217.578 E.03252
;WIDTH:0.735282
G1 X183.139 Y217.98 E.03876
;WIDTH:0.697741
G1 X182.618 Y218.173 E.02873
;WIDTH:0.683119
G1 X182.011 Y218.268 E.03107
;WIDTH:0.669941
G1 X181.473 Y218.251 E.02668
;WIDTH:0.686361
G1 X180.857 Y218.11 E.03213
;WIDTH:0.71095
G1 X180.24 Y217.806 E.03626
;WIDTH:0.739232
G1 X179.878 Y217.506 E.0259
G1 E-.56 F1800
;WIPE_START
G1 F3000
G1 X179.487 Y217.036 E-.14652
G1 X179.311 Y216.689 E-.09349
;WIPE_END
G1 X180.697 Y211.84 Z.6 F30000
G1 Z.2
G1 E.8 F1800
;WIDTH:0.702283
G1 F3000
G1 X181.19 Y211.596 E.02865
;WIDTH:0.682218
G1 X181.713 Y211.511 E.02675
;WIDTH:0.677805
G1 X182.193 Y211.532 E.02408
;WIDTH:0.684366
G1 X182.553 Y211.622 E.01879
;WIDTH:0.714257
G1 X182.994 Y211.863 E.02664
;WIDTH:0.739625
G1 X183.268 Y212.109 E.02031
;WIDTH:0.767436
G1 X183.496 Y212.415 E.02179
;WIDTH:0.7836
G1 X183.741 Y212.929 E.03331
;WIDTH:0.80677
G1 X183.912 Y213.696 E.04742
;WIDTH:0.819609
G1 X183.955 Y214.352 E.04038
G1 X183.95 Y214.914 E.03446
;WIDTH:0.814874
G1 X183.841 Y215.84 E.05685
;WIDTH:0.801973
G1 X183.659 Y216.4 E.03532
;WIDTH:0.77813
G1 X183.358 Y216.903 E.03402
;WIDTH:0.741224
G1 X182.963 Y217.273 E.02988
;WIDTH:0.699482
G1 X182.567 Y217.481 E.02317
;WIDTH:0.678313
G1 X182.077 Y217.594 E.02528
;WIDTH:0.669941
G1 X181.597 Y217.593 E.02376
;WIDTH:0.686361
G1 X181.141 Y217.485 E.02383
;WIDTH:0.71095
G1 X180.681 Y217.248 E.02727
;WIDTH:0.739232
G1 X180.398 Y216.992 E.02102
;WIDTH:0.771284
G1 X180.17 Y216.68 E.02225
;WIDTH:0.786603
G1 X179.922 Y216.163 E.03367
;WIDTH:0.808499
G1 X179.749 Y215.393 E.04772
;WIDTH:0.815049
G1 X179.709 Y214.354 E.0634
;WIDTH:0.814605
G1 X179.761 Y213.598 E.04617
;WIDTH:0.805721
G1 X179.842 Y213.176 E.02592
;WIDTH:0.798179
G1 X180.01 Y212.695 E.03038
;WIDTH:0.774752
G1 X180.3 Y212.213 E.03254
;WIDTH:0.74136
G1 X180.654 Y211.881 E.02676
G1 E-.56 F1800
;WIPE_START
G1 F3000
G1 X181.19 Y211.596 E-.14585
G1 X181.578 Y211.533 E-.09415
;WIPE_END
G1 X173.945 Y211.547 Z.6 F30000
G1 X126.535 Y211.633 Z.6
G1 Z.2
G1 E.8 F1800
;WIDTH:0.767433
G1 F3000
G1 X126.878 Y212.062 E.03145
;WIDTH:0.782009
G1 X127.191 Y212.7 E.04146
;WIDTH:0.815098
G1 X127.344 Y213.185 E.03105
G1 X127.415 Y213.605 E.02597
;WIDTH:0.829988
G1 X127.473 Y214.15 E.03408
G1 X127.469 Y214.742 E.0368
;WIDTH:0.824995
G1 X127.455 Y215.255 E.03171
G1 X127.392 Y215.661 E.02534
;WIDTH:0.804875
G1 X127.286 Y216.17 E.03132
;WIDTH:0.80239
G1 X127.067 Y216.714 E.0352
;WIDTH:0.778125
G1 X126.804 Y217.155 E.02981
;WIDTH:0.766966
G1 X126.424 Y217.578 E.03252
;WIDTH:0.735287
G1 X125.84 Y217.98 E.03876
;WIDTH:0.697743
G1 X125.32 Y218.173 E.02873
;WIDTH:0.68312
G1 X124.713 Y218.268 E.03107
;WIDTH:0.66994
G1 X124.174 Y218.251 E.02668
;WIDTH:0.686359
G1 X123.558 Y218.11 E.03213
;WIDTH:0.710953
G1 X122.942 Y217.806 E.03626
;WIDTH:0.739232
G1 X122.533 Y217.467 E.0292
;WIDTH:0.771293
G1 X122.188 Y217.036 E.03174
;WIDTH:0.786609
G1 X121.897 Y216.46 E.03794
;WIDTH:0.817196
G1 X121.725 Y215.935 E.03383
G1 X121.647 Y215.489 E.02765
;WIDTH:0.830158
G1 X121.592 Y214.988 E.03135
G1 X121.609 Y213.861 E.07008
;WIDTH:0.825167
G1 X121.681 Y213.409 E.02831
;WIDTH:0.802535
G1 X121.792 Y212.91 E.03064
;WIDTH:0.798176
G1 X122.009 Y212.378 E.03428
;WIDTH:0.774752
G1 X122.274 Y211.939 E.02968
;WIDTH:0.764253
G1 X122.66 Y211.514 E.03271
;WIDTH:0.736329
G1 X123.134 Y211.178 E.03179
;WIDTH:0.699799
G1 X123.626 Y210.968 E.02776
;WIDTH:0.682218
G1 X123.885 Y210.904 E.01349
;WIDTH:0.675476
G1 X124.453 Y210.835 E.02859
;WIDTH:0.671636
G1 X125.043 Y210.878 E.02936
;WIDTH:0.684366
G1 X125.546 Y211.003 E.02627
;WIDTH:0.714259
G1 X126.133 Y211.299 E.03486
;WIDTH:0.739627
G1 X126.489 Y211.594 E.02546
G1 E-.56 F1800
;WIPE_START
G1 F3000
G1 X126.878 Y212.062 E-.14602
G1 X127.05 Y212.414 E-.09398
;WIPE_END
G1 X123.399 Y211.84 Z.6 F30000
G1 Z.2
G1 E.8 F1800
;WIDTH:0.702284
G1 F3000
G1 X123.892 Y211.596 E.02865
;WIDTH:0.682218
G1 X124.415 Y211.511 E.02675
;WIDTH:0.677805
G1 X124.894 Y211.532 E.02408
;WIDTH:0.684366
G1 X125.254 Y211.622 E.01879
;WIDTH:0.714259
G1 X125.695 Y211.863 E.02664
;WIDTH:0.739627
G1 X125.969 Y212.109 E.02031
;WIDTH:0.767433
G1 X126.197 Y212.415 E.02179
;WIDTH:0.783602
G1 X126.442 Y212.929 E.03331
;WIDTH:0.806769
G1 X126.613 Y213.696 E.04745
;WIDTH:0.815523
G1 X126.654 Y214.747 E.06417
G1 X126.607 Y215.475 E.04455
;WIDTH:0.808128
G1 X126.528 Y215.906 E.02651
;WIDTH:0.80239
G1 X126.361 Y216.4 E.03129
;WIDTH:0.778125
G1 X126.06 Y216.903 E.03403
;WIDTH:0.741226
G1 X125.664 Y217.273 E.02988
;WIDTH:0.699484
G1 X125.269 Y217.481 E.02317
;WIDTH:0.678315
G1 X124.778 Y217.594 E.02528
;WIDTH:0.66994
G1 X124.298 Y217.593 E.02376
;WIDTH:0.686359
G1 X123.842 Y217.485 E.02383
;WIDTH:0.710953
G1 X123.382 Y217.248 E.02727
;WIDTH:0.739232
G1 X123.099 Y216.992 E.02102
;WIDTH:0.771293
G1 X122.871 Y216.68 E.02225
;WIDTH:0.786609
G1 X122.624 Y216.163 E.03367
;WIDTH:0.808499
G1 X122.45 Y215.393 E.04772
;WIDTH:0.815048
G1 X122.41 Y214.354 E.0634
;WIDTH:0.814602
G1 X122.463 Y213.598 E.04617
;WIDTH:0.805716
G1 X122.544 Y213.176 E.02592
;WIDTH:0.798176
G1 X122.711 Y212.695 E.03038
;WIDTH:0.774752
G1 X123.002 Y212.213 E.03254
;WIDTH:0.741359
G1 X123.355 Y211.881 E.02676
G1 E-.56 F1800
;WIPE_START
G1 F3000
G1 X123.892 Y211.596 E-.14585
G1 X124.279 Y211.533 E-.09415
;WIPE_END
G1 X131.75 Y213.094 Z.6 F30000
G1 X136.386 Y214.063 Z.6
G1 Z.2
G1 E.8 F1800
;WIDTH:0.814235
G1 F3000
G1 X136.445 Y214.109 E.00454
;WIDTH:0.771054
G1 X136.503 Y214.155 E.00429
;WIDTH:0.727873
G1 X136.562 Y214.201 E.00403
;WIDTH:0.684692
G1 X136.621 Y214.247 E.00378
;WIDTH:0.657115
G1 X136.75 Y214.287 E.00659
G1 X139.59 Y214.287 E.13776
G1 X139.59 Y214.944 E.03188
G1 X136.75 Y214.944 E.13776
G1 X136.621 Y214.984 E.00659
;WIDTH:0.684692
G1 X136.562 Y215.045 E.0043
;WIDTH:0.727873
G1 X136.503 Y215.107 E.00459
;WIDTH:0.771054
G1 X136.445 Y215.168 E.00488
;WIDTH:0.814235
G1 X136.386 Y215.23 E.00517
G1 X136.386 Y218.093 E.17445
G1 X135.572 Y218.093 E.04961
G1 X135.572 Y215.23 E.17445
G1 X135.548 Y215.076 E.00947
;WIDTH:0.765676
G1 X135.523 Y214.923 E.00888
;WIDTH:0.717117
G1 X135.499 Y214.769 E.00828
;WIDTH:0.668558
G1 X135.475 Y214.615 E.00768
G1 X135.499 Y214.462 E.00768
;WIDTH:0.717117
G1 X135.523 Y214.308 E.00828
;WIDTH:0.765676
G1 X135.548 Y214.155 E.00888
;WIDTH:0.814235
G1 X135.572 Y214.001 E.00947
G1 X135.572 Y211.875 E.12952
G1 X135.548 Y211.774 E.00637
;WIDTH:0.765676
G1 X135.523 Y211.672 E.00597
;WIDTH:0.717117
G1 X135.499 Y211.57 E.00557
;WIDTH:0.668558
G1 X135.475 Y211.469 E.00517
;WIDTH:0.619999
G1 X135.475 Y210.911 E.02543
G1 X136.033 Y210.911 E.02543
;WIDTH:0.658851
G1 X136.75 Y210.93 E.03493
G1 X139.98 Y210.93 E.15711
G1 X139.98 Y211.589 E.03206
G1 X136.703 Y211.589 E.15943
;WIDTH:0.697697
G1 X136.624 Y211.661 E.00552
;WIDTH:0.736543
G1 X136.545 Y211.732 E.00585
;WIDTH:0.775389
G1 X136.465 Y211.804 E.00618
;WIDTH:0.814235
G1 X136.386 Y211.875 E.0065
G1 X136.386 Y214.003 E.1296
G1 E-.56 F1800
;WIPE_START
G1 F3000
G1 X136.445 Y214.109 E-.02908
G1 X136.503 Y214.155 E-.01789
G1 X136.562 Y214.201 E-.01789
G1 X136.621 Y214.247 E-.01789
G1 X136.75 Y214.287 E-.0326
G1 X137.27 Y214.287 E-.12465
;WIPE_END
G1 X136.064 Y211.415 Z.6 F30000
G1 Z.2
G1 E.8 F1800
;TYPE:Inner wall
;WIDTH:0.53871
G1 F3000
G1 X136.002 Y211.415 E.00243
G1 X135.971 Y211.469 E.00243
G1 X136.002 Y211.522 E.00243
G1 X136.064 Y211.522 E.00243
G1 X136.095 Y211.469 E.00243
G1 E-.61408 F1800
;WIPE_START
G1 F3000
G1 X136.064 Y211.522 E-.03718
G1 X136.002 Y211.522 E-.03718
G1 X135.971 Y211.469 E-.03718
G1 X136.002 Y211.415 E-.03718
G1 X136.064 Y211.415 E-.03718
;WIPE_END
G1 X136.141 Y214.547 Z.6 F30000
G1 Z.2
G1 E.8 F1800
;WIDTH:0.675932
G1 F3000
G1 X136.062 Y214.547 E.00396
G1 X136.022 Y214.615 E.00396
G1 X136.062 Y214.684 E.00396
G1 X136.141 Y214.684 E.00396
G1 X136.181 Y214.615 E.00396
G1 E-.56262 F1800
;WIPE_START
G1 F3000
G1 X136.141 Y214.684 E-.04748
G1 X136.062 Y214.684 E-.04748
G1 X136.022 Y214.615 E-.04748
G1 X136.062 Y214.547 E-.04748
G1 X136.141 Y214.547 E-.04748
;WIPE_END
G1 X143.768 Y214.831 Z.6 F30000
G1 X191.074 Y216.595 Z.6
G1 Z.2
G1 E.8 F1800
;WIDTH:0.614849
G1 F3000
G1 X191.392 Y216.69 E.015
G1 X191.512 Y216.654 E.00566
G1 X191.894 Y216.201 E.02679
G1 X191.894 Y217.594 E.06295
G1 X191.682 Y217.594 E.00958
G1 X191.105 Y216.647 E.05012
G1 E-.56 F1800
;WIPE_START
G1 F3000
G1 X191.392 Y216.69 E-.0697
G1 X191.512 Y216.654 E-.03006
G1 X191.889 Y216.207 E-.14024
;WIPE_END
G1 X187.284 Y212.928 Z.6 F30000
G1 Z.2
G1 E.8 F1800
;WIDTH:0.617942
G1 F3000
G1 X187.284 Y211.508 E.0645
G1 X187.495 Y211.508 E.00959
G1 X188.108 Y212.514 E.05348
G1 X187.791 Y212.42 E.01501
G1 X187.669 Y212.456 E.00579
G1 X187.284 Y213.004 E.03042
G1 X187.284 Y212.988 E.00074
G1 X188.076 Y213.03 F30000
;TYPE:Outer wall
;WIDTH:0.661413
G1 F3000
G1 X187.89 Y213.013 E.00911
;WIDTH:0.668577
G1 X187.817 Y213.077 E.00481
;WIDTH:0.717154
G1 X187.744 Y213.141 E.00518
;WIDTH:0.765731
G1 X187.671 Y213.205 E.00555
;WIDTH:0.814308
G1 X187.598 Y213.27 E.00593
G1 X187.598 Y218.093 E.29389
G1 X186.784 Y218.093 E.04961
G1 X186.784 Y213.27 E.29389
G1 X186.76 Y212.999 E.01658
;WIDTH:0.765731
G1 X186.735 Y212.728 E.01553
;WIDTH:0.717154
G1 X186.711 Y212.457 E.01449
;WIDTH:0.668577
G1 X186.687 Y212.186 E.01344
;WIDTH:0.619999
G1 X186.687 Y210.911 E.05813
G1 X187.831 Y210.911 E.05217
G1 X188.403 Y211.85 E.05015
;WIDTH:0.661413
G1 X188.646 Y212.288 E.02446
;WIDTH:0.702826
G1 X188.889 Y212.726 E.0261
G1 X190.923 Y216.064 E.20375
;WIDTH:0.702522
G1 X191.077 Y216.09 E.00815
;WIDTH:0.661261
G1 X191.231 Y216.116 E.00764
;WIDTH:0.669162
G1 X191.319 Y216.063 E.00506
;WIDTH:0.718324
G1 X191.406 Y216.01 E.00546
;WIDTH:0.767486
G1 X191.494 Y215.957 E.00586
;WIDTH:0.816648
G1 X191.582 Y215.904 E.00625
G1 X191.584 Y215.841 E.00386
;WIDTH:0.810768
G1 X191.584 Y211.006 E.29328
G1 X192.395 Y211.006 E.04918
G1 X192.395 Y211.411 E.02459
;WIDTH:0.81083
G1 X192.395 Y216.003 E.27852
G1 X192.419 Y216.233 E.01403
;WIDTH:0.763123
G1 X192.443 Y216.463 E.01316
;WIDTH:0.715415
G1 X192.466 Y216.693 E.01229
;WIDTH:0.667707
G1 X192.49 Y216.923 E.01141
;WIDTH:0.619999
G1 X192.49 Y218.19 E.05774
G1 X191.348 Y218.19 E.05209
G1 X190.781 Y217.26 E.04964
;WIDTH:0.661261
G1 X190.538 Y216.823 E.02444
;WIDTH:0.702522
G1 X190.296 Y216.385 E.02607
;WIDTH:0.702826
G1 X188.261 Y213.047 E.20376
G1 X188.136 Y213.035 E.00659
G1 E-.56 F1800
;WIPE_START
G1 F3000
G1 X187.89 Y213.013 E-.05913
G1 X187.817 Y213.077 E-.02335
G1 X187.744 Y213.141 E-.02335
G1 X187.671 Y213.205 E-.02335
G1 X187.598 Y213.27 E-.02335
G1 X187.598 Y213.634 E-.08749
;WIPE_END
G1 X179.966 Y213.691 Z.6 F30000
G1 X130.299 Y214.063 Z.6
G1 Z.2
G1 E.8 F1800
;WIDTH:0.814237
G1 F3000
G1 X130.358 Y214.109 E.00454
;WIDTH:0.771056
G1 X130.417 Y214.155 E.00429
;WIDTH:0.727874
G1 X130.475 Y214.201 E.00403
;WIDTH:0.684693
G1 X130.534 Y214.247 E.00378
