; HEADER_BLOCK_START
; generated by OrcaSlicer 2.3.0 on 2025-09-08 at 19:29:02
; total layer number: 135
;_GP_TOTAL_LAYER_NUMBER_PLACEHOLDER
; filament_density: 1.24,1.24,1.24,1.24,1.24,1.24
; filament_diameter: 1.75,1.75,1.75,1.75,1.75,1.75
; max_z_height: 27.00
; HEADER_BLOCK_END

; THUMBNAIL_BLOCK_START

;
; THUMBNAIL_BLOCK_END

; external perimeters extrusion width = 0.42mm
; perimeters extrusion width = 0.45mm
; infill extrusion width = 0.45mm
; solid infill extrusion width = 0.42mm
; top infill extrusion width = 0.42mm
; first layer extrusion width = 0.50mm

; EXECUTABLE_BLOCK_START
EXCLUDE_OBJECT_DEFINE NAME=Cube_id_0_copy_0 CENTER=135,135 POLYGON=[[105,105],[165,105],[165,165],[105,165],[105,105]]
M73 P0 R44
M106 S0
M106 P2 S0
;TYPE:Custom
PRINT_START BED=55 HOTEND=220 CHAMBER=0 EXTRUDER=2
SET_PRINT_STATS_INFO TOTAL_LAYER=135
M83
M140 S55
M104 S220
M141 S0
G4 P3000
T2
G1 X108.000 Y1 F30000
G0 Z0.2 F600
;G1 E3 F1800
G90
M83
G0 X128 E8  F900
G0 X133 E.3742  F1500
G0 X138 E.3742  F6000
G0 X143 E.3742  F1500
G0 X148 E.3742  F6000
G0 X153 E.3742  F1500
G91
G1 X1 Z-0.300
G1 X4
G1 Z1 F1200
G90
M400
G1 X108.000 Y2.5 F30000
G0 Z0.2 F600
M83
G0 X128 E10  F900
G0 X133 E.3742  F1500
G0 X138 E.3742  F6000
G0 X143 E.3742  F1500
G0 X148 E.3742  F6000
G0 X153 E.3742  F1500
G91
G1 X1 Z-0.300
G1 X4
G1 Z1 F1200
G90
M400
G1 Z1 F600
G90
G21
M83 ; use relative distances for extrusion
G1 Z3 F1200
TOOL_CHANGE_START F=2 T=2
DISABLE_ALL_SENSOR
;_FORCE_RESUME_FAN_SPEED
T2
M104 S220 ; set nozzle temperature
; Filament gcode
M106 P2 S0
;LAYER_CHANGE
;Z:0.2
;HEIGHT:0.2
;BEFORE_LAYER_CHANGE
;0.2
G92 E0

G1 E-.8 F1800
 ; timelapse without wipe tower
TIMELAPSE_TAKE_FRAME

G92 E0
SET_PRINT_STATS_INFO CURRENT_LAYER=1
;_SET_FAN_SPEED_CHANGING_LAYER
SET_VELOCITY_LIMIT ACCEL=500
G1 Z.6 F30000
G1 X103.392 Y103.557
G1 Z.2
G1 E.8 F1800
;TYPE:Skirt
;WIDTH:0.5
G1 F3000
G1 X104.198 Y102.921 E.03708
G1 X105 Y102.771 E.02944
G1 X165 Y102.771 E2.16636
G1 X166.261 Y103.162 E.04767
G1 X167.079 Y104.198 E.04767
G1 X167.229 Y105 E.02944
G1 X167.229 Y165 E2.16636
G1 X166.838 Y166.261 E.04767
G1 X165.802 Y167.079 E.04767
G1 X165 Y167.229 E.02944
G1 X105 Y167.229 E2.16636
G1 X103.739 Y166.838 E.04767
G1 X102.921 Y165.802 E.04767
G1 X102.771 Y165 E.02944
G1 X102.771 Y105 E2.16636
G1 X103.162 Y103.739 E.04767
G1 X103.361 Y103.582 E.00914
; printing object Cube id:0 copy 0
G1 E-.56 F1800
;WIPE_START
G1 F3000
G1 X104.146 Y102.962 E-.24
;WIPE_END
EXCLUDE_OBJECT_START NAME=Cube_id_0_copy_0
G1 Z.6 F30000
G1 X163.686 Y163.686 Z.6
G1 Z.2
G1 E.8 F1800
;TYPE:Inner wall
;WIDTH:0.499999
G1 F3000
G1 X106.314 Y163.686 E2.07146
G1 X106.314 Y106.314 E2.07146
G1 X163.686 Y106.314 E2.07146
G1 X163.686 Y163.646 E2.07002
G1 X164.143 Y164.143 F30000
G1 F3000
G1 X105.857 Y164.143 E2.10447
G1 X105.857 Y105.857 E2.10447
G1 X164.143 Y105.857 E2.10447
G1 X164.143 Y164.103 E2.10302
G1 X164.6 Y164.6 F30000
;TYPE:Outer wall
G1 F3000
G1 X105.4 Y164.6 E2.13747
G1 X105.4 Y105.4 E2.13747
G1 X164.6 Y105.4 E2.13747
G1 X164.6 Y164.56 E2.13603
M73 P1 R44
G1 E-.56 F1800
;WIPE_START
G1 F3000
G1 X163.6 Y164.561 E-.24
;WIPE_END
G1 Z.6 F30000
G1 X163.549 Y107.38 Z.6
G1 Z.2
G1 E.8 F1800
;TYPE:Bottom surface
;WIDTH:0.502082
G1 F6300
G1 X162.826 Y106.657 E.03707
G1 X162.177 Y106.657 E.02355
G1 X163.343 Y107.823 E.05983
G1 X163.343 Y108.473 E.02355
G1 X161.527 Y106.657 E.09314
G1 X160.878 Y106.657 E.02355
G1 X163.343 Y109.122 E.12644
G1 X163.343 Y109.771 E.02355
G1 X160.229 Y106.657 E.15975
G1 X159.579 Y106.657 E.02355
G1 X163.343 Y110.421 E.19306
G1 X163.343 Y111.07 E.02355
G1 X158.93 Y106.657 E.22637
G1 X158.281 Y106.657 E.02355
G1 X163.343 Y111.719 E.25968
G1 X163.343 Y112.369 E.02355
G1 X157.631 Y106.657 E.29298
G1 X156.982 Y106.657 E.02355
G1 X163.343 Y113.018 E.32629
G1 X163.343 Y113.668 E.02355
G1 X156.332 Y106.657 E.3596
G1 X155.683 Y106.657 E.02355
G1 X163.343 Y114.317 E.39291
G1 X163.343 Y114.966 E.02355
G1 X155.034 Y106.657 E.42622
G1 X154.384 Y106.657 E.02355
G1 X163.343 Y115.616 E.45953
G1 X163.343 Y116.265 E.02355
G1 X153.735 Y106.657 E.49283
G1 X153.086 Y106.657 E.02355
G1 X163.343 Y116.914 E.52614
G1 X163.343 Y117.564 E.02355
G1 X152.436 Y106.657 E.55945
G1 X151.787 Y106.657 E.02355
G1 X163.343 Y118.213 E.59276
G1 X163.343 Y118.862 E.02355
G1 X151.138 Y106.657 E.62607
G1 X150.488 Y106.657 E.02355
G1 X163.343 Y119.512 E.65937
G1 X163.343 Y120.161 E.02355
G1 X149.839 Y106.657 E.69268
G1 X149.19 Y106.657 E.02355
G1 X163.343 Y120.81 E.72599
G1 X163.343 Y121.46 E.02355
G1 X148.54 Y106.657 E.7593
G1 X147.891 Y106.657 E.02355
G1 X163.343 Y122.109 E.79261
G1 X163.343 Y122.758 E.02355
G1 X147.242 Y106.657 E.82591
G1 X146.592 Y106.657 E.02355
G1 X163.343 Y123.408 E.85922
G1 X163.343 Y124.057 E.02355
G1 X145.943 Y106.657 E.89253
G1 X145.293 Y106.657 E.02355
G1 X163.343 Y124.707 E.92584
G1 X163.343 Y125.356 E.02355
G1 X144.644 Y106.657 E.95915
G1 X143.995 Y106.657 E.02355
G1 X163.343 Y126.005 E.99245
G1 X163.343 Y126.655 E.02355
G1 X143.345 Y106.657 E1.02576
G1 X142.696 Y106.657 E.02355
G1 X163.343 Y127.304 E1.05907
G1 X163.343 Y127.953 E.02355
G1 X142.047 Y106.657 E1.09238
G1 X141.397 Y106.657 E.02355
G1 X163.343 Y128.603 E1.12569
G1 X163.343 Y129.252 E.02355
G1 X140.748 Y106.657 E1.15899
G1 X140.099 Y106.657 E.02355
G1 X163.343 Y129.901 E1.1923
G1 X163.343 Y130.551 E.02355
G1 X139.449 Y106.657 E1.22561
G1 X138.8 Y106.657 E.02355
G1 X163.343 Y131.2 E1.25892
G1 X163.343 Y131.849 E.02355
G1 X138.151 Y106.657 E1.29223
G1 X137.501 Y106.657 E.02355
G1 X163.343 Y132.499 E1.32553
G1 X163.343 Y133.148 E.02355
G1 X136.852 Y106.657 E1.35884
G1 X136.203 Y106.657 E.02355
G1 X163.343 Y133.797 E1.39215
G1 X163.343 Y134.447 E.02355
G1 X135.553 Y106.657 E1.42546
G1 X134.904 Y106.657 E.02355
G1 X163.343 Y135.096 E1.45877
G1 X163.343 Y135.746 E.02355
G1 X134.254 Y106.657 E1.49208
G1 X133.605 Y106.657 E.02355
G1 X163.343 Y136.395 E1.52538
G1 X163.343 Y137.044 E.02355
G1 X132.956 Y106.657 E1.55869
G1 X132.306 Y106.657 E.02355
G1 X163.343 Y137.694 E1.592
G1 X163.343 Y138.343 E.02355
G1 X131.657 Y106.657 E1.62531
G1 X131.008 Y106.657 E.02355
G1 X163.343 Y138.992 E1.65862
G1 X163.343 Y139.642 E.02355
G1 X130.358 Y106.657 E1.69192
G1 X129.709 Y106.657 E.02355
G1 X163.343 Y140.291 E1.72523
G1 X163.343 Y140.94 E.02355
G1 X129.06 Y106.657 E1.75854
G1 X128.41 Y106.657 E.02355
G1 X163.343 Y141.59 E1.79185
G1 X163.343 Y142.239 E.02355
G1 X127.761 Y106.657 E1.82516
G1 X127.112 Y106.657 E.02355
G1 X163.343 Y142.888 E1.85846
G1 X163.343 Y143.538 E.02355
M73 P2 R44
G1 X126.462 Y106.657 E1.89177
G1 X125.813 Y106.657 E.02355
G1 X163.343 Y144.187 E1.92508
G1 X163.343 Y144.836 E.02355
G1 X125.164 Y106.657 E1.95839
G1 X124.514 Y106.657 E.02355
G1 X163.343 Y145.486 E1.9917
G1 X163.343 Y146.135 E.02355
G1 X123.865 Y106.657 E2.025
G1 X123.215 Y106.657 E.02355
M73 P2 R43
G1 X163.343 Y146.785 E2.05831
G1 X163.343 Y147.434 E.02355
G1 X122.566 Y106.657 E2.09162
G1 X121.917 Y106.657 E.02355
G1 X163.343 Y148.083 E2.12493
G1 X163.343 Y148.733 E.02355
G1 X121.267 Y106.657 E2.15824
G1 X120.618 Y106.657 E.02355
G1 X163.343 Y149.382 E2.19154
G1 X163.343 Y150.031 E.02355
G1 X119.969 Y106.657 E2.22485
G1 X119.319 Y106.657 E.02355
G1 X163.343 Y150.681 E2.25816
G1 X163.343 Y151.33 E.02355
G1 X118.67 Y106.657 E2.29147
G1 X118.021 Y106.657 E.02355
G1 X163.343 Y151.979 E2.32478
G1 X163.343 Y152.629 E.02355
G1 X117.371 Y106.657 E2.35809
G1 X116.722 Y106.657 E.02355
G1 X163.343 Y153.278 E2.39139
G1 X163.343 Y153.927 E.02355
G1 X116.073 Y106.657 E2.4247
G1 X115.423 Y106.657 E.02355
G1 X163.343 Y154.577 E2.45801
G1 X163.343 Y155.226 E.02355
G1 X114.774 Y106.657 E2.49132
G1 X114.125 Y106.657 E.02355
G1 X163.343 Y155.875 E2.52463
G1 X163.343 Y156.525 E.02355
G1 X113.475 Y106.657 E2.55793
G1 X112.826 Y106.657 E.02355
G1 X163.343 Y157.174 E2.59124
G1 X163.343 Y157.824 E.02355
G1 X112.176 Y106.657 E2.62455
G1 X111.527 Y106.657 E.02355
G1 X163.343 Y158.473 E2.65786
G1 X163.343 Y159.122 E.02355
G1 X110.878 Y106.657 E2.69117
G1 X110.228 Y106.657 E.02355
G1 X163.343 Y159.772 E2.72447
G1 X163.343 Y160.421 E.02355
G1 X109.579 Y106.657 E2.75778
G1 X108.93 Y106.657 E.02355
G1 X163.343 Y161.07 E2.79109
G1 X163.343 Y161.72 E.02355
G1 X108.28 Y106.657 E2.8244
G1 X107.631 Y106.657 E.02355
G1 X163.343 Y162.369 E2.85771
G1 X163.343 Y163.018 E.02355
G1 X106.982 Y106.657 E2.89101
G1 X106.657 Y106.657 E.01178
G1 X106.657 Y106.982 E.01178
G1 X163.018 Y163.343 E2.89101
G1 X162.369 Y163.343 E.02355
M73 P3 R43
G1 X106.657 Y107.631 E2.85771
G1 X106.657 Y108.28 E.02355
G1 X161.72 Y163.343 E2.8244
G1 X161.07 Y163.343 E.02355
G1 X106.657 Y108.93 E2.79109
G1 X106.657 Y109.579 E.02355
G1 X160.421 Y163.343 E2.75778
G1 X159.772 Y163.343 E.02355
G1 X106.657 Y110.228 E2.72447
G1 X106.657 Y110.878 E.02355
G1 X159.122 Y163.343 E2.69117
G1 X158.473 Y163.343 E.02355
G1 X106.657 Y111.527 E2.65786
G1 X106.657 Y112.176 E.02355
G1 X157.824 Y163.343 E2.62455
G1 X157.174 Y163.343 E.02355
G1 X106.657 Y112.826 E2.59124
G1 X106.657 Y113.475 E.02355
G1 X156.525 Y163.343 E2.55793
G1 X155.875 Y163.343 E.02355
G1 X106.657 Y114.125 E2.52463
G1 X106.657 Y114.774 E.02355
G1 X155.226 Y163.343 E2.49132
G1 X154.577 Y163.343 E.02355
G1 X106.657 Y115.423 E2.45801
G1 X106.657 Y116.073 E.02355
G1 X153.927 Y163.343 E2.4247
G1 X153.278 Y163.343 E.02355
G1 X106.657 Y116.722 E2.39139
G1 X106.657 Y117.371 E.02355
G1 X152.629 Y163.343 E2.35809
G1 X151.979 Y163.343 E.02355
G1 X106.657 Y118.021 E2.32478
G1 X106.657 Y118.67 E.02355
G1 X151.33 Y163.343 E2.29147
G1 X150.681 Y163.343 E.02355
G1 X106.657 Y119.319 E2.25816
G1 X106.657 Y119.969 E.02355
G1 X150.031 Y163.343 E2.22485
G1 X149.382 Y163.343 E.02355
G1 X106.657 Y120.618 E2.19155
G1 X106.657 Y121.267 E.02355
G1 X148.733 Y163.343 E2.15824
G1 X148.083 Y163.343 E.02355
G1 X106.657 Y121.917 E2.12493
G1 X106.657 Y122.566 E.02355
G1 X147.434 Y163.343 E2.09162
G1 X146.785 Y163.343 E.02355
G1 X106.657 Y123.215 E2.05831
G1 X106.657 Y123.865 E.02355
G1 X146.135 Y163.343 E2.025
G1 X145.486 Y163.343 E.02355
G1 X106.657 Y124.514 E1.9917
G1 X106.657 Y125.164 E.02355
G1 X144.836 Y163.343 E1.95839
G1 X144.187 Y163.343 E.02355
G1 X106.657 Y125.813 E1.92508
G1 X106.657 Y126.462 E.02355
G1 X143.538 Y163.343 E1.89177
G1 X142.888 Y163.343 E.02355
G1 X106.657 Y127.112 E1.85846
G1 X106.657 Y127.761 E.02355
G1 X142.239 Y163.343 E1.82516
G1 X141.59 Y163.343 E.02355
G1 X106.657 Y128.41 E1.79185
G1 X106.657 Y129.06 E.02355
M73 P4 R43
G1 X140.94 Y163.343 E1.75854
G1 X140.291 Y163.343 E.02355
G1 X106.657 Y129.709 E1.72523
G1 X106.657 Y130.358 E.02355
G1 X139.642 Y163.343 E1.69192
G1 X138.992 Y163.343 E.02355
G1 X106.657 Y131.008 E1.65862
G1 X106.657 Y131.657 E.02355
G1 X138.343 Y163.343 E1.62531
G1 X137.694 Y163.343 E.02355
G1 X106.657 Y132.306 E1.592
G1 X106.657 Y132.956 E.02355
G1 X137.044 Y163.343 E1.55869
G1 X136.395 Y163.343 E.02355
G1 X106.657 Y133.605 E1.52538
G1 X106.657 Y134.254 E.02355
G1 X135.746 Y163.343 E1.49208
G1 X135.096 Y163.343 E.02355
G1 X106.657 Y134.904 E1.45877
G1 X106.657 Y135.553 E.02355
G1 X134.447 Y163.343 E1.42546
G1 X133.797 Y163.343 E.02355
G1 X106.657 Y136.203 E1.39215
G1 X106.657 Y136.852 E.02355
G1 X133.148 Y163.343 E1.35884
G1 X132.499 Y163.343 E.02355
G1 X106.657 Y137.501 E1.32554
G1 X106.657 Y138.151 E.02355
G1 X131.849 Y163.343 E1.29223
G1 X131.2 Y163.343 E.02355
M73 P4 R42
G1 X106.657 Y138.8 E1.25892
G1 X106.657 Y139.449 E.02355
G1 X130.551 Y163.343 E1.22561
G1 X129.901 Y163.343 E.02355
G1 X106.657 Y140.099 E1.1923
G1 X106.657 Y140.748 E.02355
G1 X129.252 Y163.343 E1.15899
G1 X128.603 Y163.343 E.02355
G1 X106.657 Y141.397 E1.12569
G1 X106.657 Y142.047 E.02355
G1 X127.953 Y163.343 E1.09238
G1 X127.304 Y163.343 E.02355
G1 X106.657 Y142.696 E1.05907
G1 X106.657 Y143.345 E.02355
G1 X126.655 Y163.343 E1.02576
G1 X126.005 Y163.343 E.02355
G1 X106.657 Y143.995 E.99245
G1 X106.657 Y144.644 E.02355
G1 X125.356 Y163.343 E.95915
G1 X124.707 Y163.343 E.02355
G1 X106.657 Y145.293 E.92584
G1 X106.657 Y145.943 E.02355
G1 X124.057 Y163.343 E.89253
G1 X123.408 Y163.343 E.02355
G1 X106.657 Y146.592 E.85922
G1 X106.657 Y147.242 E.02355
G1 X122.758 Y163.343 E.82591
G1 X122.109 Y163.343 E.02355
G1 X106.657 Y147.891 E.79261
G1 X106.657 Y148.54 E.02355
G1 X121.46 Y163.343 E.7593
G1 X120.81 Y163.343 E.02355
G1 X106.657 Y149.19 E.72599
G1 X106.657 Y149.839 E.02355
G1 X120.161 Y163.343 E.69268
G1 X119.512 Y163.343 E.02355
G1 X106.657 Y150.488 E.65937
G1 X106.657 Y151.138 E.02355
G1 X118.862 Y163.343 E.62607
G1 X118.213 Y163.343 E.02355
G1 X106.657 Y151.787 E.59276
G1 X106.657 Y152.436 E.02355
G1 X117.564 Y163.343 E.55945
G1 X116.914 Y163.343 E.02355
G1 X106.657 Y153.086 E.52614
G1 X106.657 Y153.735 E.02355
G1 X116.265 Y163.343 E.49283
G1 X115.616 Y163.343 E.02355
G1 X106.657 Y154.384 E.45953
G1 X106.657 Y155.034 E.02355
G1 X114.966 Y163.343 E.42622
G1 X114.317 Y163.343 E.02355
G1 X106.657 Y155.683 E.39291
G1 X106.657 Y156.332 E.02355
G1 X113.668 Y163.343 E.3596
G1 X113.018 Y163.343 E.02355
G1 X106.657 Y156.982 E.32629
G1 X106.657 Y157.631 E.02355
G1 X112.369 Y163.343 E.29298
G1 X111.719 Y163.343 E.02355
G1 X106.657 Y158.281 E.25968
G1 X106.657 Y158.93 E.02355
G1 X111.07 Y163.343 E.22637
G1 X110.421 Y163.343 E.02355
G1 X106.657 Y159.579 E.19306
G1 X106.657 Y160.229 E.02355
G1 X109.771 Y163.343 E.15975
G1 X109.122 Y163.343 E.02355
G1 X106.657 Y160.878 E.12644
G1 X106.657 Y161.527 E.02355
G1 X108.473 Y163.343 E.09314
G1 X107.823 Y163.343 E.02355
G1 X106.657 Y162.177 E.05983
G1 X106.657 Y162.826 E.02355
G1 X107.38 Y163.549 E.03707
; stop printing object Cube id:0 copy 0
M106 S255

M106 P2 S178
;LAYER_CHANGE
;Z:0.4
;HEIGHT:0.2
;BEFORE_LAYER_CHANGE
;0.4
G92 E0

G1 E-.56 F1800
;WIPE_START
G1 F6300
G1 X106.673 Y162.842 E-.24
;WIPE_END
EXCLUDE_OBJECT_END NAME=Cube_id_0_copy_0
 ; timelapse without wipe tower
TIMELAPSE_TAKE_FRAME

G92 E0
SET_PRINT_STATS_INFO CURRENT_LAYER=2
;_SET_FAN_SPEED_CHANGING_LAYER
SET_VELOCITY_LIMIT ACCEL=10000
M140 S55 ; set bed temperature
G1 Z.8 F30000
G1 X102.771 Y162.842 Z.8
G1 Z.4
G1 E.8 F1800
;TYPE:Skirt
;WIDTH:0.5
G1 F3000
G1 X102.771 Y153.808 E0.32617
M106 S255
G1 X102.771 Y105 E1.76226
G1 X103.162 Y103.739 E.04767
G1 X104.198 Y102.921 E.04767
G1 X105 Y102.771 E.02944
G1 X165 Y102.771 E2.16636
G1 X166.261 Y103.162 E.04767
G1 X167.079 Y104.198 E.04767
G1 X167.229 Y105 E.02944
G1 X167.229 Y165 E2.16636
G1 X166.838 Y166.261 E.04767
M73 P5 R42
G1 X165.802 Y167.079 E.04767
G1 X165 Y167.229 E.02944
G1 X105 Y167.229 E2.16636
G1 X103.739 Y166.838 E.04767
G1 X102.921 Y165.802 E.04767
G1 X102.771 Y165 E.02944
G1 X102.771 Y162.882 E.07649
; printing object Cube id:0 copy 0
G1 E-.56 F1800
;WIPE_START
G1 F3000
G1 X102.771 Y161.882 E-.24
;WIPE_END
EXCLUDE_OBJECT_START NAME=Cube_id_0_copy_0
G1 Z.8 F30000
G1 X163.991 Y163.991 Z.8
G1 Z.4
G1 E.8 F1800
SET_VELOCITY_LIMIT ACCEL=5000
;TYPE:Inner wall
;WIDTH:0.449999
G1 F11054.364
G1 X106.009 Y163.991 E1.86448
G1 X106.009 Y106.009 E1.86448
G1 X163.991 Y106.009 E1.86448
G1 X163.991 Y163.951 E1.86319
SET_VELOCITY_LIMIT ACCEL=10000
G1 X164.398 Y164.398 F30000
SET_VELOCITY_LIMIT ACCEL=5000
G1 F11054.364
G1 X105.602 Y164.398 E1.89066
G1 X105.602 Y105.602 E1.89066
G1 X164.398 Y105.602 E1.89066
G1 X164.398 Y164.358 E1.88937
SET_VELOCITY_LIMIT ACCEL=10000
G1 X164.79 Y164.79 F30000
SET_VELOCITY_LIMIT ACCEL=3000
;TYPE:Outer wall
;WIDTH:0.419999
G1 F11933.839
G1 X105.21 Y164.79 E1.77468
G1 X105.21 Y105.21 E1.77468
G1 X164.79 Y105.21 E1.77468
G1 X164.79 Y164.75 E1.77349
SET_VELOCITY_LIMIT ACCEL=10000
G1 E-.64917 F1800
;WIPE_START
G1 F11933.839
G1 X163.79 Y164.751 E-.15083
;WIPE_END
G1 Z.8 F30000
G1 X162.21 Y163.599 Z.8
G1 Z.4
G1 E.8 F1800
;TYPE:Internal solid infill
G1 F11933.839
G1 X163.599 Y163.599 E.03507
G1 X163.599 Y162.21 E.03507
G1 X162.238 Y163.57 E.05073
G1 X163.219 Y163.145 F30000
;WIDTH:0.479568
G1 F10305.784
G1 X163.165 Y163.145 E.00026
G1 X163.137 Y163.192 E.00026
G1 X163.165 Y163.239 E.00026
G1 X163.226 Y163.227 E.00035
G1 X163.87 Y161.458 F30000
;WIDTH:0.420356
G1 F11922.55
G1 X161.628 Y163.701 E.08764
G1 X161.094 Y163.701 E.0108
G1 X163.701 Y161.094 E.1029
G1 X163.701 Y160.56 E.0108
G1 X160.56 Y163.701 E.12529
