; HEADER_BLOCK_START
; generated by OrcaSlicer 2.3.1 on 2025-11-30 at 14:53:33
; total layer number: 10
; filament_density: 1.02,1.02,1.02,1.24,1.24,1.24
; filament_diameter: 1.75,1.75,1.75,1.75,1.75,1.75
; max_z_height: 2.00
; HEADER_BLOCK_END

; THUMBNAIL_BLOCK_START

;
; THUMBNAIL_BLOCK_END

; external perimeters extrusion width = 0.42mm
; perimeters extrusion width = 0.42mm
; infill extrusion width = 0.45mm
; solid infill extrusion width = 0.42mm
; top infill extrusion width = 0.42mm
; first layer extrusion width = 0.44mm

; external perimeters extrusion width = 0.42mm
; perimeters extrusion width = 0.42mm
; infill extrusion width = 0.45mm
; solid infill extrusion width = 0.42mm
; top infill extrusion width = 0.42mm
; first layer extrusion width = 0.44mm

; external perimeters extrusion width = 0.42mm
; perimeters extrusion width = 0.42mm
; infill extrusion width = 0.45mm
; solid infill extrusion width = 0.42mm
; top infill extrusion width = 0.42mm
; first layer extrusion width = 0.44mm

; external perimeters extrusion width = 0.42mm
; perimeters extrusion width = 0.42mm
; infill extrusion width = 0.45mm
; solid infill extrusion width = 0.42mm
; top infill extrusion width = 0.42mm
; first layer extrusion width = 0.44mm

; external perimeters extrusion width = 0.42mm
; perimeters extrusion width = 0.42mm
; infill extrusion width = 0.45mm
; solid infill extrusion width = 0.42mm
; top infill extrusion width = 0.42mm
; first layer extrusion width = 0.44mm

; EXECUTABLE_BLOCK_START
EXCLUDE_OBJECT_DEFINE NAME=Cube_id_0_copy_0 CENTER=163,169 POLYGON=[[137,154],[189,154],[189,184],[137,184],[137,154]]
EXCLUDE_OBJECT_DEFINE NAME=Cube_id_1_copy_0 CENTER=163,135 POLYGON=[[137,120],[189,120],[189,150],[137,150],[137,120]]
EXCLUDE_OBJECT_DEFINE NAME=Cube_id_2_copy_0 CENTER=163,101 POLYGON=[[137,86],[189,86],[189,116],[137,116],[137,86]]
EXCLUDE_OBJECT_DEFINE NAME=Cube_id_3_copy_0 CENTER=107,135 POLYGON=[[81,120],[133,120],[133,150],[81,150],[81,120]]
EXCLUDE_OBJECT_DEFINE NAME=Cube_id_4_copy_0 CENTER=107,101 POLYGON=[[81,86],[133,86],[133,116],[81,116],[81,86]]
M73 P0 R24
M106 S0
M106 P2 S0
;TYPE:Custom
PRINT_START BED=100 HOTEND=260 CHAMBER=60 EXTRUDER=0
SET_PRINT_STATS_INFO TOTAL_LAYER=10
M83
M140 S100
M104 S260
M141 S60
G4 P3000
T0
G1 X108.000 Y1 F30000
G0 Z0.2 F600
;G1 E3 F1800
G90
M83
G0 X128 E8  F1080
G0 X133 E.3742  F1800
G0 X138 E.3742  F7200
G0 X143 E.3742  F1800
G0 X148 E.3742  F7200
G0 X153 E.3742  F1800
G91
G1 X1 Z-0.300
G1 X4
G1 Z1 F1200
G90
M400
G1 X108.000 Y2.5 F30000
G0 Z0.2 F600
M83
G0 X128 E10  F1080
G0 X133 E.3742  F1800
G0 X138 E.3742  F7200
G0 X143 E.3742  F1800
G0 X148 E.3742  F7200
G0 X153 E.3742  F1800
G91
G1 X1 Z-0.300
G1 X4
G1 Z1 F1200
G90
M400
G1 Z1 F600
M106 P3 S255
G90
G21
M83 ; use relative distances for extrusion
; Filament gcode
SET_PRESSURE_ADVANCE ADVANCE=0.025; Override pressure advance value
T0
M106 P2 S0
;LAYER_CHANGE
;Z:0.2
;HEIGHT:0.2
;BEFORE_LAYER_CHANGE
;0.2
G92 E0

G1 E-.8 F1800
 ; timelapse without wipe tower
TIMELAPSE_TAKE_FRAME

G92 E0
SET_PRINT_STATS_INFO CURRENT_LAYER=1
;_SET_FAN_SPEED_CHANGING_LAYER
SET_VELOCITY_LIMIT ACCEL=500
G1 X81.243 Y83.801 F30000
G1 Z.6
G1 Z.2
G1 E.8 F1800
;TYPE:Skirt
;WIDTH:0.44
G1 F3000
G1 X189 Y83.801 E3.37994
G1 X190.251 Y84.192 E.04112
G1 X191.058 Y85.226 E.04112
G1 X191.199 Y86 E.02467
G1 X191.199 Y184 E3.07391
G1 X190.808 Y185.251 E.04112
G1 X189.774 Y186.058 E.04112
G1 X189 Y186.199 E.02467
G1 X137 Y186.199 E1.63105
G1 X135.859 Y185.879 E.03716
G1 X79.859 Y151.879 E2.05492
G1 X78.992 Y150.896 E.04112
G1 X78.801 Y150 E.02872
G1 X78.801 Y86 E2.00745
G1 X79.192 Y84.749 E.04112
G1 X80.226 Y83.942 E.04112
G1 X81 Y83.801 E.02467
G1 X81.203 Y83.801 E.00638
; printing object Cube id:3 copy 0
G1 E-.56 F1800
;WIPE_START
G1 F3000
G1 X82.203 Y83.801 E-.24
;WIPE_END
EXCLUDE_OBJECT_START NAME=Cube_id_3_copy_0
G1 X86.823 Y89.877 Z.6 F30000
G1 X131.042 Y148.042 Z.6
M73 P1 R24
G1 Z.2
G1 E.8 F1800
;TYPE:Inner wall
;WIDTH:0.439999
G1 F3000
G1 X82.958 Y148.042 E1.5082
G1 X82.958 Y121.958 E.81814
G1 X131.042 Y121.958 E1.5082
G1 X131.042 Y148.002 E.81689
G1 X131.439 Y148.439 F30000
G1 F3000
G1 X82.561 Y148.439 E1.53311
G1 X82.561 Y121.561 E.84305
G1 X131.439 Y121.561 E1.53311
G1 X131.439 Y148.399 E.8418
M73 P1 R23
G1 X131.836 Y148.836 F30000
G1 F3000
G1 X82.164 Y148.836 E1.55802
G1 X82.164 Y121.164 E.86796
G1 X131.836 Y121.164 E1.55802
G1 X131.836 Y148.796 E.86671
G1 X132.233 Y149.233 F30000
G1 F3000
G1 X81.767 Y149.233 E1.58293
G1 X81.767 Y120.767 E.89287
G1 X132.233 Y120.767 E1.58293
G1 X132.233 Y149.193 E.89162
G1 X132.63 Y149.63 F30000
;TYPE:Outer wall
G1 F3000
G1 X81.37 Y149.63 E1.60784
G1 X81.37 Y120.37 E.91778
M73 P2 R23
G1 X132.63 Y120.37 E1.60784
G1 X132.63 Y149.59 E.91653
G1 E-.56 F1800
;WIPE_START
G1 F3000
G1 X131.63 Y149.591 E-.24
;WIPE_END
G1 X131.428 Y141.961 Z.6 F30000
G1 X130.923 Y122.882 Z.6
G1 Z.2
G1 E.8 F1800
;TYPE:Bottom surface
;WIDTH:0.441111
G1 F6300
G1 X130.296 Y122.256 E.02172
G1 X129.733 Y122.256 E.01225
G1 X130.744 Y123.267 E.03827
G1 X130.744 Y123.83 E.01225
G1 X129.17 Y122.256 E.06296
G1 X128.607 Y122.256 E.01225
G1 X130.744 Y124.393 E.0878
G1 X130.744 Y124.956 E.01225
G1 X128.044 Y122.256 E.1127
G1 X127.481 Y122.256 E.01225
G1 X130.744 Y125.519 E.13762
G1 X130.744 Y126.083 E.01225
G1 X126.917 Y122.256 E.16274
G1 X126.354 Y122.256 E.01225
G1 X130.744 Y126.646 E.18822
G1 X130.744 Y127.209 E.01225
G1 X125.791 Y122.256 E.21406
G1 X125.228 Y122.256 E.01225
G1 X130.744 Y127.772 E.24027
G1 X130.744 Y128.335 E.01225
G1 X124.665 Y122.256 E.26684
G1 X124.102 Y122.256 E.01225
G1 X130.744 Y128.898 E.29377
G1 X130.744 Y129.461 E.01225
G1 X123.539 Y122.256 E.32051
G1 X122.976 Y122.256 E.01225
G1 X130.744 Y130.024 E.34556
G1 X130.744 Y130.588 E.01225
G1 X122.412 Y122.256 E.37061
G1 X121.849 Y122.256 E.01225
G1 X130.744 Y131.151 E.39566
G1 X130.744 Y131.714 E.01225
G1 X121.286 Y122.256 E.42071
G1 X120.723 Y122.256 E.01225
G1 X130.744 Y132.277 E.44576
G1 X130.744 Y132.84 E.01225
G1 X120.16 Y122.256 E.47081
G1 X119.597 Y122.256 E.01225
G1 X130.744 Y133.403 E.49586
G1 X130.744 Y133.966 E.01225
G1 X119.034 Y122.256 E.52091
G1 X118.471 Y122.256 E.01225
G1 X130.744 Y134.529 E.54596
G1 X130.744 Y135.093 E.01225
G1 X117.907 Y122.256 E.57101
G1 X117.344 Y122.256 E.01225
G1 X130.744 Y135.656 E.59605
G1 X130.744 Y136.219 E.01225
G1 X116.781 Y122.256 E.6211
G1 X116.218 Y122.256 E.01225
G1 X130.744 Y136.782 E.64615
G1 X130.744 Y137.345 E.01225
G1 X115.655 Y122.256 E.6712
G1 X115.092 Y122.256 E.01225
G1 X130.744 Y137.908 E.69625
G1 X130.744 Y138.471 E.01225
G1 X114.529 Y122.256 E.7213
G1 X113.966 Y122.256 E.01225
G1 X130.744 Y139.034 E.74635
G1 X130.744 Y139.598 E.01225
G1 X113.402 Y122.256 E.7714
G1 X112.839 Y122.256 E.01225
G1 X130.744 Y140.161 E.79645
G1 X130.744 Y140.724 E.01225
G1 X112.276 Y122.256 E.8215
G1 X111.713 Y122.256 E.01225
G1 X130.744 Y141.287 E.84655
G1 X130.744 Y141.85 E.01225
G1 X111.15 Y122.256 E.8716
G1 X110.587 Y122.256 E.01225
M73 P3 R23
G1 X130.744 Y142.413 E.89665
G1 X130.744 Y142.976 E.01225
G1 X110.024 Y122.256 E.9217
G1 X109.46 Y122.256 E.01225
G1 X130.744 Y143.54 E.94675
G1 X130.744 Y144.103 E.01225
G1 X108.897 Y122.256 E.9718
G1 X108.334 Y122.256 E.01225
G1 X130.744 Y144.666 E.99685
G1 X130.744 Y145.229 E.01225
G1 X107.771 Y122.256 E1.0219
G1 X107.208 Y122.256 E.01225
G1 X130.744 Y145.792 E1.04695
G1 X130.744 Y146.355 E.01225
G1 X106.645 Y122.256 E1.072
G1 X106.082 Y122.256 E.01225
G1 X130.744 Y146.918 E1.09705
G1 X130.744 Y147.481 E.01225
G1 X105.519 Y122.256 E1.1221
G1 X104.955 Y122.256 E.01225
G1 X130.443 Y147.744 E1.13377
G1 X129.88 Y147.744 E.01225
G1 X104.392 Y122.256 E1.13377
G1 X103.829 Y122.256 E.01225
G1 X129.317 Y147.744 E1.13377
G1 X128.754 Y147.744 E.01225
G1 X103.266 Y122.256 E1.13377
G1 X102.703 Y122.256 E.01225
G1 X128.191 Y147.744 E1.13377
G1 X127.628 Y147.744 E.01225
G1 X102.14 Y122.256 E1.13377
G1 X101.577 Y122.256 E.01225
G1 X127.064 Y147.744 E1.13377
G1 X126.501 Y147.744 E.01225
G1 X101.014 Y122.256 E1.13377
G1 X100.45 Y122.256 E.01225
G1 X125.938 Y147.744 E1.13377
G1 X125.375 Y147.744 E.01225
G1 X99.887 Y122.256 E1.13377
G1 X99.324 Y122.256 E.01225
G1 X124.812 Y147.744 E1.13377
G1 X124.249 Y147.744 E.01225
G1 X98.761 Y122.256 E1.13377
G1 X98.198 Y122.256 E.01225
G1 X123.686 Y147.744 E1.13377
G1 X123.123 Y147.744 E.01225
G1 X97.635 Y122.256 E1.13377
G1 X97.072 Y122.256 E.01225
G1 X122.559 Y147.744 E1.13377
G1 X121.996 Y147.744 E.01225
G1 X96.509 Y122.256 E1.13377
G1 X95.945 Y122.256 E.01225
G1 X121.433 Y147.744 E1.13377
G1 X120.87 Y147.744 E.01225
M73 P4 R23
G1 X95.382 Y122.256 E1.13377
G1 X94.819 Y122.256 E.01225
G1 X120.307 Y147.744 E1.13377
G1 X119.744 Y147.744 E.01225
G1 X94.256 Y122.256 E1.13377
G1 X93.693 Y122.256 E.01225
G1 X119.181 Y147.744 E1.13377
G1 X118.618 Y147.744 E.01225
G1 X93.13 Y122.256 E1.13377
G1 X92.567 Y122.256 E.01225
G1 X118.054 Y147.744 E1.13377
G1 X117.491 Y147.744 E.01225
G1 X92.004 Y122.256 E1.13377
G1 X91.44 Y122.256 E.01225
G1 X116.928 Y147.744 E1.13377
G1 X116.365 Y147.744 E.01225
G1 X90.877 Y122.256 E1.13377
G1 X90.314 Y122.256 E.01225
G1 X115.802 Y147.744 E1.13377
G1 X115.239 Y147.744 E.01225
G1 X89.751 Y122.256 E1.13377
G1 X89.188 Y122.256 E.01225
G1 X114.676 Y147.744 E1.13377
G1 X114.113 Y147.744 E.01225
G1 X88.625 Y122.256 E1.13377
G1 X88.062 Y122.256 E.01225
G1 X113.549 Y147.744 E1.13377
G1 X112.986 Y147.744 E.01225
G1 X87.499 Y122.256 E1.13377
G1 X86.935 Y122.256 E.01225
G1 X112.423 Y147.744 E1.13377
G1 X111.86 Y147.744 E.01225
G1 X86.372 Y122.256 E1.13377
G1 X85.809 Y122.256 E.01225
G1 X111.297 Y147.744 E1.13377
G1 X110.734 Y147.744 E.01225
G1 X85.246 Y122.256 E1.13377
G1 X84.683 Y122.256 E.01225
G1 X110.171 Y147.744 E1.13377
G1 X109.608 Y147.744 E.01225
G1 X84.12 Y122.256 E1.13377
G1 X83.557 Y122.256 E.01225
G1 X109.044 Y147.744 E1.13377
G1 X108.481 Y147.744 E.01225
G1 X83.256 Y122.519 E1.12209
G1 X83.256 Y123.082 E.01225
G1 X107.918 Y147.744 E1.09704
G1 X107.355 Y147.744 E.01225
G1 X83.256 Y123.645 E1.07199
G1 X83.256 Y124.208 E.01225
G1 X106.792 Y147.744 E1.04694
G1 X106.229 Y147.744 E.01225
G1 X83.256 Y124.771 E1.02189
G1 X83.256 Y125.334 E.01225
M73 P5 R23
G1 X105.666 Y147.744 E.99684
G1 X105.103 Y147.744 E.01225
G1 X83.256 Y125.897 E.97179
G1 X83.256 Y126.461 E.01225
G1 X104.539 Y147.744 E.94674
G1 X103.976 Y147.744 E.01225
G1 X83.256 Y127.024 E.92169
G1 X83.256 Y127.587 E.01225
G1 X103.413 Y147.744 E.89664
G1 X102.85 Y147.744 E.01225
G1 X83.256 Y128.15 E.87159
G1 X83.256 Y128.713 E.01225
G1 X102.287 Y147.744 E.84654
G1 X101.724 Y147.744 E.01225
G1 X83.256 Y129.276 E.8215
G1 X83.256 Y129.839 E.01225
G1 X101.161 Y147.744 E.79645
G1 X100.597 Y147.744 E.01225
G1 X83.256 Y130.403 E.7714
G1 X83.256 Y130.966 E.01225
G1 X100.034 Y147.744 E.74635
G1 X99.471 Y147.744 E.01225
G1 X83.256 Y131.529 E.7213
G1 X83.256 Y132.092 E.01225
G1 X98.908 Y147.744 E.69625
G1 X98.345 Y147.744 E.01225
G1 X83.256 Y132.655 E.6712
G1 X83.256 Y133.218 E.01225
G1 X97.782 Y147.744 E.64615
G1 X97.219 Y147.744 E.01225
G1 X83.256 Y133.781 E.6211
G1 X83.256 Y134.344 E.01225
G1 X96.656 Y147.744 E.59605
G1 X96.092 Y147.744 E.01225
G1 X83.256 Y134.908 E.571
G1 X83.256 Y135.471 E.01225
M73 P5 R22
G1 X95.529 Y147.744 E.54595
G1 X94.966 Y147.744 E.01225
G1 X83.256 Y136.034 E.5209
G1 X83.256 Y136.597 E.01225
G1 X94.403 Y147.744 E.49585
G1 X93.84 Y147.744 E.01225
G1 X83.256 Y137.16 E.4708
G1 X83.256 Y137.723 E.01225
G1 X93.277 Y147.744 E.44575
G1 X92.714 Y147.744 E.01225
G1 X83.256 Y138.286 E.4207
G1 X83.256 Y138.849 E.01225
G1 X92.151 Y147.744 E.39565
G1 X91.587 Y147.744 E.01225
G1 X83.256 Y139.413 E.3706
G1 X83.256 Y139.976 E.01225
G1 X91.024 Y147.744 E.34555
G1 X90.461 Y147.744 E.01225
G1 X83.256 Y140.539 E.3205
G1 X83.256 Y141.102 E.01225
G1 X89.898 Y147.744 E.29377
G1 X89.335 Y147.744 E.01225
G1 X83.256 Y141.665 E.26683
G1 X83.256 Y142.228 E.01225
G1 X88.772 Y147.744 E.24026
G1 X88.209 Y147.744 E.01225
G1 X83.256 Y142.791 E.21405
G1 X83.256 Y143.354 E.01225
G1 X87.646 Y147.744 E.18821
G1 X87.082 Y147.744 E.01225
G1 X83.256 Y143.918 E.16273
G1 X83.256 Y144.481 E.01225
G1 X86.519 Y147.744 E.13762
G1 X85.956 Y147.744 E.01225
G1 X83.256 Y145.044 E.11269
G1 X83.256 Y145.607 E.01225
G1 X85.393 Y147.744 E.0878
G1 X84.83 Y147.744 E.01225
G1 X83.256 Y146.17 E.06295
G1 X83.256 Y146.733 E.01225
G1 X84.267 Y147.744 E.03827
G1 X83.704 Y147.744 E.01225
G1 X83.077 Y147.118 E.02171
; stop printing object Cube id:3 copy 0
; printing object Cube id:4 copy 0
G1 E-.56 F1800
;WIPE_START
G1 F6300
G1 X83.704 Y147.744 E-.21255
G1 X83.818 Y147.744 E-.02745
;WIPE_END
EXCLUDE_OBJECT_END NAME=Cube_id_3_copy_0
EXCLUDE_OBJECT_START NAME=Cube_id_4_copy_0
G1 X90.031 Y143.31 Z.6 F30000
G1 X131.042 Y114.042 Z.6
G1 Z.2
M73 P6 R22
G1 E.8 F1800
;TYPE:Inner wall
;WIDTH:0.439999
G1 F3000
G1 X82.958 Y114.042 E1.5082
G1 X82.958 Y87.958 E.81814
G1 X131.042 Y87.958 E1.5082
G1 X131.042 Y114.002 E.81689
G1 X131.439 Y114.439 F30000
G1 F3000
G1 X82.561 Y114.439 E1.53311
G1 X82.561 Y87.561 E.84305
G1 X131.439 Y87.561 E1.53311
G1 X131.439 Y114.399 E.8418
G1 X131.836 Y114.836 F30000
G1 F3000
G1 X82.164 Y114.836 E1.55802
G1 X82.164 Y87.164 E.86796
G1 X131.836 Y87.164 E1.55802
G1 X131.836 Y114.796 E.86671
G1 X132.233 Y115.233 F30000
G1 F3000
G1 X81.767 Y115.233 E1.58293
G1 X81.767 Y86.767 E.89287
G1 X132.233 Y86.767 E1.58293
G1 X132.233 Y115.193 E.89162
G1 X132.63 Y115.63 F30000
;TYPE:Outer wall
G1 F3000
G1 X81.37 Y115.63 E1.60784
G1 X81.37 Y86.37 E.91778
M73 P7 R22
G1 X132.63 Y86.37 E1.60784
G1 X132.63 Y115.59 E.91653
G1 E-.56 F1800
;WIPE_START
G1 F3000
G1 X131.63 Y115.591 E-.24
;WIPE_END
G1 X131.428 Y107.961 Z.6 F30000
G1 X130.923 Y88.882 Z.6
G1 Z.2
G1 E.8 F1800
;TYPE:Bottom surface
;WIDTH:0.441111
G1 F6300
G1 X130.296 Y88.256 E.02172
G1 X129.733 Y88.256 E.01225
G1 X130.744 Y89.267 E.03827
G1 X130.744 Y89.83 E.01225
G1 X129.17 Y88.256 E.06296
G1 X128.607 Y88.256 E.01225
G1 X130.744 Y90.393 E.0878
G1 X130.744 Y90.956 E.01225
G1 X128.044 Y88.256 E.1127
G1 X127.481 Y88.256 E.01225
G1 X130.744 Y91.519 E.13762
G1 X130.744 Y92.083 E.01225
G1 X126.917 Y88.256 E.16274
G1 X126.354 Y88.256 E.01225
G1 X130.744 Y92.646 E.18822
G1 X130.744 Y93.209 E.01225
G1 X125.791 Y88.256 E.21406
G1 X125.228 Y88.256 E.01225
G1 X130.744 Y93.772 E.24027
G1 X130.744 Y94.335 E.01225
G1 X124.665 Y88.256 E.26684
G1 X124.102 Y88.256 E.01225
G1 X130.744 Y94.898 E.29377
G1 X130.744 Y95.461 E.01225
G1 X123.539 Y88.256 E.32051
G1 X122.976 Y88.256 E.01225
G1 X130.744 Y96.024 E.34556
G1 X130.744 Y96.588 E.01225
G1 X122.412 Y88.256 E.37061
G1 X121.849 Y88.256 E.01225
G1 X130.744 Y97.151 E.39566
G1 X130.744 Y97.714 E.01225
G1 X121.286 Y88.256 E.42071
G1 X120.723 Y88.256 E.01225
G1 X130.744 Y98.277 E.44576
G1 X130.744 Y98.84 E.01225
G1 X120.16 Y88.256 E.47081
G1 X119.597 Y88.256 E.01225
G1 X130.744 Y99.403 E.49586
G1 X130.744 Y99.966 E.01225
G1 X119.034 Y88.256 E.52091
G1 X118.471 Y88.256 E.01225
G1 X130.744 Y100.529 E.54596
G1 X130.744 Y101.093 E.01225
G1 X117.907 Y88.256 E.57101
G1 X117.344 Y88.256 E.01225
G1 X130.744 Y101.656 E.59605
G1 X130.744 Y102.219 E.01225
G1 X116.781 Y88.256 E.6211
G1 X116.218 Y88.256 E.01225
G1 X130.744 Y102.782 E.64615
G1 X130.744 Y103.345 E.01225
G1 X115.655 Y88.256 E.6712
G1 X115.092 Y88.256 E.01225
G1 X130.744 Y103.908 E.69625
G1 X130.744 Y104.471 E.01225
G1 X114.529 Y88.256 E.7213
G1 X113.966 Y88.256 E.01225
G1 X130.744 Y105.034 E.74635
G1 X130.744 Y105.598 E.01225
G1 X113.402 Y88.256 E.7714
G1 X112.839 Y88.256 E.01225
G1 X130.744 Y106.161 E.79645
G1 X130.744 Y106.724 E.01225
G1 X112.276 Y88.256 E.8215
G1 X111.713 Y88.256 E.01225
G1 X130.744 Y107.287 E.84655
G1 X130.744 Y107.85 E.01225
G1 X111.15 Y88.256 E.8716
G1 X110.587 Y88.256 E.01225
G1 X130.744 Y108.413 E.89665
G1 X130.744 Y108.976 E.01225
M73 P8 R22
G1 X110.024 Y88.256 E.9217
G1 X109.46 Y88.256 E.01225
G1 X130.744 Y109.54 E.94675
G1 X130.744 Y110.103 E.01225
G1 X108.897 Y88.256 E.9718
G1 X108.334 Y88.256 E.01225
G1 X130.744 Y110.666 E.99685
G1 X130.744 Y111.229 E.01225
G1 X107.771 Y88.256 E1.0219
G1 X107.208 Y88.256 E.01225
G1 X130.744 Y111.792 E1.04695
G1 X130.744 Y112.355 E.01225
