; HEADER_BLOCK_START
; generated by OrcaSlicer 2.3.1 on 2025-12-07 at 19:05:37
; total layer number: 20
; filament_density: 1.02,1.02,1.02,1.24
; filament_diameter: 1.75,1.75,1.75,1.75
; max_z_height: 4.00
; HEADER_BLOCK_END

; THUMBNAIL_BLOCK_START

;
; THUMBNAIL_BLOCK_END

; external perimeters extrusion width = 0.42mm
; perimeters extrusion width = 0.42mm
; infill extrusion width = 0.45mm
; solid infill extrusion width = 0.42mm
; top infill extrusion width = 0.42mm
; first layer extrusion width = 0.44mm

; external perimeters extrusion width = 0.42mm
; perimeters extrusion width = 0.42mm
; infill extrusion width = 0.45mm
; solid infill extrusion width = 0.42mm
; top infill extrusion width = 0.42mm
; first layer extrusion width = 0.44mm

; EXECUTABLE_BLOCK_START
EXCLUDE_OBJECT_DEFINE NAME=Cube_id_0_copy_0 CENTER=135,135 POLYGON=[[121.5,121.5],[148.5,121.5],[148.5,148.5],[121.5,148.5],[121.5,121.5]]
M73 P0 R13
M106 S0
M106 P2 S0
;TYPE:Custom
PRINT_START BED=100 HOTEND=260 CHAMBER=60 EXTRUDER=1
SET_PRINT_STATS_INFO TOTAL_LAYER=20
M83
M140 S100
M104 S260
M141 S60
G4 P3000
T1
G1 X108.000 Y1 F30000
G0 Z0.2 F600
;G1 E3 F1800
G90
M83
G0 X128 E8  F1080
G0 X133 E.3742  F1800
G0 X138 E.3742  F7200
G0 X143 E.3742  F1800
G0 X148 E.3742  F7200
G0 X153 E.3742  F1800
G91
G1 X1 Z-0.300
G1 X4
G1 Z1 F1200
G90
M400
G1 X108.000 Y2.5 F30000
G0 Z0.2 F600
M83
G0 X128 E10  F1080
G0 X133 E.3742  F1800
G0 X138 E.3742  F7200
G0 X143 E.3742  F1800
G0 X148 E.3742  F7200
G0 X153 E.3742  F1800
G91
G1 X1 Z-0.300
G1 X4
G1 Z1 F1200
G90
M400
G1 Z1 F600
M106 P3 S255
G90
G21
M83 ; use relative distances for extrusion
G1 Z3 F1200
TOOL_CHANGE_START F=1 T=1
BUFFER_MONITORING ENABLE=0
DISABLE_ALL_SENSOR
M106 S255
MOVE_TO_TRASH

G1 E-10 F449

M400
CUT_FILAMENT T=1
MOVE_TO_TRASH
M106 P2 S0
UNLOAD_T1
T1

M104 S280

; FLUSH_START
M106 S25
G1 E30 F300
; FLUSH_END





M400
M106 S255
M104 S260
INIT_SYNC_BUFFER_STATE
BUFFER_MONITORING ENABLE=1
G1 E10 F25 
M73 P1 R13
M109 S260
G1 E-5 F1800
M73 P4 R13
CLEAR_OOZE
TOOL_CHANGE_END
G1 Y270 F8000
M106 S0
G1 E2 F1800
ENABLE_ALL_SENSOR
;_FORCE_RESUME_FAN_SPEED
; Filament gcode
SET_PRESSURE_ADVANCE ADVANCE=0.025; Override pressure advance value
G1 Z.2 F30000
M106 P2 S0
;LAYER_CHANGE
;Z:0.2
;HEIGHT:0.2
;BEFORE_LAYER_CHANGE
;0.2
G92 E0

 ; timelapse without wipe tower
TIMELAPSE_TAKE_FRAME

G92 E0
SET_PRINT_STATS_INFO CURRENT_LAYER=1
;_SET_FAN_SPEED_CHANGING_LAYER
SET_VELOCITY_LIMIT ACCEL=500
G1 E-.8 F1800
G1 X119.301 Y125.123 F30000
G1 Z.6
G1 Z.2
G1 E.8 F1800
;TYPE:Skirt
;WIDTH:0.44
G1 F3000
G1 X119.301 Y121.5 E.11364
G1 X119.692 Y120.249 E.04112
G1 X120.726 Y119.442 E.04112
G1 X121.5 Y119.301 E.02467
G1 X148.5 Y119.301 E.84689
G1 X149.751 Y119.692 E.04112
M73 P5 R12
G1 X150.337 Y120.293 E.02632
G1 X230.037 Y241.593 E4.55255
G1 X230.398 Y242.8 E.03953
G1 X230.398 Y252.7 E.3105
G1 X230.007 Y253.951 E.04112
G1 X228.973 Y254.757 E.04112
G1 X228.2 Y254.898 E.02467
G1 X161.8 Y254.898 E2.0827
G1 X160.549 Y254.507 E.04112
G1 X159.75 Y253.493 E.04051
G1 X119.449 Y149.293 E3.5043
G1 X119.301 Y148.5 E.02531
G1 X119.301 Y125.163 E.732
; printing object Cube id:0 copy 0
G1 E-.56 F1800
;WIPE_START
G1 F3000
G1 X119.301 Y124.163 E-.24
;WIPE_END
EXCLUDE_OBJECT_START NAME=Cube_id_0_copy_0
G1 X125.199 Y129.008 Z.6 F30000
G1 X146.542 Y146.542 Z.6
G1 Z.2
M73 P6 R12
G1 E.8 F1800
;TYPE:Inner wall
;WIDTH:0.439999
;HEIGHT:0.2
G1 F3000
G1 X123.458 Y146.542 E.72404
G1 X123.458 Y123.458 E.72404
G1 X146.542 Y123.458 E.72404
G1 X146.542 Y146.502 E.72279
G1 X146.939 Y146.939 F30000
G1 F3000
G1 X123.061 Y146.939 E.74895
G1 X123.061 Y123.061 E.74895
G1 X146.939 Y123.061 E.74895
G1 X146.939 Y146.899 E.7477
G1 X147.336 Y147.336 F30000
G1 F3000
G1 X122.664 Y147.336 E.77386
G1 X122.664 Y122.664 E.77386
G1 X147.336 Y122.664 E.77386
G1 X147.336 Y147.296 E.77261
G1 X147.733 Y147.733 F30000
G1 F3000
G1 X122.267 Y147.733 E.79877
G1 X122.267 Y122.267 E.79877
G1 X147.733 Y122.267 E.79877
G1 X147.733 Y147.693 E.79752
M73 P7 R12
G1 X148.13 Y148.13 F30000
;TYPE:Outer wall
G1 F3000
G1 X121.87 Y148.13 E.82368
G1 X121.87 Y121.87 E.82368
G1 X148.13 Y121.87 E.82368
G1 X148.13 Y148.09 E.82243
G1 E-.56 F1800
;WIPE_START
G1 F3000
G1 X147.13 Y148.092 E-.24
;WIPE_END
G1 X146.902 Y140.462 Z.6 F30000
G1 X146.423 Y124.385 Z.6
G1 Z.2
G1 E.8 F1800
;TYPE:Bottom surface
;WIDTH:0.442475
G1 F6300
G1 X145.793 Y123.756 E.02192
G1 X145.228 Y123.756 E.01234
G1 X146.244 Y124.772 E.03861
G1 X146.244 Y125.337 E.01234
G1 X144.663 Y123.756 E.06347
G1 X144.098 Y123.756 E.01234
G1 X146.244 Y125.902 E.08849
G1 X146.244 Y126.467 E.01234
G1 X143.533 Y123.756 E.11356
G1 X142.968 Y123.756 E.01234
G1 X146.244 Y127.032 E.13865
G1 X146.244 Y127.597 E.01234
G1 X142.403 Y123.756 E.16395
G1 X141.838 Y123.756 E.01234
G1 X146.244 Y128.162 E.18961
G1 X146.244 Y128.727 E.01234
G1 X141.273 Y123.756 E.21564
G1 X140.708 Y123.756 E.01234
G1 X146.244 Y129.292 E.24204
G1 X146.244 Y129.857 E.01234
G1 X140.143 Y123.756 E.26881
G1 X139.578 Y123.756 E.01234
G1 X146.244 Y130.422 E.29595
G1 X146.244 Y130.987 E.01234
G1 X139.013 Y123.756 E.32277
G1 X138.448 Y123.756 E.01234
G1 X146.244 Y131.552 E.34799
G1 X146.244 Y132.117 E.01234
G1 X137.883 Y123.756 E.37321
G1 X137.317 Y123.756 E.01234
G1 X146.244 Y132.683 E.39843
G1 X146.244 Y133.248 E.01234
G1 X136.752 Y123.756 E.42366
G1 X136.187 Y123.756 E.01234
G1 X146.244 Y133.813 E.44888
G1 X146.244 Y134.378 E.01234
G1 X135.622 Y123.756 E.4741
M73 P8 R12
G1 X135.057 Y123.756 E.01234
G1 X146.244 Y134.943 E.49932
G1 X146.244 Y135.508 E.01234
G1 X134.492 Y123.756 E.52454
G1 X133.927 Y123.756 E.01234
G1 X146.244 Y136.073 E.54976
G1 X146.244 Y136.638 E.01234
G1 X133.362 Y123.756 E.57498
G1 X132.797 Y123.756 E.01234
G1 X146.244 Y137.203 E.60021
G1 X146.244 Y137.768 E.01234
G1 X132.232 Y123.756 E.62543
G1 X131.667 Y123.756 E.01234
G1 X146.244 Y138.333 E.65065
G1 X146.244 Y138.898 E.01234
G1 X131.102 Y123.756 E.67587
G1 X130.537 Y123.756 E.01234
G1 X146.244 Y139.463 E.70109
G1 X146.244 Y140.028 E.01234
G1 X129.972 Y123.756 E.72631
G1 X129.407 Y123.756 E.01234
G1 X146.244 Y140.593 E.75153
G1 X146.244 Y141.158 E.01234
G1 X128.842 Y123.756 E.77676
G1 X128.277 Y123.756 E.01234
G1 X146.244 Y141.723 E.80198
G1 X146.244 Y142.288 E.01234
G1 X127.712 Y123.756 E.8272
G1 X127.146 Y123.756 E.01234
G1 X146.244 Y142.854 E.85242
G1 X146.244 Y143.419 E.01234
G1 X126.581 Y123.756 E.87764
G1 X126.016 Y123.756 E.01234
G1 X146.244 Y143.984 E.90286
G1 X146.244 Y144.549 E.01234
G1 X125.451 Y123.756 E.92809
G1 X124.886 Y123.756 E.01234
G1 X146.244 Y145.114 E.95331
G1 X146.244 Y145.679 E.01234
M73 P9 R12
G1 X124.321 Y123.756 E.97853
G1 X123.756 Y123.756 E.01234
G1 X146.244 Y146.244 E1.00375
G1 X145.679 Y146.244 E.01234
G1 X123.756 Y124.321 E.97853
G1 X123.756 Y124.886 E.01234
G1 X145.114 Y146.244 E.95331
G1 X144.549 Y146.244 E.01234
G1 X123.756 Y125.451 E.92808
G1 X123.756 Y126.016 E.01234
G1 X143.984 Y146.244 E.90286
G1 X143.419 Y146.244 E.01234
G1 X123.756 Y126.581 E.87764
G1 X123.756 Y127.146 E.01234
G1 X142.854 Y146.244 E.85242
G1 X142.288 Y146.244 E.01234
G1 X123.756 Y127.712 E.8272
G1 X123.756 Y128.277 E.01234
G1 X141.723 Y146.244 E.80198
G1 X141.158 Y146.244 E.01234
G1 X123.756 Y128.842 E.77676
G1 X123.756 Y129.407 E.01234
G1 X140.593 Y146.244 E.75153
G1 X140.028 Y146.244 E.01234
G1 X123.756 Y129.972 E.72631
G1 X123.756 Y130.537 E.01234
G1 X139.463 Y146.244 E.70109
G1 X138.898 Y146.244 E.01234
G1 X123.756 Y131.102 E.67587
G1 X123.756 Y131.667 E.01234
G1 X138.333 Y146.244 E.65065
G1 X137.768 Y146.244 E.01234
G1 X123.756 Y132.232 E.62543
G1 X123.756 Y132.797 E.01234
G1 X137.203 Y146.244 E.6002
G1 X136.638 Y146.244 E.01234
M73 P10 R12
G1 X123.756 Y133.362 E.57498
G1 X123.756 Y133.927 E.01234
G1 X136.073 Y146.244 E.54976
G1 X135.508 Y146.244 E.01234
G1 X123.756 Y134.492 E.52454
G1 X123.756 Y135.057 E.01234
G1 X134.943 Y146.244 E.49932
G1 X134.378 Y146.244 E.01234
G1 X123.756 Y135.622 E.4741
G1 X123.756 Y136.187 E.01234
G1 X133.813 Y146.244 E.44888
G1 X133.248 Y146.244 E.01234
G1 X123.756 Y136.752 E.42365
G1 X123.756 Y137.317 E.01234
G1 X132.683 Y146.244 E.39843
G1 X132.117 Y146.244 E.01234
G1 X123.756 Y137.883 E.37321
G1 X123.756 Y138.448 E.01234
G1 X131.552 Y146.244 E.34799
G1 X130.987 Y146.244 E.01234
G1 X123.756 Y139.013 E.32277
G1 X123.756 Y139.578 E.01234
G1 X130.422 Y146.244 E.29595
G1 X129.857 Y146.244 E.01234
G1 X123.756 Y140.143 E.26881
G1 X123.756 Y140.708 E.01234
G1 X129.292 Y146.244 E.24204
G1 X128.727 Y146.244 E.01234
G1 X123.756 Y141.273 E.21564
G1 X123.756 Y141.838 E.01234
G1 X128.162 Y146.244 E.18961
G1 X127.597 Y146.244 E.01234
G1 X123.756 Y142.403 E.16395
G1 X123.756 Y142.968 E.01234
G1 X127.032 Y146.244 E.13865
G1 X126.467 Y146.244 E.01234
G1 X123.756 Y143.533 E.11355
G1 X123.756 Y144.098 E.01234
G1 X125.902 Y146.244 E.08849
G1 X125.337 Y146.244 E.01234
G1 X123.756 Y144.663 E.06347
G1 X123.756 Y145.228 E.01234
G1 X124.772 Y146.244 E.03861
G1 X124.207 Y146.244 E.01234
G1 X123.577 Y145.615 E.02192
; stop printing object Cube id:0 copy 0
;LAYER_CHANGE
;Z:0.4
;HEIGHT:0.2
;BEFORE_LAYER_CHANGE
;0.4
G92 E0

G1 E-.56 F1800
;WIPE_START
G1 F6300
G1 X124.207 Y146.244 E-.21357
G1 X124.317 Y146.244 E-.02643
;WIPE_END
EXCLUDE_OBJECT_END NAME=Cube_id_0_copy_0
 ; timelapse without wipe tower
TIMELAPSE_TAKE_FRAME

G92 E0
SET_PRINT_STATS_INFO CURRENT_LAYER=2
;_SET_FAN_SPEED_CHANGING_LAYER
SET_VELOCITY_LIMIT ACCEL=10000
M140 S100 ; set bed temperature
; printing object Cube id:0 copy 0
EXCLUDE_OBJECT_START NAME=Cube_id_0_copy_0
G1 X145.985 Y145.985 Z.4 F30000
G1 E.8 F1800
SET_VELOCITY_LIMIT ACCEL=5000
;TYPE:Inner wall
;WIDTH:0.419999
;HEIGHT:0.2
G1 F15074.323
G1 X124.015 Y145.985 E.65439
G1 X124.015 Y124.015 E.65439
G1 X145.985 Y124.015 E.65439
G1 X145.985 Y145.945 E.6532
SET_VELOCITY_LIMIT ACCEL=10000
G1 X146.362 Y146.362 F30000
SET_VELOCITY_LIMIT ACCEL=5000
G1 F15074.323
G1 X123.638 Y146.362 E.67685
G1 X123.638 Y123.638 E.67685
G1 X146.362 Y123.638 E.67685
G1 X146.362 Y146.322 E.67566
SET_VELOCITY_LIMIT ACCEL=10000
G1 X146.739 Y146.739 F30000
SET_VELOCITY_LIMIT ACCEL=5000
G1 F15074.323
G1 X123.261 Y146.739 E.69931
G1 X123.261 Y123.261 E.69931
G1 X146.739 Y123.261 E.69931
G1 X146.739 Y146.699 E.69812
SET_VELOCITY_LIMIT ACCEL=10000
G1 E-.68059 F1800
;WIPE_START
G1 F15074.323
G1 X145.739 Y146.7 E-.11941
;WIPE_END
G1 X147.493 Y147.493 F30000
G1 E.8 F1800
SET_VELOCITY_LIMIT ACCEL=3000
;TYPE:Outer wall
G1 F15074.323
G1 X122.507 Y147.493 E.74424
G1 X122.507 Y122.507 E.74424
M73 P11 R12
G1 X147.493 Y122.507 E.74424
G1 X147.493 Y147.453 E.74305
SET_VELOCITY_LIMIT ACCEL=10000
G1 X147.116 Y147.116 F30000
SET_VELOCITY_LIMIT ACCEL=5000
;TYPE:Inner wall
G1 F15074.323
G1 X122.884 Y147.116 E.72178
G1 X122.884 Y122.884 E.72178
G1 X147.116 Y122.884 E.72178
G1 X147.116 Y147.076 E.72059
SET_VELOCITY_LIMIT ACCEL=10000
G1 X144.207 Y145.608 F30000
;TYPE:Internal solid infill
G1 F15000
G1 X145.608 Y145.608 E.03541
G1 X145.608 Y144.207 E.03541
G1 X144.235 Y145.579 E.05121
G1 X145.225 Y145.149 F30000
;WIDTH:0.48632
G1 F12819.599
G1 X145.17 Y145.149 E.00027
G1 X145.142 Y145.197 E.00027
G1 X145.17 Y145.245 E.00027
G1 X145.233 Y145.232 E.00037
G1 X143.462 Y145.871 F30000
;WIDTH:0.420991
G1 F15000
G1 X145.702 Y143.632 E.08766
G1 X145.702 Y143.097 E.01085
G1 X143.097 Y145.702 E.10299
G1 X142.563 Y145.702 E.01085
G1 X145.702 Y142.563 E.12545
G1 X145.702 Y142.028 E.01085
G1 X142.028 Y145.702 E.14802
G1 X141.493 Y145.702 E.01085
G1 X145.702 Y141.493 E.17089
G1 X145.702 Y140.959 E.01085
G1 X140.959 Y145.702 E.19408
G1 X140.424 Y145.702 E.01085
G1 X145.702 Y140.424 E.21757
G1 X145.702 Y139.889 E.01085
G1 X139.889 Y145.702 E.24138
G1 X139.355 Y145.702 E.01085
G1 X145.702 Y139.355 E.2655
G1 X145.702 Y138.82 E.01085
G1 X138.82 Y145.702 E.28993
G1 X138.285 Y145.702 E.01085
G1 X145.702 Y138.285 E.31324
G1 X145.702 Y137.751 E.01085
G1 X137.751 Y145.702 E.33583
G1 X137.216 Y145.702 E.01085
G1 X145.702 Y137.216 E.35841
G1 X145.702 Y136.681 E.01085
G1 X136.681 Y145.702 E.38099
G1 X136.146 Y145.702 E.01085
G1 X145.702 Y136.146 E.40357
G1 X145.702 Y135.612 E.01085
G1 X135.612 Y145.702 E.42615
G1 X135.077 Y145.702 E.01085
G1 X145.702 Y135.077 E.44874
G1 X145.702 Y134.542 E.01085
G1 X134.542 Y145.702 E.47132
G1 X134.008 Y145.702 E.01085
G1 X145.702 Y134.008 E.4939
G1 X145.702 Y133.473 E.01085
G1 X133.473 Y145.702 E.51648
G1 X132.938 Y145.702 E.01085
G1 X145.702 Y132.938 E.53906
G1 X145.702 Y132.404 E.01085
G1 X132.404 Y145.702 E.56165
G1 X131.869 Y145.702 E.01085
G1 X145.702 Y131.869 E.58423
G1 X145.702 Y131.334 E.01085
G1 X131.334 Y145.702 E.60681
G1 X130.8 Y145.702 E.01085
G1 X145.702 Y130.8 E.62939
G1 X145.702 Y130.265 E.01085
G1 X130.265 Y145.702 E.65197
G1 X129.73 Y145.702 E.01085
G1 X145.702 Y129.73 E.67456
G1 X145.702 Y129.196 E.01085
G1 X129.196 Y145.702 E.69714
G1 X128.661 Y145.702 E.01085
G1 X145.702 Y128.661 E.71972
G1 X145.702 Y128.126 E.01085
G1 X128.126 Y145.702 E.7423
G1 X127.592 Y145.702 E.01085
G1 X145.702 Y127.592 E.76489
G1 X145.702 Y127.057 E.01085
G1 X127.057 Y145.702 E.78747
G1 X126.522 Y145.702 E.01085
G1 X145.702 Y126.522 E.81005
G1 X145.702 Y125.988 E.01085
G1 X125.988 Y145.702 E.83263
G1 X125.453 Y145.702 E.01085
G1 X145.702 Y125.453 E.85521
G1 X145.702 Y124.918 E.01085
G1 X124.918 Y145.702 E.8778
G1 X124.384 Y145.702 E.01085
G1 X145.702 Y124.384 E.90038
G1 X145.702 Y124.298 E.00055
G1 X145.253 Y124.298 E.00857
G1 X124.298 Y145.253 E.88502
G1 X124.298 Y144.718 E.01085
G1 X144.718 Y124.298 E.86243
G1 X144.183 Y124.298 E.01085
G1 X124.298 Y144.183 E.83985
G1 X124.298 Y143.649 E.01085
G1 X143.649 Y124.298 E.81727
G1 X143.114 Y124.298 E.01085
G1 X124.298 Y143.114 E.79469
G1 X124.298 Y142.579 E.01085
G1 X142.579 Y124.298 E.77211
G1 X142.045 Y124.298 E.01085
G1 X124.298 Y142.045 E.74952
G1 X124.298 Y141.51 E.01085
G1 X141.51 Y124.298 E.72694
G1 X140.975 Y124.298 E.01085
G1 X124.298 Y140.975 E.70436
G1 X124.298 Y140.441 E.01085
G1 X140.441 Y124.298 E.68178
G1 X139.906 Y124.298 E.01085
G1 X124.298 Y139.906 E.65919
G1 X124.298 Y139.371 E.01085
G1 X139.371 Y124.298 E.63661
G1 X138.837 Y124.298 E.01085
G1 X124.298 Y138.837 E.61403
G1 X124.298 Y138.302 E.01085
G1 X138.302 Y124.298 E.59145
G1 X137.767 Y124.298 E.01085
G1 X124.298 Y137.767 E.56887
G1 X124.298 Y137.232 E.01085
G1 X137.233 Y124.298 E.54628
G1 X136.698 Y124.298 E.01085
G1 X124.298 Y136.698 E.5237
G1 X124.298 Y136.163 E.01085
G1 X136.163 Y124.298 E.50112
G1 X135.628 Y124.298 E.01085
G1 X124.298 Y135.628 E.47854
G1 X124.298 Y135.094 E.01085
G1 X135.094 Y124.298 E.45596
G1 X134.559 Y124.298 E.01085
G1 X124.298 Y134.559 E.43337
G1 X124.298 Y134.024 E.01085
G1 X134.024 Y124.298 E.41079
G1 X133.49 Y124.298 E.01085
G1 X124.298 Y133.49 E.38821
G1 X124.298 Y132.955 E.01085
G1 X132.955 Y124.298 E.36563
G1 X132.42 Y124.298 E.01085
G1 X124.298 Y132.42 E.34305
G1 X124.298 Y131.886 E.01085
G1 X131.886 Y124.298 E.32046
G1 X131.351 Y124.298 E.01085
G1 X124.298 Y131.351 E.29781
G1 X124.298 Y130.816 E.01085
M73 P12 R12
G1 X130.816 Y124.298 E.27328
G1 X130.282 Y124.298 E.01085
G1 X124.298 Y130.282 E.24906
G1 X124.298 Y129.747 E.01085
G1 X129.747 Y124.298 E.22515
G1 X129.212 Y124.298 E.01085
G1 X124.298 Y129.212 E.20156
G1 X124.298 Y128.678 E.01085
G1 X128.678 Y124.298 E.17827
G1 X128.143 Y124.298 E.01085
G1 X124.298 Y128.143 E.1553
G1 X124.298 Y127.608 E.01085
G1 X127.608 Y124.298 E.13264
G1 X127.074 Y124.298 E.01085
G1 X124.298 Y127.074 E.11017
G1 X124.298 Y126.539 E.01085
G1 X126.539 Y124.298 E.08772
G1 X126.004 Y124.298 E.01085
G1 X124.298 Y126.004 E.06531
G1 X124.298 Y125.47 E.01085
G1 X125.47 Y124.298 E.04299
G1 X124.935 Y124.298 E.01085
G1 X124.129 Y125.105 E.02794
G1 X124.405 Y124.344 F30000
;WIDTH:0.401052
G1 F15000
G1 X124.338 Y124.383 E.00043
G1 X124.408 Y124.418 E.00043
; stop printing object Cube id:0 copy 0
G1 E-.78137 F1800
;WIPE_START
G1 F15000
G1 X124.338 Y124.383 E-.00932
G1 X124.405 Y124.344 E-.0093
;WIPE_END
EXCLUDE_OBJECT_END NAME=Cube_id_0_copy_0
G1 X165.25 Y246.25 F30000
G1 E.8 F1800
G1 E-.8
G1 Z.2 F30000
G1 E.8 F1800
;HEIGHT:0.2
;TYPE:Prime tower
;WIDTH:0.5
;--------------------
; CP TOOLCHANGE START
; toolchange #1
; material : ASA -> ASA
