; HEADER_BLOCK_START
; generated by OrcaSlicer 2.3.1-beta on 2025-09-18 at 09:58:27
; total layer number: 135
; filament_density: 1.02,1.02,1.02,1.24,1.24,1.24
; filament_diameter: 1.75,1.75,1.75,1.75,1.75,1.75
; max_z_height: 27.00
; HEADER_BLOCK_END

; THUMBNAIL_BLOCK_START

;
; THUMBNAIL_BLOCK_END

; external perimeters extrusion width = 0.42mm
; perimeters extrusion width = 0.45mm
; infill extrusion width = 0.45mm
; solid infill extrusion width = 0.42mm
; top infill extrusion width = 0.42mm
; first layer extrusion width = 0.44mm

; external perimeters extrusion width = 0.42mm
; perimeters extrusion width = 0.45mm
; infill extrusion width = 0.45mm
; solid infill extrusion width = 0.42mm
; top infill extrusion width = 0.42mm
; first layer extrusion width = 0.44mm

; EXECUTABLE_BLOCK_START
EXCLUDE_OBJECT_DEFINE NAME=Cube_id_0_copy_0 CENTER=135,135 POLYGON=[[121.5,121.5],[148.5,121.5],[148.5,148.5],[121.5,148.5],[121.5,121.5]]
M73 P0 R12
M106 S0
M106 P2 S0
;TYPE:Custom
PRINT_START BED=100 HOTEND=260 CHAMBER=60 EXTRUDER=0
SET_PRINT_STATS_INFO TOTAL_LAYER=135
M83
M140 S100
M104 S260
M141 S60
G4 P3000
G1 X108.000 Y1 F30000
G0 Z0.2 F600
;G1 E3 F1800
G90
M83
G0 X128 E8  F904.991
G0 X133 E.3742  F1508.32
G0 X138 E.3742  F6033.27
G0 X143 E.3742  F1508.32
G0 X148 E.3742  F6033.27
G0 X153 E.3742  F1508.32
G91
G1 X1 Z-0.300
G1 X4
G1 Z1 F1200
G90
M400
G1 X108.000 Y2.5 F30000
G0 Z0.2 F600
M83
G0 X128 E10  F904.991
G0 X133 E.3742  F1508.32
G0 X138 E.3742  F6033.27
G0 X143 E.3742  F1508.32
G0 X148 E.3742  F6033.27
G0 X153 E.3742  F1508.32
G91
G1 X1 Z-0.300
G1 X4
G1 Z1 F1200
G90
M400
G1 Z1 F600
M106 P3 S255
G90
G21
M83 ; use relative distances for extrusion
PAUSE



;_FORCE_RESUME_FAN_SPEED
M104 S260 ; set nozzle temperature
; Filament gcode
SET_PRESSURE_ADVANCE ADVANCE=0.025; Override pressure advance value
M106 P2 S0
;LAYER_CHANGE
;Z:0.2
;HEIGHT:0.2
;BEFORE_LAYER_CHANGE
;0.2
G92 E0

G1 E-.8 F1800
 ; timelapse without wipe tower
TIMELAPSE_TAKE_FRAME

G92 E0
SET_PRINT_STATS_INFO CURRENT_LAYER=1
;_SET_FAN_SPEED_CHANGING_LAYER
SET_VELOCITY_LIMIT ACCEL=500
G1 X119.69 Y119.772 F30000
G1 Z.6
G1 Z.2
G1 E.8 F1800
;TYPE:Skirt
;WIDTH:0.44
G1 F3000
G1 X120.355 Y119.171 E.02814
G1 X121.5 Y118.904 E.03687
G1 X148.5 Y118.904 E.84689
G1 X149.872 Y119.297 E.04476
G1 X150.829 Y120.355 E.04476
G1 X151.096 Y121.5 E.03687
M73 P1 R12
G1 X151.096 Y148.5 E.84689
G1 X150.703 Y149.872 E.04476
G1 X149.645 Y150.829 E.04476
G1 X148.5 Y151.096 E.03687
G1 X121.5 Y151.096 E.84689
G1 X120.128 Y150.703 E.04476
G1 X119.171 Y149.645 E.04476
G1 X118.904 Y148.5 E.03687
G1 X118.904 Y121.5 E.84689
G1 X119.297 Y120.128 E.04476
G1 X119.66 Y119.799 E.01537
G1 X119.89 Y120.094 F30000
G1 F3000
G1 X120.726 Y119.442 E.03326
G1 X121.5 Y119.301 E.02467
G1 X148.5 Y119.301 E.84689
G1 X149.751 Y119.692 E.04112
G1 X150.558 Y120.726 E.04112
G1 X150.699 Y121.5 E.02467
G1 X150.699 Y148.5 E.84689
G1 X150.308 Y149.751 E.04112
G1 X149.274 Y150.558 E.04112
G1 X148.5 Y150.699 E.02467
G1 X121.5 Y150.699 E.84689
G1 X120.249 Y150.308 E.04112
G1 X119.442 Y149.274 E.04112
G1 X119.301 Y148.5 E.02467
G1 X119.301 Y121.5 E.84689
G1 X119.692 Y120.249 E.04112
G1 X119.859 Y120.119 E.00661
; printing object Cube id:0 copy 0
G1 E-.56 F1800
;WIPE_START
G1 F3000
G1 X120.647 Y119.504 E-.24
;WIPE_END
EXCLUDE_OBJECT_START NAME=Cube_id_0_copy_0
G1 X125.93 Y125.013 Z.6 F30000
G1 X147.314 Y147.314 Z.6
G1 Z.2
G1 E.8 F1800
;TYPE:Inner wall
;WIDTH:0.439999
G1 F3000
G1 X122.686 Y147.314 E.77252
G1 X122.686 Y122.686 E.77252
G1 X147.314 Y122.686 E.77252
G1 X147.314 Y147.274 E.77126
G1 X147.711 Y147.711 F30000
M73 P2 R12
G1 F3000
G1 X122.289 Y147.711 E.79743
G1 X122.289 Y122.289 E.79743
G1 X147.711 Y122.289 E.79743
G1 X147.711 Y147.671 E.79617
G1 X148.13 Y148.13 F30000
;TYPE:Outer wall
G1 F3000
G1 X121.87 Y148.13 E.82368
G1 X121.87 Y121.87 E.82368
G1 X148.13 Y121.87 E.82368
G1 X148.13 Y148.09 E.82243
G1 E-.56 F1800
;WIPE_START
G1 F3000
G1 X147.13 Y148.092 E-.24
;WIPE_END
G1 X147.15 Y140.459 Z.6 F30000
G1 X147.195 Y123.608 Z.6
G1 Z.2
G1 E.8 F1800
;TYPE:Bottom surface
;WIDTH:0.440041
G1 F6300
G1 X146.571 Y122.983 E.02157
G1 X146.01 Y122.983 E.01217
G1 X147.017 Y123.99 E.03801
G1 X147.017 Y124.552 E.01217
G1 X145.448 Y122.983 E.06255
G1 X144.886 Y122.983 E.01217
G1 X147.017 Y125.114 E.08727
G1 X147.017 Y125.675 E.01217
G1 X144.325 Y122.983 E.11203
G1 X143.763 Y122.983 E.01217
G1 X147.017 Y126.237 E.13682
G1 X147.017 Y126.799 E.01217
G1 X143.201 Y122.983 E.16179
G1 X142.64 Y122.983 E.01217
G1 X147.017 Y127.36 E.18713
G1 X147.017 Y127.922 E.01217
G1 X142.078 Y122.983 E.21282
G1 X141.517 Y122.983 E.01217
G1 X147.017 Y128.483 E.23888
G1 X147.017 Y129.045 E.01217
M73 P3 R12
G1 X140.955 Y122.983 E.2653
G1 X140.393 Y122.983 E.01217
G1 X147.017 Y129.607 E.29208
G1 X147.017 Y130.168 E.01217
G1 X139.832 Y122.983 E.31874
G1 X139.27 Y122.983 E.01217
G1 X147.017 Y130.73 E.34366
G1 X147.017 Y131.291 E.01217
G1 X138.709 Y122.983 E.36857
G1 X138.147 Y122.983 E.01217
G1 X147.017 Y131.853 E.39349
G1 X147.017 Y132.415 E.01217
G1 X137.585 Y122.983 E.4184
G1 X137.024 Y122.983 E.01217
G1 X147.017 Y132.976 E.44332
G1 X147.017 Y133.538 E.01217
G1 X136.462 Y122.983 E.46823
G1 X135.9 Y122.983 E.01217
G1 X147.017 Y134.1 E.49315
G1 X147.017 Y134.661 E.01217
G1 X135.339 Y122.983 E.51806
G1 X134.777 Y122.983 E.01217
G1 X147.017 Y135.223 E.54298
G1 X147.017 Y135.784 E.01217
G1 X134.216 Y122.983 E.56789
G1 X133.654 Y122.983 E.01217
G1 X147.017 Y136.346 E.59281
G1 X147.017 Y136.908 E.01217
G1 X133.092 Y122.983 E.61772
G1 X132.531 Y122.983 E.01217
G1 X147.017 Y137.469 E.64264
G1 X147.017 Y138.031 E.01217
G1 X131.969 Y122.983 E.66755
G1 X131.408 Y122.983 E.01217
G1 X147.017 Y138.592 E.69247
G1 X147.017 Y139.154 E.01217
G1 X130.846 Y122.983 E.71738
G1 X130.284 Y122.983 E.01217
G1 X147.017 Y139.716 E.7423
G1 X147.017 Y140.277 E.01217
G1 X129.723 Y122.983 E.76721
G1 X129.161 Y122.983 E.01217
M73 P4 R12
G1 X147.017 Y140.839 E.79213
G1 X147.017 Y141.4 E.01217
G1 X128.6 Y122.983 E.81704
G1 X128.038 Y122.983 E.01217
G1 X147.017 Y141.962 E.84196
G1 X147.017 Y142.524 E.01217
G1 X127.476 Y122.983 E.86687
G1 X126.915 Y122.983 E.01217
G1 X147.017 Y143.085 E.89179
G1 X147.017 Y143.647 E.01217
G1 X126.353 Y122.983 E.91671
G1 X125.791 Y122.983 E.01217
G1 X147.017 Y144.209 E.94162
G1 X147.017 Y144.77 E.01217
G1 X125.23 Y122.983 E.96654
G1 X124.668 Y122.983 E.01217
M73 P4 R11
G1 X147.017 Y145.332 E.99145
G1 X147.017 Y145.893 E.01217
G1 X124.107 Y122.983 E1.01637
G1 X123.545 Y122.983 E.01217
G1 X147.017 Y146.455 E1.04128
G1 X147.017 Y147.017 E.01217
G1 X122.983 Y122.983 E1.06619
G1 X122.983 Y123.545 E.01217
G1 X146.455 Y147.017 E1.04128
G1 X145.893 Y147.017 E.01217
G1 X122.983 Y124.107 E1.01636
G1 X122.983 Y124.668 E.01217
G1 X145.332 Y147.017 E.99145
G1 X144.77 Y147.017 E.01217
G1 X122.983 Y125.23 E.96653
G1 X122.983 Y125.792 E.01217
M73 P5 R11
G1 X144.208 Y147.017 E.94162
G1 X143.647 Y147.017 E.01217
G1 X122.983 Y126.353 E.9167
G1 X122.983 Y126.915 E.01217
G1 X143.085 Y147.017 E.89179
G1 X142.524 Y147.017 E.01217
G1 X122.983 Y127.476 E.86687
G1 X122.983 Y128.038 E.01217
G1 X141.962 Y147.017 E.84196
G1 X141.4 Y147.017 E.01217
G1 X122.983 Y128.6 E.81704
G1 X122.983 Y129.161 E.01217
G1 X140.839 Y147.017 E.79213
G1 X140.277 Y147.017 E.01217
G1 X122.983 Y129.723 E.76721
G1 X122.983 Y130.284 E.01217
G1 X139.716 Y147.017 E.74229
G1 X139.154 Y147.017 E.01217
G1 X122.983 Y130.846 E.71738
G1 X122.983 Y131.408 E.01217
G1 X138.592 Y147.017 E.69246
G1 X138.031 Y147.017 E.01217
G1 X122.983 Y131.969 E.66755
G1 X122.983 Y132.531 E.01217
G1 X137.469 Y147.017 E.64263
G1 X136.907 Y147.017 E.01217
G1 X122.983 Y133.093 E.61772
G1 X122.983 Y133.654 E.01217
G1 X136.346 Y147.017 E.5928
G1 X135.784 Y147.017 E.01217
G1 X122.983 Y134.216 E.56789
G1 X122.983 Y134.777 E.01217
G1 X135.223 Y147.017 E.54297
G1 X134.661 Y147.017 E.01217
M73 P6 R11
G1 X122.983 Y135.339 E.51806
G1 X122.983 Y135.901 E.01217
G1 X134.099 Y147.017 E.49314
G1 X133.538 Y147.017 E.01217
G1 X122.983 Y136.462 E.46823
G1 X122.983 Y137.024 E.01217
G1 X132.976 Y147.017 E.44331
G1 X132.415 Y147.017 E.01217
G1 X122.983 Y137.585 E.4184
G1 X122.983 Y138.147 E.01217
G1 X131.853 Y147.017 E.39348
G1 X131.291 Y147.017 E.01217
G1 X122.983 Y138.709 E.36857
G1 X122.983 Y139.27 E.01217
G1 X130.73 Y147.017 E.34365
G1 X130.168 Y147.017 E.01217
G1 X122.983 Y139.832 E.31874
G1 X122.983 Y140.394 E.01217
G1 X129.606 Y147.017 E.29207
G1 X129.045 Y147.017 E.01217
G1 X122.983 Y140.955 E.26529
G1 X122.983 Y141.517 E.01217
G1 X128.483 Y147.017 E.23888
G1 X127.922 Y147.017 E.01217
G1 X122.983 Y142.078 E.21282
G1 X122.983 Y142.64 E.01217
G1 X127.36 Y147.017 E.18712
G1 X126.798 Y147.017 E.01217
G1 X122.983 Y143.202 E.16179
G1 X122.983 Y143.763 E.01217
G1 X126.237 Y147.017 E.13681
G1 X125.675 Y147.017 E.01217
G1 X122.983 Y144.325 E.11202
G1 X122.983 Y144.886 E.01217
G1 X125.114 Y147.017 E.08726
G1 X124.552 Y147.017 E.01217
G1 X122.983 Y145.448 E.06255
G1 X122.983 Y146.01 E.01217
G1 X123.99 Y147.017 E.038
G1 X123.429 Y147.017 E.01217
G1 X122.805 Y146.393 E.02156
; stop printing object Cube id:0 copy 0
;LAYER_CHANGE
;Z:0.4
;HEIGHT:0.2
;BEFORE_LAYER_CHANGE
;0.4
G92 E0

G1 E-.56 F1800
;WIPE_START
G1 F6300
G1 X123.429 Y147.017 E-.21179
G1 X123.546 Y147.017 E-.02821
;WIPE_END
EXCLUDE_OBJECT_END NAME=Cube_id_0_copy_0
 ; timelapse without wipe tower
TIMELAPSE_TAKE_FRAME

G92 E0
SET_PRINT_STATS_INFO CURRENT_LAYER=2
;_SET_FAN_SPEED_CHANGING_LAYER
SET_VELOCITY_LIMIT ACCEL=10000
M140 S100 ; set bed temperature
; printing object Cube id:0 copy 0
EXCLUDE_OBJECT_START NAME=Cube_id_0_copy_0
G1 X147.469 Y147.469 Z.4 F30000
G1 E.8 F1800
SET_VELOCITY_LIMIT ACCEL=5000
;TYPE:Inner wall
;WIDTH:0.449999
G1 F13963.407
G1 X122.531 Y147.469 E.80194
G1 X122.531 Y122.531 E.80194
G1 X147.469 Y122.531 E.80194
G1 X147.469 Y147.429 E.80065
SET_VELOCITY_LIMIT ACCEL=10000
G1 X147.876 Y147.876 F30000
SET_VELOCITY_LIMIT ACCEL=5000
G1 F13963.407
G1 X122.124 Y147.876 E.82812
G1 X122.124 Y122.124 E.82812
G1 X147.876 Y122.124 E.82812
G1 X147.876 Y147.836 E.82683
SET_VELOCITY_LIMIT ACCEL=10000
G1 X148.29 Y148.29 F30000
SET_VELOCITY_LIMIT ACCEL=3000
;TYPE:Outer wall
;WIDTH:0.419999
G1 F12000
G1 X121.71 Y148.29 E.79173
G1 X121.71 Y121.71 E.79173
G1 X148.29 Y121.71 E.79173
G1 X148.29 Y148.25 E.79053
SET_VELOCITY_LIMIT ACCEL=10000
G1 E-.65 F1800
M73 P7 R11
;WIPE_START
G1 F12000
G1 X147.29 Y148.252 E-.15
;WIPE_END
G1 X145.649 Y147.077 F30000
G1 E.8 F1800
;TYPE:Internal solid infill
G1 F15000
G1 X147.077 Y147.077 E.03622
G1 X147.077 Y145.649 E.03622
G1 X145.677 Y147.049 E.05238
G1 X146.688 Y146.609 F30000
;WIDTH:0.502804
G1 F12360.096
G1 X146.63 Y146.609 E.0003
G1 X146.601 Y146.659 E.0003
G1 X146.63 Y146.709 E.0003
G1 X146.688 Y146.709 E.0003
G1 X146.696 Y146.693 E.00003
G1 X147.349 Y144.896 F30000
;WIDTH:0.420866
G1 F15000
G1 X145.066 Y147.179 E.08944
G1 X144.532 Y147.179 E.01084
G1 X147.179 Y144.532 E.10475
G1 X147.179 Y143.997 E.01084
G1 X143.997 Y147.179 E.1272
G1 X143.463 Y147.179 E.01084
G1 X147.179 Y143.463 E.14978
G1 X147.179 Y142.928 E.01084
G1 X142.928 Y147.179 E.17266
G1 X142.394 Y147.179 E.01084
G1 X147.179 Y142.394 E.19585
G1 X147.179 Y141.859 E.01084
G1 X141.859 Y147.179 E.21936
G1 X141.325 Y147.179 E.01084
G1 X147.179 Y141.325 E.24317
G1 X147.179 Y140.79 E.01084
G1 X140.79 Y147.179 E.2673
G1 X140.256 Y147.179 E.01084
G1 X147.179 Y140.256 E.29174
G1 X147.179 Y139.721 E.01084
G1 X139.721 Y147.179 E.31488
G1 X139.187 Y147.179 E.01084
G1 X147.179 Y139.187 E.33745
G1 X147.179 Y138.652 E.01084
G1 X138.652 Y147.179 E.36002
G1 X138.118 Y147.179 E.01084
G1 X147.179 Y138.118 E.38258
G1 X147.179 Y137.583 E.01084
G1 X137.583 Y147.179 E.40515
G1 X137.049 Y147.179 E.01084
G1 X147.179 Y137.049 E.42772
G1 X147.179 Y136.514 E.01084
G1 X136.514 Y147.179 E.45029
G1 X135.98 Y147.179 E.01084
G1 X147.179 Y135.98 E.47285
G1 X147.179 Y135.445 E.01084
G1 X135.445 Y147.179 E.49542
G1 X134.911 Y147.179 E.01084
G1 X147.179 Y134.911 E.51799
G1 X147.179 Y134.376 E.01084
G1 X134.376 Y147.179 E.54055
G1 X133.842 Y147.179 E.01084
G1 X147.179 Y133.842 E.56312
G1 X147.179 Y133.307 E.01084
G1 X133.307 Y147.179 E.58569
G1 X132.773 Y147.179 E.01084
G1 X147.179 Y132.773 E.60826
G1 X147.179 Y132.238 E.01084
G1 X132.238 Y147.179 E.63082
G1 X131.704 Y147.179 E.01084
G1 X147.179 Y131.704 E.65339
G1 X147.179 Y131.169 E.01084
G1 X131.169 Y147.179 E.67596
G1 X130.635 Y147.179 E.01084
G1 X147.179 Y130.635 E.69852
G1 X147.179 Y130.1 E.01084
G1 X130.1 Y147.179 E.72109
G1 X129.566 Y147.179 E.01084
G1 X147.179 Y129.566 E.74366
G1 X147.179 Y129.031 E.01084
G1 X129.031 Y147.179 E.76623
G1 X128.497 Y147.179 E.01084
G1 X147.179 Y128.497 E.78879
G1 X147.179 Y127.962 E.01084
G1 X127.962 Y147.179 E.81136
G1 X127.428 Y147.179 E.01084
G1 X147.179 Y127.428 E.83393
G1 X147.179 Y126.893 E.01084
G1 X126.893 Y147.179 E.85649
G1 X126.359 Y147.179 E.01084
G1 X147.179 Y126.359 E.87906
G1 X147.179 Y125.824 E.01084
G1 X125.824 Y147.179 E.90163
G1 X125.29 Y147.179 E.01084
G1 X147.179 Y125.29 E.9242
G1 X147.179 Y124.755 E.01084
G1 X124.755 Y147.179 E.94676
G1 X124.221 Y147.179 E.01084
G1 X147.179 Y124.221 E.96933
G1 X147.179 Y123.686 E.01084
G1 X123.686 Y147.179 E.9919
G1 X123.152 Y147.179 E.01084
G1 X147.179 Y123.152 E1.01447
G1 X147.179 Y122.821 E.0057
G1 X146.975 Y122.821 E.00274
G1 X122.821 Y146.975 E1.01984
G1 X122.821 Y146.441 E.01084
G1 X146.441 Y122.821 E.99727
G1 X145.906 Y122.821 E.01084
G1 X122.821 Y145.906 E.9747
G1 X122.821 Y145.372 E.01084
G1 X145.372 Y122.821 E.95214
G1 X144.837 Y122.821 E.01084
G1 X122.821 Y144.837 E.92957
G1 X122.821 Y144.303 E.01084
G1 X144.303 Y122.821 E.907
G1 X143.768 Y122.821 E.01084
G1 X122.821 Y143.768 E.88443
G1 X122.821 Y143.234 E.01084
G1 X143.234 Y122.821 E.86187
G1 X142.699 Y122.821 E.01084
G1 X122.821 Y142.699 E.8393
G1 X122.821 Y142.165 E.01084
G1 X142.165 Y122.821 E.81673
G1 X141.63 Y122.821 E.01084
G1 X122.821 Y141.63 E.79417
G1 X122.821 Y141.096 E.01084
G1 X141.096 Y122.821 E.7716
G1 X140.561 Y122.821 E.01084
G1 X122.821 Y140.561 E.74903
G1 X122.821 Y140.027 E.01084
G1 X140.027 Y122.821 E.72646
G1 X139.492 Y122.821 E.01084
G1 X122.821 Y139.492 E.7039
G1 X122.821 Y138.958 E.01084
G1 X138.958 Y122.821 E.68133
G1 X138.424 Y122.821 E.01084
G1 X122.821 Y138.423 E.65876
G1 X122.821 Y137.889 E.01084
G1 X137.889 Y122.821 E.63619
G1 X137.355 Y122.821 E.01084
M73 P8 R11
G1 X122.821 Y137.355 E.61363
G1 X122.821 Y136.82 E.01084
G1 X136.82 Y122.821 E.59106
G1 X136.286 Y122.821 E.01084
G1 X122.821 Y136.286 E.56849
G1 X122.821 Y135.751 E.01084
G1 X135.751 Y122.821 E.54593
G1 X135.217 Y122.821 E.01084
G1 X122.821 Y135.217 E.52336
G1 X122.821 Y134.682 E.01084
G1 X134.682 Y122.821 E.50079
G1 X134.148 Y122.821 E.01084
G1 X122.821 Y134.148 E.47822
G1 X122.821 Y133.613 E.01084
G1 X133.613 Y122.821 E.45566
G1 X133.079 Y122.821 E.01084
G1 X122.821 Y133.079 E.43309
G1 X122.821 Y132.544 E.01084
G1 X132.544 Y122.821 E.41052
G1 X132.01 Y122.821 E.01084
G1 X122.821 Y132.01 E.38796
G1 X122.821 Y131.475 E.01084
G1 X131.475 Y122.821 E.36539
G1 X130.941 Y122.821 E.01084
G1 X122.821 Y130.941 E.34282
G1 X122.821 Y130.406 E.01084
G1 X130.406 Y122.821 E.32025
G1 X129.872 Y122.821 E.01084
G1 X122.821 Y129.872 E.29761
G1 X122.821 Y129.337 E.01084
G1 X129.337 Y122.821 E.27309
G1 X128.803 Y122.821 E.01084
G1 X122.821 Y128.803 E.24889
G1 X122.821 Y128.268 E.01084
G1 X128.268 Y122.821 E.225
G1 X127.734 Y122.821 E.01084
G1 X122.821 Y127.734 E.20142
G1 X122.821 Y127.199 E.01084
G1 X127.199 Y122.821 E.17815
G1 X126.665 Y122.821 E.01084
G1 X122.821 Y126.665 E.1552
G1 X122.821 Y126.13 E.01084
G1 X126.13 Y122.821 E.13256
G1 X125.596 Y122.821 E.01084
G1 X122.821 Y125.596 E.1101
G1 X122.821 Y125.061 E.01084
G1 X125.061 Y122.821 E.08766
G1 X124.527 Y122.821 E.01084
G1 X122.821 Y124.527 E.06527
G1 X122.821 Y123.992 E.01084
G1 X123.992 Y122.821 E.04296
G1 X123.458 Y122.821 E.01084
G1 X122.651 Y123.627 E.02793
G1 X122.931 Y122.871 F30000
;WIDTH:0.392266
G1 F15000
G1 X122.865 Y122.909 E.0004
G1 X122.932 Y122.943 E.0004
; stop printing object Cube id:0 copy 0
;LAYER_CHANGE
;Z:0.6
;HEIGHT:0.2
;BEFORE_LAYER_CHANGE
;0.6
G92 E0

