; HEADER_BLOCK_START
; generated by OrcaSlicer 2.3.1 on 2025-11-18 at 19:17:10
; total layer number: 1
; filament_density: 1.02,1.02,1.02,1.24,1.24,1.24
; filament_diameter: 1.75,1.75,1.75,1.75,1.75,1.75
; max_z_height: 0.20
; HEADER_BLOCK_END

; THUMBNAIL_BLOCK_START

;
; THUMBNAIL_BLOCK_END

; external perimeters extrusion width = 0.62mm
; perimeters extrusion width = 0.62mm
; infill extrusion width = 0.62mm
; solid infill extrusion width = 0.62mm
; top infill extrusion width = 0.62mm
; first layer extrusion width = 0.62mm

; external perimeters extrusion width = 0.62mm
; perimeters extrusion width = 0.62mm
; infill extrusion width = 0.62mm
; solid infill extrusion width = 0.62mm
; top infill extrusion width = 0.62mm
; first layer extrusion width = 0.62mm

; EXECUTABLE_BLOCK_START
EXCLUDE_OBJECT_DEFINE NAME=Cube_id_0_copy_0 CENTER=137.2,135 POLYGON=[[136.9,125],[137.5,125],[137.5,145],[136.9,145],[136.9,125]]
EXCLUDE_OBJECT_DEFINE NAME=Cube_id_1_copy_0 CENTER=132.8,135 POLYGON=[[132.5,125],[133.1,125],[133.1,145],[132.5,145],[132.5,125]]
M73 P0 R0
M106 S0
M106 P2 S0
;TYPE:Custom
PRINT_START BED=100 HOTEND=260 CHAMBER=60 EXTRUDER=0
SET_PRINT_STATS_INFO TOTAL_LAYER=1
M83
M140 S100
M104 S260
M141 S60
G4 P3000
T0
G1 X108.000 Y1 F30000
G0 Z0.2 F600
M73 P2 R0
;G1 E3 F1800
G90
M83
G0 X128 E8  F1320
G0 X133 E.3742  F2200
M73 P5 R0
G0 X138 E.3742  F8800
M73 P6 R0
G0 X143 E.3742  F2200
G0 X148 E.3742  F8800
G0 X153 E.3742  F2200
G91
G1 X1 Z-0.300
M73 P7 R0
G1 X4
G1 Z1 F1200
M73 P8 R0
G90
M400
G1 X108.000 Y2.5 F30000
G0 Z0.2 F600
M73 P9 R0
M83
G0 X128 E10  F1320
G0 X133 E.3742  F2200
M73 P13 R0
G0 X138 E.3742  F8800
G0 X143 E.3742  F2200
G0 X148 E.3742  F8800
M73 P14 R0
G0 X153 E.3742  F2200
G91
G1 X1 Z-0.300
M73 P15 R0
G1 X4
G1 Z1 F1200
G90
M400
G1 Z1 F600
M73 P16 R0
M106 P3 S255
G90
G21
M83 ; use relative distances for extrusion
; Filament gcode
SET_PRESSURE_ADVANCE ADVANCE=0.015; Override pressure advance value
T0
M106 P2 S0
;LAYER_CHANGE
;Z:0.2
;HEIGHT:0.2
;BEFORE_LAYER_CHANGE
;0.2
G92 E0

 ; timelapse without wipe tower
TIMELAPSE_TAKE_FRAME

G92 E0
SET_PRINT_STATS_INFO CURRENT_LAYER=1
;_SET_FAN_SPEED_CHANGING_LAYER
SET_VELOCITY_LIMIT ACCEL=500
G1 E-.8 F1800
G1 X127.799 Y124.202 F30000
G1 Z.6
M73 P19 R0
G1 Z.2
G1 E.8 F1800
M73 P20 R0
;TYPE:Skirt
;WIDTH:0.62
G1 F3000
G1 X128.03 Y123.078 E.05067
G1 X129.154 Y121.468 E.08665
G1 X130.821 Y120.433 E.08665
G1 X132.5 Y120.134 E.07527
G1 X137.5 Y120.134 E.22073
G1 X139.422 Y120.53 E.08665
M73 P21 R0
G1 X141.032 Y121.654 E.08665
G1 X142.067 Y123.321 E.08665
G1 X142.366 Y125 E.07527
G1 X142.366 Y145 E.88291
M73 P22 R0
G1 X141.97 Y146.922 E.08665
M73 P23 R0
G1 X140.846 Y148.532 E.08665
G1 X139.179 Y149.567 E.08665
G1 X137.5 Y149.866 E.07527
M73 P24 R0
G1 X132.5 Y149.866 E.22073
G1 X130.578 Y149.47 E.08665
G1 X128.968 Y148.346 E.08665
G1 X127.933 Y146.679 E.08665
M73 P25 R0
G1 X127.634 Y145 E.07527
G1 X127.634 Y125 E.88291
G1 X127.787 Y124.26 E.03333
M73 P27 R0
G1 X128.347 Y124.384 F30000
G1 F3000
G1 X128.607 Y123.202 E.05343
G1 X129.72 Y121.735 E.08129
G1 X131.346 Y120.87 E.08129
G1 X132.5 Y120.711 E.05144
G1 X137.5 Y120.711 E.22073
M73 P28 R0
G1 X139.298 Y121.107 E.08129
G1 X140.765 Y122.22 E.08129
G1 X141.63 Y123.846 E.08129
G1 X141.789 Y125 E.05144
M73 P29 R0
G1 X141.789 Y145 E.88291
G1 X141.393 Y146.798 E.08129
M73 P30 R0
G1 X140.28 Y148.265 E.08129
G1 X138.654 Y149.13 E.08129
M73 P31 R0
G1 X137.5 Y149.289 E.05144
G1 X132.5 Y149.289 E.22073
G1 X130.702 Y148.893 E.08129
G1 X129.235 Y147.78 E.08129
G1 X128.37 Y146.154 E.08129
M73 P32 R0
G1 X128.211 Y145 E.05144
G1 X128.211 Y125 E.88291
G1 X128.334 Y124.442 E.02521
M73 P34 R0
; printing object Cube id:0 copy 0
G1 E-.8 F1800
EXCLUDE_OBJECT_START NAME=Cube_id_0_copy_0
G1 X131.394 Y131.434 Z.6 F30000
G1 X137.2 Y144.7 Z.6
G1 Z.2
M73 P36 R0
G1 E.8 F1800
;TYPE:Outer wall
;WIDTH:0.599998
G1 F3000
G1 X137.2 Y125.3 E.82674
; stop printing object Cube id:0 copy 0
; printing object Cube id:1 copy 0
G1 E-.8 F1800
M73 P38 R0
EXCLUDE_OBJECT_END NAME=Cube_id_0_copy_0
EXCLUDE_OBJECT_START NAME=Cube_id_1_copy_0
G1 X135.512 Y132.743 Z.6 F30000
G1 X132.8 Y144.7 Z.6
G1 Z.2
M73 P39 R0
G1 E.8 F1800
G1 F3000
M73 P40 R0
G1 X132.8 Y125.3 E.82674
; stop printing object Cube id:1 copy 0
G1 E-.8 F1800
M73 P41 R0
EXCLUDE_OBJECT_END NAME=Cube_id_1_copy_0
M106 S0
M106 P2 S0
;TYPE:Custom
; filament end gcode
DISABLE_BOX_HEATER
M141 S0
M140 S0
DISABLE_ALL_SENSOR
G1 E-3 F1800
G0 Z3.2 F600
M73 P42 R0
UNLOAD_FILAMENT T=0
G0 Y270 F12000
M73 P43 R0
G0 X90 Y270 F12000
M73 P47 R0
G1 Z140 F600
M73 P49 R0
M104 S0
M106 P3 S255
M73 P100 R0
; EXECUTABLE_BLOCK_END

; filament used [mm] = 30.33, 0.00, 0.00, 0.00, 0.00, 0.00
; filament used [cm3] = 0.07, 0.00, 0.00, 0.00, 0.00, 0.00
; filament used [g] = 0.07, 0.00, 0.00, 0.00, 0.00, 0.00
; filament cost = 0.00, 0.00, 0.00, 0.00, 0.00, 0.00
; total filament used [g] = 0.07
; total filament cost = 0.00
; total layers count = 1
; estimated printing time (normal mode) = 27s
; estimated first layer printing time (normal mode) = 5s

; CONFIG_BLOCK_START
; accel_to_decel_enable = 0
; accel_to_decel_factor = 50%
; activate_air_filtration = 1,1,0,0,0,0
; activate_chamber_temp_control = 0,0,0,0,0,0
; adaptive_bed_mesh_margin = 0
; adaptive_pressure_advance = 0,0,0,0,0,0
; adaptive_pressure_advance_bridges = 0,0,0,0,0,0
; adaptive_pressure_advance_model = "0,0,0\n0,0,0";"0,0,0\n0,0,0";"0,0,0\n0,0,0";"0,0,0\n0,0,0";"0,0,0\n0,0,0";"0,0,0\n0,0,0"
; adaptive_pressure_advance_overhangs = 0,0,0,0,0,0
; additional_cooling_fan_speed = 10,10,0,70,70,70
; align_infill_direction_to_model = 0
; alternate_extra_wall = 0
; auxiliary_fan = 1
; bbl_calib_mark_logo = 1
; bbl_use_printhost = 0
; bed_custom_model = 
; bed_custom_texture = 
; bed_exclude_area = 0x0,11x0,11x16,0x16
; bed_mesh_max = 99999,99999
; bed_mesh_min = -99999,-99999
; bed_mesh_probe_distance = 50,50
; before_layer_change_gcode = ;BEFORE_LAYER_CHANGE\n;[layer_z]\nG92 E0\n
; best_object_pos = 0.5,0.5
; bottom_shell_layers = 5
; bottom_shell_thickness = 0
; bottom_solid_infill_flow_ratio = 1
; bottom_surface_density = 100%
; bottom_surface_pattern = monotonic
; bridge_acceleration = 50%
; bridge_angle = 0
; bridge_density = 100%
; bridge_flow = 0.95
; bridge_no_support = 0
; bridge_speed = 10
; brim_ears_detection_length = 1
; brim_ears_max_angle = 125
; brim_object_gap = 0.1
; brim_type = no_brim
; brim_width = 1
; calib_flowrate_topinfill_special_order = 0
; chamber_temperature = 60,60,0,0,0,0
; change_extrusion_role_gcode = 
; change_filament_gcode = PAUSE Z=1\n\n\n\n
; close_fan_the_first_x_layers = 3,3,3,1,1,1
; complete_print_exhaust_fan_speed = 100,100,70,70,70,70
; cool_plate_temp = 0,0,0,35,35,35
; cool_plate_temp_initial_layer = 0,0,0,35,35,35
; cooling_tube_length = 5
; cooling_tube_retraction = 91.5
; counterbore_hole_bridging = none
; curr_bed_type = High Temp Plate
; default_acceleration = 10000
; default_bed_type = 
; default_filament_colour = ;;;;;
; default_filament_profile = "Generic PLA @System"
; default_jerk = 0
; default_junction_deviation = 0
; default_print_profile = 0.20mm Standard @MyKlipper
; deretraction_speed = 30
; detect_narrow_internal_solid_infill = 1
; detect_overhang_wall = 1
; detect_thin_wall = 0
; different_settings_to_system = accel_to_decel_enable;bottom_shell_layers;bridge_flow;bridge_speed;brim_type;brim_width;default_acceleration;elefant_foot_compensation;filter_out_gap_fill;gap_infill_speed;infill_wall_overlap;initial_layer_line_width;inner_wall_line_width;inner_wall_speed;internal_bridge_speed;internal_solid_infill_line_width;internal_solid_infill_speed;line_width;outer_wall_line_width;outer_wall_speed;precise_outer_wall;seam_slope_conditional;seam_slope_inner_walls;skirt_distance;skirt_height;skirt_loops;slow_down_layers;small_area_infill_flow_compensation;small_perimeter_speed;small_perimeter_threshold;sparse_infill_density;sparse_infill_line_width;sparse_infill_pattern;sparse_infill_speed;support_line_width;thick_bridges;top_bottom_infill_wall_overlap;top_shell_layers;top_shell_thickness;top_surface_line_width;top_surface_speed;travel_acceleration;travel_speed;activate_air_filtration;additional_cooling_fan_speed;chamber_temperature;compatible_printers;complete_print_exhaust_fan_speed;during_print_exhaust_fan_speed;enable_pressure_advance;filament_flow_ratio;filament_max_volumetric_speed;filament_retract_when_changing_layer;filament_wipe;pressure_advance;activate_air_filtration;additional_cooling_fan_speed;chamber_temperature;compatible_printers;complete_print_exhaust_fan_speed;during_print_exhaust_fan_speed;enable_pressure_advance;filament_flow_ratio;filament_max_volumetric_speed;filament_retract_when_changing_layer;filament_wipe;pressure_advance;;;;;auxiliary_fan;bed_exclude_area;change_filament_gcode;extruder_clearance_height_to_lid;extruder_clearance_height_to_rod;extruder_clearance_radius;fan_kickstart;fan_speedup_time;layer_change_gcode;machine_end_gcode;machine_max_jerk_e;machine_max_jerk_z;machine_max_speed_e;machine_max_speed_x;machine_max_speed_y;machine_max_speed_z;machine_pause_gcode;machine_start_gcode;nozzle_diameter;print_host;printable_area;printable_height;purge_in_prime_tower;retract_lift_enforce;thumbnails;z_hop_types
; disable_m73 = 0
; dont_filter_internal_bridges = disabled
; dont_slow_down_outer_wall = 0,0,0,0,0,0
; draft_shield = disabled
; during_print_exhaust_fan_speed = 100,100,70,70,70,70
; elefant_foot_compensation = 0.15
; elefant_foot_compensation_layers = 1
; emit_machine_limits_to_gcode = 1
; enable_arc_fitting = 0
; enable_extra_bridge_layer = disabled
; enable_filament_ramming = 1
; enable_long_retraction_when_cut = 0
; enable_overhang_bridge_fan = 1,1,1,1,1,1
; enable_overhang_speed = 1
; enable_pressure_advance = 1,1,0,0,0,0
; enable_prime_tower = 0
; enable_support = 0
; enforce_support_layers = 0
; eng_plate_temp = 100,100,100,0,0,0
; eng_plate_temp_initial_layer = 100,100,100,0,0,0
; ensure_vertical_shell_thickness = ensure_all
; exclude_object = 1
; extra_loading_move = -2
; extra_perimeters_on_overhangs = 0
; extra_solid_infills = 
; extruder_clearance_height_to_lid = 120
; extruder_clearance_height_to_rod = 40
; extruder_clearance_radius = 70
; extruder_colour = #008000;#808080;#000000;#FF80C0;#FFFFFF;#000000
; extruder_offset = 0x0
; extrusion_rate_smoothing_external_perimeter_only = 0
; fan_cooling_layer_time = 35,35,35,100,100,100
; fan_kickstart = 0.2
; fan_max_speed = 80,80,80,100,100,100
; fan_min_speed = 10,10,10,100,100,100
; fan_speedup_overhangs = 1
; fan_speedup_time = 0.2
; filament_colour = #008000;#808080;#000000;#FF80C0;#FFFFFF;#000000
; filament_cooling_final_speed = 3.4,3.4,3.4,3.4,3.4,3.4
; filament_cooling_initial_speed = 2.2,2.2,2.2,2.2,2.2,2.2
; filament_cooling_moves = 4,4,4,4,4,4
; filament_cost = 23.6,23.6,23.6,20,20,20
; filament_density = 1.02,1.02,1.02,1.24,1.24,1.24
; filament_diameter = 1.75,1.75,1.75,1.75,1.75,1.75
; filament_end_gcode = "; filament end gcode\n";"; filament end gcode\n";"; filament end gcode\n";"; filament end gcode\n";"; filament end gcode\n";"; filament end gcode\n"
; filament_flow_ratio = 0.92,0.92,0.95,0.98,0.98,0.98
; filament_ids = OGFB61;OGFB61;OGFB61;OGFL99;OGFL99;OGFL99
; filament_is_support = 0,0,0,0,0,0
; filament_loading_speed = 28,28,28,28,28,28
; filament_loading_speed_start = 3,3,3,3,3,3
; filament_max_volumetric_speed = 22,22,12,12,12,12
; filament_minimal_purge_on_wipe_tower = 15,15,15,15,15,15
; filament_multitool_ramming = 0,0,0,0,0,0
; filament_multitool_ramming_flow = 10,10,10,10,10,10
; filament_multitool_ramming_volume = 10,10,10,10,10,10
; filament_notes = ;;;;;
; filament_ramming_parameters = "120 100 6.6 6.8 7.2 7.6 7.9 8.2 8.7 9.4 9.9 10.0| 0.05 6.6 0.45 6.8 0.95 7.8 1.45 8.3 1.95 9.7 2.45 10 2.95 7.6 3.45 7.6 3.95 7.6 4.45 7.6 4.95 7.6";"120 100 6.6 6.8 7.2 7.6 7.9 8.2 8.7 9.4 9.9 10.0| 0.05 6.6 0.45 6.8 0.95 7.8 1.45 8.3 1.95 9.7 2.45 10 2.95 7.6 3.45 7.6 3.95 7.6 4.45 7.6 4.95 7.6";"120 100 6.6 6.8 7.2 7.6 7.9 8.2 8.7 9.4 9.9 10.0| 0.05 6.6 0.45 6.8 0.95 7.8 1.45 8.3 1.95 9.7 2.45 10 2.95 7.6 3.45 7.6 3.95 7.6 4.45 7.6 4.95 7.6";"120 100 6.6 6.8 7.2 7.6 7.9 8.2 8.7 9.4 9.9 10.0| 0.05 6.6 0.45 6.8 0.95 7.8 1.45 8.3 1.95 9.7 2.45 10 2.95 7.6 3.45 7.6 3.95 7.6 4.45 7.6 4.95 7.6";"120 100 6.6 6.8 7.2 7.6 7.9 8.2 8.7 9.4 9.9 10.0| 0.05 6.6 0.45 6.8 0.95 7.8 1.45 8.3 1.95 9.7 2.45 10 2.95 7.6 3.45 7.6 3.95 7.6 4.45 7.6 4.95 7.6";"120 100 6.6 6.8 7.2 7.6 7.9 8.2 8.7 9.4 9.9 10.0| 0.05 6.6 0.45 6.8 0.95 7.8 1.45 8.3 1.95 9.7 2.45 10 2.95 7.6 3.45 7.6 3.95 7.6 4.45 7.6 4.95 7.6"
; filament_retract_when_changing_layer = 0,0,nil,nil,nil,nil
; filament_settings_id = "0.6 PolyLite ASA @System - Copy";"0.6 PolyLite ASA @System - Copy";"PolyLite ASA @System";"Generic PLA @System";"Generic PLA @System";"Generic PLA @System"
; filament_shrink = 100%,100%,100%,100%,100%,100%
; filament_shrinkage_compensation_z = 100%,100%,100%,100%,100%,100%
; filament_soluble = 0,0,0,0,0,0
; filament_stamping_distance = 0,0,0,0,0,0
; filament_stamping_loading_speed = 0,0,0,0,0,0
; filament_start_gcode = "; Filament gcode\n";"; Filament gcode\n";"; Filament gcode\n";"; Filament gcode\n";"; Filament gcode\n";"; Filament gcode\n"
; filament_toolchange_delay = 0,0,0,0,0,0
; filament_type = ASA;ASA;ASA;PLA;PLA;PLA
; filament_unloading_speed = 90,90,90,90,90,90
; filament_unloading_speed_start = 100,100,100,100,100,100
; filament_vendor = Polymaker;Polymaker;Polymaker;Generic;Generic;Generic
; filament_wipe = 0,0,nil,nil,nil,nil
; filename_format = {input_filename_base}_{layer_height}mm_{filament_type[initial_tool]}_{printer_model}_{print_time}.gcode
; fill_multiline = 1
; filter_out_gap_fill = 3
; first_layer_print_sequence = 0
; flush_into_infill = 0
; flush_into_objects = 0
; flush_into_support = 1
; flush_multiplier = 1
; flush_volumes_matrix = 0,262,60,441,505,60,124,0,60,244,343,60,313,345,0,494,560,60,170,122,113,0,323.333,113,151,60,80,126.667,0,80,313,345,60,494,560,0
; flush_volumes_vector = 140,140,140,140,140,140,140,140,140,140,140,140
; full_fan_speed_layer = 0,0,0,0,0,0
; fuzzy_skin = none
; fuzzy_skin_first_layer = 0
; fuzzy_skin_mode = displacement
; fuzzy_skin_noise_type = classic
; fuzzy_skin_octaves = 4
; fuzzy_skin_persistence = 0.5
; fuzzy_skin_point_distance = 0.3
; fuzzy_skin_scale = 1
; fuzzy_skin_thickness = 0.2
; gap_fill_target = nowhere
; gap_infill_speed = 250
; gcode_add_line_number = 0
; gcode_comments = 0
; gcode_flavor = klipper
; gcode_label_objects = 1
; has_scarf_joint_seam = 0
; head_wrap_detect_zone = 
; high_current_on_filament_swap = 0
; hole_to_polyhole = 0
; hole_to_polyhole_threshold = 0.01
; hole_to_polyhole_twisted = 1
; host_type = octoprint
; hot_plate_temp = 100,100,100,55,55,55
; hot_plate_temp_initial_layer = 100,100,100,55,55,55
; idle_temperature = 0,0,0,0,0,0
; independent_support_layer_height = 1
; infill_anchor = 400%
; infill_anchor_max = 20
; infill_combination = 0
; infill_combination_max_layer_height = 100%
; infill_direction = 45
; infill_jerk = 9
; infill_lock_depth = 1
; infill_overhang_angle = 60
; infill_shift_step = 0.4
; infill_wall_overlap = 15%
; inherits_group = "0.20mm Standard @MyKlipper";"PolyLite ASA @System";"PolyLite ASA @System";;;;;"MyKlipper 0.4 nozzle"
; initial_layer_acceleration = 500
; initial_layer_infill_speed = 105
; initial_layer_jerk = 9
; initial_layer_line_width = 0.62
; initial_layer_min_bead_width = 85%
; initial_layer_print_height = 0.2
; initial_layer_speed = 50
; initial_layer_travel_speed = 100%
; inner_wall_acceleration = 5000
; inner_wall_jerk = 9
; inner_wall_line_width = 0.62
; inner_wall_speed = 300
; interface_shells = 0
; interlocking_beam = 0
; interlocking_beam_layer_count = 2
; interlocking_beam_width = 0.8
; interlocking_boundary_avoidance = 2
; interlocking_depth = 2
; interlocking_orientation = 22.5
; internal_bridge_angle = 0
; internal_bridge_density = 100%
; internal_bridge_fan_speed = -1,-1,-1,-1,-1,-1
; internal_bridge_flow = 1
; internal_bridge_speed = 100
; internal_solid_infill_acceleration = 100%
