; HEADER_BLOCK_START
; generated by OrcaSlicer 2.3.1 on 2025-11-22 at 21:31:40
; total layer number: 10
; filament_density: 1.02,1.02,1.02,1.24,1.24,1.24
; filament_diameter: 1.75,1.75,1.75,1.75,1.75,1.75
; max_z_height: 2.00
; HEADER_BLOCK_END

; THUMBNAIL_BLOCK_START

;
; THUMBNAIL_BLOCK_END

; external perimeters extrusion width = 0.42mm
; perimeters extrusion width = 0.45mm
; infill extrusion width = 0.45mm
; solid infill extrusion width = 0.48mm
; top infill extrusion width = 0.48mm
; first layer extrusion width = 0.44mm

; external perimeters extrusion width = 0.42mm
; perimeters extrusion width = 0.45mm
; infill extrusion width = 0.45mm
; solid infill extrusion width = 0.48mm
; top infill extrusion width = 0.48mm
; first layer extrusion width = 0.44mm

; external perimeters extrusion width = 0.42mm
; perimeters extrusion width = 0.45mm
; infill extrusion width = 0.45mm
; solid infill extrusion width = 0.48mm
; top infill extrusion width = 0.48mm
; first layer extrusion width = 0.44mm

; external perimeters extrusion width = 0.42mm
; perimeters extrusion width = 0.45mm
; infill extrusion width = 0.45mm
; solid infill extrusion width = 0.48mm
; top infill extrusion width = 0.48mm
; first layer extrusion width = 0.44mm

; external perimeters extrusion width = 0.42mm
; perimeters extrusion width = 0.45mm
; infill extrusion width = 0.45mm
; solid infill extrusion width = 0.48mm
; top infill extrusion width = 0.48mm
; first layer extrusion width = 0.44mm

; external perimeters extrusion width = 0.42mm
; perimeters extrusion width = 0.45mm
; infill extrusion width = 0.45mm
; solid infill extrusion width = 0.48mm
; top infill extrusion width = 0.48mm
; first layer extrusion width = 0.44mm

; external perimeters extrusion width = 0.42mm
; perimeters extrusion width = 0.45mm
; infill extrusion width = 0.45mm
; solid infill extrusion width = 0.48mm
; top infill extrusion width = 0.48mm
; first layer extrusion width = 0.44mm

; external perimeters extrusion width = 0.42mm
; perimeters extrusion width = 0.45mm
; infill extrusion width = 0.45mm
; solid infill extrusion width = 0.48mm
; top infill extrusion width = 0.48mm
; first layer extrusion width = 0.44mm

; external perimeters extrusion width = 0.42mm
; perimeters extrusion width = 0.45mm
; infill extrusion width = 0.45mm
; solid infill extrusion width = 0.48mm
; top infill extrusion width = 0.48mm
; first layer extrusion width = 0.44mm

; external perimeters extrusion width = 0.42mm
; perimeters extrusion width = 0.45mm
; infill extrusion width = 0.45mm
; solid infill extrusion width = 0.48mm
; top infill extrusion width = 0.48mm
; first layer extrusion width = 0.44mm

; external perimeters extrusion width = 0.42mm
; perimeters extrusion width = 0.45mm
; infill extrusion width = 0.45mm
; solid infill extrusion width = 0.48mm
; top infill extrusion width = 0.48mm
; first layer extrusion width = 0.44mm

; EXECUTABLE_BLOCK_START
EXCLUDE_OBJECT_DEFINE NAME=flowrate_0_id_0_copy_0 CENTER=119.5,135 POLYGON=[[104.5,121.5],[104.523,121.24],[104.59,120.987],[104.701,120.75],[104.851,120.536],[105.036,120.351],[105.25,120.201],[105.487,120.09],[105.74,120.023],[106,120],[133,120],[133.26,120.023],[133.513,120.09],[133.75,120.201],[133.964,120.351],[134.149,120.536],[134.299,120.75],[134.41,120.987],[134.477,121.24],[134.5,121.5],[134.5,138.5],[134.477,138.76],[134.41,139.013],[134.299,139.25],[129.299,149.25],[129.149,149.464],[128.964,149.649],[128.75,149.799],[128.513,149.91],[128.26,149.977],[128,150],[111,150],[110.74,149.977],[110.487,149.91],[110.25,149.799],[110.036,149.649],[109.851,149.464],[109.701,149.25],[104.701,139.25],[104.59,139.013],[104.523,138.76],[104.5,138.5],[104.5,121.5]]
EXCLUDE_OBJECT_DEFINE NAME=flowrate_0.01_id_1_copy_0 CENTER=88.5,135 POLYGON=[[73.5,121.5],[73.5228,121.24],[73.5905,120.987],[73.701,120.75],[73.8509,120.536],[74.0358,120.351],[74.25,120.201],[74.487,120.09],[74.7395,120.023],[75,120],[102,120],[102.26,120.023],[102.513,120.09],[102.75,120.201],[102.964,120.351],[103.149,120.536],[103.299,120.75],[103.41,120.987],[103.477,121.24],[103.5,121.5],[103.5,138.5],[103.477,138.76],[103.41,139.013],[103.299,139.25],[98.299,149.25],[98.1491,149.464],[97.9642,149.649],[97.75,149.799],[97.513,149.91],[97.2605,149.977],[97,150],[80,150],[79.7395,149.977],[79.487,149.91],[79.25,149.799],[79.0358,149.649],[78.8509,149.464],[78.701,149.25],[73.701,139.25],[73.5905,139.013],[73.5228,138.76],[73.5,138.5],[73.5,121.5]]
EXCLUDE_OBJECT_DEFINE NAME=flowrate_0.02_id_2_copy_0 CENTER=88.5,167 POLYGON=[[73.5,153.5],[73.5228,153.24],[73.5905,152.987],[73.701,152.75],[73.8509,152.536],[74.0358,152.351],[74.25,152.201],[74.487,152.09],[74.7395,152.023],[75,152],[102,152],[102.26,152.023],[102.513,152.09],[102.75,152.201],[102.964,152.351],[103.149,152.536],[103.299,152.75],[103.41,152.987],[103.477,153.24],[103.5,153.5],[103.5,170.5],[103.477,170.76],[103.41,171.013],[103.299,171.25],[98.299,181.25],[98.1491,181.464],[97.9642,181.649],[97.75,181.799],[97.513,181.91],[97.2605,181.977],[97,182],[80,182],[79.7395,181.977],[79.487,181.91],[79.25,181.799],[79.0358,181.649],[78.8509,181.464],[78.701,181.25],[73.701,171.25],[73.5905,171.013],[73.5228,170.76],[73.5,170.5],[73.5,153.5]]
EXCLUDE_OBJECT_DEFINE NAME=flowrate_0.03_id_3_copy_0 CENTER=119.5,167 POLYGON=[[104.5,153.5],[104.523,153.24],[104.59,152.987],[104.701,152.75],[104.851,152.536],[105.036,152.351],[105.25,152.201],[105.487,152.09],[105.74,152.023],[106,152],[133,152],[133.26,152.023],[133.513,152.09],[133.75,152.201],[133.964,152.351],[134.149,152.536],[134.299,152.75],[134.41,152.987],[134.477,153.24],[134.5,153.5],[134.5,170.5],[134.477,170.76],[134.41,171.013],[134.299,171.25],[129.299,181.25],[129.149,181.464],[128.964,181.649],[128.75,181.799],[128.513,181.91],[128.26,181.977],[128,182],[111,182],[110.74,181.977],[110.487,181.91],[110.25,181.799],[110.036,181.649],[109.851,181.464],[109.701,181.25],[104.701,171.25],[104.59,171.013],[104.523,170.76],[104.5,170.5],[104.5,153.5]]
EXCLUDE_OBJECT_DEFINE NAME=flowrate_0.04_id_4_copy_0 CENTER=150.5,167 POLYGON=[[135.5,153.5],[135.523,153.24],[135.59,152.987],[135.701,152.75],[135.851,152.536],[136.036,152.351],[136.25,152.201],[136.487,152.09],[136.74,152.023],[137,152],[164,152],[164.26,152.023],[164.513,152.09],[164.75,152.201],[164.964,152.351],[165.149,152.536],[165.299,152.75],[165.41,152.987],[165.477,153.24],[165.5,153.5],[165.5,170.5],[165.477,170.76],[165.41,171.013],[165.299,171.25],[160.299,181.25],[160.149,181.464],[159.964,181.649],[159.75,181.799],[159.513,181.91],[159.26,181.977],[159,182],[142,182],[141.74,181.977],[141.487,181.91],[141.25,181.799],[141.036,181.649],[140.851,181.464],[140.701,181.25],[135.701,171.25],[135.59,171.013],[135.523,170.76],[135.5,170.5],[135.5,153.5]]
EXCLUDE_OBJECT_DEFINE NAME=flowrate_0.05_id_5_copy_0 CENTER=181.5,167 POLYGON=[[166.5,153.5],[166.523,153.24],[166.59,152.987],[166.701,152.75],[166.851,152.536],[167.036,152.351],[167.25,152.201],[167.487,152.09],[167.74,152.023],[168,152],[195,152],[195.26,152.023],[195.513,152.09],[195.75,152.201],[195.964,152.351],[196.149,152.536],[196.299,152.75],[196.41,152.987],[196.477,153.24],[196.5,153.5],[196.5,170.5],[196.477,170.76],[196.41,171.013],[196.299,171.25],[191.299,181.25],[191.149,181.464],[190.964,181.649],[190.75,181.799],[190.513,181.91],[190.26,181.977],[190,182],[173,182],[172.74,181.977],[172.487,181.91],[172.25,181.799],[172.036,181.649],[171.851,181.464],[171.701,181.25],[166.701,171.25],[166.59,171.013],[166.523,170.76],[166.5,170.5],[166.5,153.5]]
EXCLUDE_OBJECT_DEFINE NAME=flowrate_m0.01_id_6_copy_0 CENTER=150.5,135 POLYGON=[[135.5,121.5],[135.523,121.24],[135.59,120.987],[135.701,120.75],[135.851,120.536],[136.036,120.351],[136.25,120.201],[136.487,120.09],[136.74,120.023],[137,120],[164,120],[164.26,120.023],[164.513,120.09],[164.75,120.201],[164.964,120.351],[165.149,120.536],[165.299,120.75],[165.41,120.987],[165.477,121.24],[165.5,121.5],[165.5,138.5],[165.477,138.76],[165.41,139.013],[165.299,139.25],[160.299,149.25],[160.149,149.464],[159.964,149.649],[159.75,149.799],[159.513,149.91],[159.26,149.977],[159,150],[142,150],[141.74,149.977],[141.487,149.91],[141.25,149.799],[141.036,149.649],[140.851,149.464],[140.701,149.25],[135.701,139.25],[135.59,139.013],[135.523,138.76],[135.5,138.5],[135.5,121.5]]
EXCLUDE_OBJECT_DEFINE NAME=flowrate_m0.02_id_7_copy_0 CENTER=181.5,135 POLYGON=[[166.5,121.5],[166.523,121.24],[166.59,120.987],[166.701,120.75],[166.851,120.536],[167.036,120.351],[167.25,120.201],[167.487,120.09],[167.74,120.023],[168,120],[195,120],[195.26,120.023],[195.513,120.09],[195.75,120.201],[195.964,120.351],[196.149,120.536],[196.299,120.75],[196.41,120.987],[196.477,121.24],[196.5,121.5],[196.5,138.5],[196.477,138.76],[196.41,139.013],[196.299,139.25],[191.299,149.25],[191.149,149.464],[190.964,149.649],[190.75,149.799],[190.513,149.91],[190.26,149.977],[190,150],[173,150],[172.74,149.977],[172.487,149.91],[172.25,149.799],[172.036,149.649],[171.851,149.464],[171.701,149.25],[166.701,139.25],[166.59,139.013],[166.523,138.76],[166.5,138.5],[166.5,121.5]]
EXCLUDE_OBJECT_DEFINE NAME=flowrate_m0.03_id_8_copy_0 CENTER=181.5,103 POLYGON=[[166.5,89.5],[166.523,89.2395],[166.59,88.987],[166.701,88.75],[166.851,88.5358],[167.036,88.3509],[167.25,88.201],[167.487,88.0905],[167.74,88.0228],[168,88],[195,88],[195.26,88.0228],[195.513,88.0905],[195.75,88.201],[195.964,88.3509],[196.149,88.5358],[196.299,88.75],[196.41,88.987],[196.477,89.2395],[196.5,89.5],[196.5,106.5],[196.477,106.76],[196.41,107.013],[196.299,107.25],[191.299,117.25],[191.149,117.464],[190.964,117.649],[190.75,117.799],[190.513,117.91],[190.26,117.977],[190,118],[173,118],[172.74,117.977],[172.487,117.91],[172.25,117.799],[172.036,117.649],[171.851,117.464],[171.701,117.25],[166.701,107.25],[166.59,107.013],[166.523,106.76],[166.5,106.5],[166.5,89.5]]
EXCLUDE_OBJECT_DEFINE NAME=flowrate_m0.04_id_9_copy_0 CENTER=150.5,103 POLYGON=[[135.5,89.5],[135.523,89.2395],[135.59,88.987],[135.701,88.75],[135.851,88.5358],[136.036,88.3509],[136.25,88.201],[136.487,88.0905],[136.74,88.0228],[137,88],[164,88],[164.26,88.0228],[164.513,88.0905],[164.75,88.201],[164.964,88.3509],[165.149,88.5358],[165.299,88.75],[165.41,88.987],[165.477,89.2395],[165.5,89.5],[165.5,106.5],[165.477,106.76],[165.41,107.013],[165.299,107.25],[160.299,117.25],[160.149,117.464],[159.964,117.649],[159.75,117.799],[159.513,117.91],[159.26,117.977],[159,118],[142,118],[141.74,117.977],[141.487,117.91],[141.25,117.799],[141.036,117.649],[140.851,117.464],[140.701,117.25],[135.701,107.25],[135.59,107.013],[135.523,106.76],[135.5,106.5],[135.5,89.5]]
EXCLUDE_OBJECT_DEFINE NAME=flowrate_m0.05_id_10_copy_0 CENTER=119.5,103 POLYGON=[[104.5,89.5],[104.523,89.2395],[104.59,88.987],[104.701,88.75],[104.851,88.5358],[105.036,88.3509],[105.25,88.201],[105.487,88.0905],[105.74,88.0228],[106,88],[133,88],[133.26,88.0228],[133.513,88.0905],[133.75,88.201],[133.964,88.3509],[134.149,88.5358],[134.299,88.75],[134.41,88.987],[134.477,89.2395],[134.5,89.5],[134.5,106.5],[134.477,106.76],[134.41,107.013],[134.299,107.25],[129.299,117.25],[129.149,117.464],[128.964,117.649],[128.75,117.799],[128.513,117.91],[128.26,117.977],[128,118],[111,118],[110.74,117.977],[110.487,117.91],[110.25,117.799],[110.036,117.649],[109.851,117.464],[109.701,117.25],[104.701,107.25],[104.59,107.013],[104.523,106.76],[104.5,106.5],[104.5,89.5]]
M73 P0 R27
M106 S0
M106 P2 S0
;TYPE:Custom
PRINT_START BED=100 HOTEND=260 CHAMBER=60 EXTRUDER=0
SET_PRINT_STATS_INFO TOTAL_LAYER=10
M83
M140 S100
M104 S260
M141 S60
G4 P3000
T0
G1 X108.000 Y1 F30000
G0 Z0.2 F600
;G1 E3 F1800
G90
M83
G0 X128 E8  F904.991
G0 X133 E.3742  F1508.32
G0 X138 E.3742  F6033.27
G0 X143 E.3742  F1508.32
G0 X148 E.3742  F6033.27
G0 X153 E.3742  F1508.32
G91
G1 X1 Z-0.300
G1 X4
G1 Z1 F1200
G90
M400
G1 X108.000 Y2.5 F30000
G0 Z0.2 F600
M83
G0 X128 E10  F904.991
G0 X133 E.3742  F1508.32
G0 X138 E.3742  F6033.27
G0 X143 E.3742  F1508.32
G0 X148 E.3742  F6033.27
G0 X153 E.3742  F1508.32
G91
G1 X1 Z-0.300
G1 X4
G1 Z1 F1200
G90
M400
G1 Z1 F600
M106 P3 S255
G90
G21
M83 ; use relative distances for extrusion
; Filament gcode
SET_PRESSURE_ADVANCE ADVANCE=0.025; Override pressure advance value
T0
M106 P2 S0
;LAYER_CHANGE
;Z:0.2
;HEIGHT:0.2
;BEFORE_LAYER_CHANGE
;0.2
G92 E0

G1 E-.8 F1800
 ; timelapse without wipe tower
TIMELAPSE_TAKE_FRAME

G92 E0
SET_PRINT_STATS_INFO CURRENT_LAYER=1
;_SET_FAN_SPEED_CHANGING_LAYER
SET_VELOCITY_LIMIT ACCEL=500
G1 X95.543 Y95.031 F30000
G1 Z.6
G1 Z.2
G1 E.8 F1800
;TYPE:Skirt
;WIDTH:0.44
G1 F3000
G1 X103.775 Y86.55 E.37071
G1 X104.321 Y86.208 E.0202
G1 X104.918 Y85.967 E.0202
G1 X106 Y85.801 E.03433
G1 X195.013 Y85.803 E2.79202
G1 X195.83 Y85.899 E.02579
G1 X196.442 Y86.098 E.0202
G1 X197.011 Y86.4 E.0202
G1 X197.704 Y86.981 E.02836
G1 X198.1 Y87.489 E.0202
G1 X198.402 Y88.058 E.02021
G1 X198.601 Y88.671 E.0202
G1 X198.699 Y89.5 E.0262
G1 X198.699 Y170.5 E2.54068
G1 X198.601 Y171.33 E.0262
G1 X198.265 Y172.233 E.03023
G1 X193.265 Y182.233 E.35069
G1 X192.704 Y183.019 E.03029
G1 X192.225 Y183.45 E.0202
G1 X191.679 Y183.792 E.02021
G1 X191.082 Y184.033 E.0202
G1 X190 Y184.199 E.03433
G1 X80 Y184.199 E3.45031
G1 X79.171 Y184.101 E.0262
G1 X78.321 Y183.792 E.02836
G1 X77.775 Y183.45 E.02021
G1 X77.05 Y182.725 E.03215
G1 X76.735 Y182.233 E.01833
G1 X71.735 Y172.233 E.35069
G1 X71.467 Y171.582 E.02208
G1 X71.333 Y170.952 E.0202
G1 X71.301 Y121.5 E1.55114
G1 X71.467 Y120.418 E.03433
G1 X71.708 Y119.821 E.0202
G1 X72.272 Y119.006 E.03107
G1 X95.515 Y95.059 E1.04677
; printing object flowrate_0.05 id:5 copy 0
G1 E-.56 F1800
M73 P0 R26
;WIPE_START
G1 F3000
G1 X96.212 Y94.342 E-.24
;WIPE_END
EXCLUDE_OBJECT_START NAME=flowrate_0.05_id_5_copy_0
G1 X102.228 Y99.039 Z.6 F30000
G1 X195.188 Y171.612 Z.6
G1 Z.2
M73 P1 R26
G1 E.8 F1800
;TYPE:Outer wall
;WIDTH:0.439999
G1 F3000
G1 X194.867 Y171.63 E.01063
G1 X192.79 Y171.63 E.06858
G1 X192.375 Y171.737 E.01414
G1 X192.078 Y171.873 E.01076
G1 X191.81 Y172.058 E.01076
G1 X191.577 Y172.286 E.01076
G1 X191.388 Y172.552 E.01076
G1 X191.248 Y172.846 E.01075
G1 X191.161 Y173.16 E.01077
G1 X191.13 Y173.492 E.01099
G1 X191.13 Y180.367 E.227
G1 X191.059 Y180.885 E.01729
G1 X190.863 Y181.224 E.01291
G1 X190.563 Y181.476 E.01292
G1 X190.336 Y181.558 E.00798
G1 X189.984 Y181.63 E.01187
G1 X173.133 Y181.63 E.55636
G1 X172.615 Y181.559 E.01729
G1 X172.276 Y181.363 E.01291
G1 X172.024 Y181.063 E.01292
G1 X171.888 Y180.688 E.01318
G1 X171.87 Y180.367 E.01063
G1 X171.87 Y173.29 E.23367
G1 X171.763 Y172.875 E.01414
G1 X171.627 Y172.579 E.01075
G1 X171.442 Y172.31 E.01077
G1 X171.214 Y172.077 E.01076
G1 X170.948 Y171.888 E.01076
G1 X170.654 Y171.748 E.01076
G1 X170.34 Y171.661 E.01076
G1 X170.008 Y171.63 E.01099
G1 X168.133 Y171.63 E.06191
G1 X167.615 Y171.559 E.01729
G1 X167.276 Y171.363 E.01291
G1 X167.024 Y171.063 E.01292
G1 X166.942 Y170.836 E.00798
G1 X166.87 Y170.484 E.01187
G1 X166.87 Y153.633 E.55636
G1 X166.941 Y153.115 E.01729
G1 X167.137 Y152.776 E.01291
G1 X167.437 Y152.524 E.01292
G1 X167.664 Y152.442 E.00799
G1 X168.016 Y152.37 E.01187
G1 X194.879 Y152.371 E.88694
G1 X195.385 Y152.441 E.01687
G1 X195.724 Y152.637 E.01292
G1 X195.976 Y152.937 E.01292
G1 X196.112 Y153.312 E.01318
G1 X196.13 Y153.567 E.00845
G1 X196.13 Y170.367 E.55467
G1 X196.059 Y170.885 E.01729
G1 X195.863 Y171.224 E.01291
G1 X195.563 Y171.476 E.01292
G1 X195.226 Y171.598 E.01186
G1 E-.56 F1800
;WIPE_START
G1 F3000
G1 X194.867 Y171.63 E-.0865
G1 X194.227 Y171.63 E-.1535
;WIPE_END
G1 X194.227 Y171.404 Z.6 F30000
G1 X192.974 Y171.404
G1 X192.636 Y171.434
G1 X192.282 Y171.529
G1 X191.951 Y171.683
G1 X191.651 Y171.893
G1 X191.393 Y172.151
G1 X191.183 Y172.451
G1 X191.029 Y172.782
G1 X190.934 Y173.136
G1 X189.974 Y181.404
G1 X189.588 Y181.404
G1 X189.588 Y181.511
G1 Z.2
G1 E.8 F1800
;TYPE:Bottom surface
;WIDTH:0.441744
G1 F6300
G1 X190.832 Y180.267 E.05108
G1 X190.832 Y179.703 E.01294
G1 X189.203 Y181.332 E.06896
G1 X188.639 Y181.332 E.01294
