; HEADER_BLOCK_START
; generated by OrcaSlicer 2.3.1 on 2025-11-22 at 10:27:11
; total layer number: 10
; filament_density: 1.02,1.02,1.02,1.24,1.24,1.24
; filament_diameter: 1.75,1.75,1.75,1.75,1.75,1.75
; max_z_height: 3.00
; HEADER_BLOCK_END

; THUMBNAIL_BLOCK_START

;
; THUMBNAIL_BLOCK_END

; external perimeters extrusion width = 0.62mm
; perimeters extrusion width = 0.62mm
; infill extrusion width = 0.62mm
; solid infill extrusion width = 0.72mm
; top infill extrusion width = 0.72mm
; first layer extrusion width = 0.62mm

; external perimeters extrusion width = 0.62mm
; perimeters extrusion width = 0.62mm
; infill extrusion width = 0.62mm
; solid infill extrusion width = 0.72mm
; top infill extrusion width = 0.72mm
; first layer extrusion width = 0.62mm

; external perimeters extrusion width = 0.62mm
; perimeters extrusion width = 0.62mm
; infill extrusion width = 0.62mm
; solid infill extrusion width = 0.72mm
; top infill extrusion width = 0.72mm
; first layer extrusion width = 0.62mm

; external perimeters extrusion width = 0.62mm
; perimeters extrusion width = 0.62mm
; infill extrusion width = 0.62mm
; solid infill extrusion width = 0.72mm
; top infill extrusion width = 0.72mm
; first layer extrusion width = 0.62mm

; external perimeters extrusion width = 0.62mm
; perimeters extrusion width = 0.62mm
; infill extrusion width = 0.62mm
; solid infill extrusion width = 0.72mm
; top infill extrusion width = 0.72mm
; first layer extrusion width = 0.62mm

; external perimeters extrusion width = 0.62mm
; perimeters extrusion width = 0.62mm
; infill extrusion width = 0.62mm
; solid infill extrusion width = 0.72mm
; top infill extrusion width = 0.72mm
; first layer extrusion width = 0.62mm

; external perimeters extrusion width = 0.62mm
; perimeters extrusion width = 0.62mm
; infill extrusion width = 0.62mm
; solid infill extrusion width = 0.72mm
; top infill extrusion width = 0.72mm
; first layer extrusion width = 0.62mm

; external perimeters extrusion width = 0.62mm
; perimeters extrusion width = 0.62mm
; infill extrusion width = 0.62mm
; solid infill extrusion width = 0.72mm
; top infill extrusion width = 0.72mm
; first layer extrusion width = 0.62mm

; external perimeters extrusion width = 0.62mm
; perimeters extrusion width = 0.62mm
; infill extrusion width = 0.62mm
; solid infill extrusion width = 0.72mm
; top infill extrusion width = 0.72mm
; first layer extrusion width = 0.62mm

; external perimeters extrusion width = 0.62mm
; perimeters extrusion width = 0.62mm
; infill extrusion width = 0.62mm
; solid infill extrusion width = 0.72mm
; top infill extrusion width = 0.72mm
; first layer extrusion width = 0.62mm

; external perimeters extrusion width = 0.62mm
; perimeters extrusion width = 0.62mm
; infill extrusion width = 0.62mm
; solid infill extrusion width = 0.72mm
; top infill extrusion width = 0.72mm
; first layer extrusion width = 0.62mm

; EXECUTABLE_BLOCK_START
EXCLUDE_OBJECT_DEFINE NAME=flowrate_0_id_0_copy_0 CENTER=119.5,135 POLYGON=[[104.5,121.5],[104.523,121.24],[104.59,120.987],[104.701,120.75],[104.851,120.536],[105.036,120.351],[105.25,120.201],[105.487,120.09],[105.74,120.023],[106,120],[133,120],[133.26,120.023],[133.513,120.09],[133.75,120.201],[133.964,120.351],[134.149,120.536],[134.299,120.75],[134.41,120.987],[134.477,121.24],[134.5,121.5],[134.5,138.5],[134.477,138.76],[134.41,139.013],[134.299,139.25],[129.299,149.25],[129.149,149.464],[128.964,149.649],[128.75,149.799],[128.513,149.91],[128.26,149.977],[128,150],[111,150],[110.74,149.977],[110.487,149.91],[110.25,149.799],[110.036,149.649],[109.851,149.464],[109.701,149.25],[104.701,139.25],[104.59,139.013],[104.523,138.76],[104.5,138.5],[104.5,121.5]]
EXCLUDE_OBJECT_DEFINE NAME=flowrate_0.01_id_1_copy_0 CENTER=88.5,135 POLYGON=[[73.5,121.5],[73.5228,121.24],[73.5905,120.987],[73.701,120.75],[73.8509,120.536],[74.0358,120.351],[74.25,120.201],[74.487,120.09],[74.7395,120.023],[75,120],[102,120],[102.26,120.023],[102.513,120.09],[102.75,120.201],[102.964,120.351],[103.149,120.536],[103.299,120.75],[103.41,120.987],[103.477,121.24],[103.5,121.5],[103.5,138.5],[103.477,138.76],[103.41,139.013],[103.299,139.25],[98.299,149.25],[98.1491,149.464],[97.9642,149.649],[97.75,149.799],[97.513,149.91],[97.2605,149.977],[97,150],[80,150],[79.7395,149.977],[79.487,149.91],[79.25,149.799],[79.0358,149.649],[78.8509,149.464],[78.701,149.25],[73.701,139.25],[73.5905,139.013],[73.5228,138.76],[73.5,138.5],[73.5,121.5]]
EXCLUDE_OBJECT_DEFINE NAME=flowrate_0.02_id_2_copy_0 CENTER=88.5,167 POLYGON=[[73.5,153.5],[73.5228,153.24],[73.5905,152.987],[73.701,152.75],[73.8509,152.536],[74.0358,152.351],[74.25,152.201],[74.487,152.09],[74.7395,152.023],[75,152],[102,152],[102.26,152.023],[102.513,152.09],[102.75,152.201],[102.964,152.351],[103.149,152.536],[103.299,152.75],[103.41,152.987],[103.477,153.24],[103.5,153.5],[103.5,170.5],[103.477,170.76],[103.41,171.013],[103.299,171.25],[98.299,181.25],[98.1491,181.464],[97.9642,181.649],[97.75,181.799],[97.513,181.91],[97.2605,181.977],[97,182],[80,182],[79.7395,181.977],[79.487,181.91],[79.25,181.799],[79.0358,181.649],[78.8509,181.464],[78.701,181.25],[73.701,171.25],[73.5905,171.013],[73.5228,170.76],[73.5,170.5],[73.5,153.5]]
EXCLUDE_OBJECT_DEFINE NAME=flowrate_0.03_id_3_copy_0 CENTER=119.5,167 POLYGON=[[104.5,153.5],[104.523,153.24],[104.59,152.987],[104.701,152.75],[104.851,152.536],[105.036,152.351],[105.25,152.201],[105.487,152.09],[105.74,152.023],[106,152],[133,152],[133.26,152.023],[133.513,152.09],[133.75,152.201],[133.964,152.351],[134.149,152.536],[134.299,152.75],[134.41,152.987],[134.477,153.24],[134.5,153.5],[134.5,170.5],[134.477,170.76],[134.41,171.013],[134.299,171.25],[129.299,181.25],[129.149,181.464],[128.964,181.649],[128.75,181.799],[128.513,181.91],[128.26,181.977],[128,182],[111,182],[110.74,181.977],[110.487,181.91],[110.25,181.799],[110.036,181.649],[109.851,181.464],[109.701,181.25],[104.701,171.25],[104.59,171.013],[104.523,170.76],[104.5,170.5],[104.5,153.5]]
EXCLUDE_OBJECT_DEFINE NAME=flowrate_0.04_id_4_copy_0 CENTER=150.5,167 POLYGON=[[135.5,153.5],[135.523,153.24],[135.59,152.987],[135.701,152.75],[135.851,152.536],[136.036,152.351],[136.25,152.201],[136.487,152.09],[136.74,152.023],[137,152],[164,152],[164.26,152.023],[164.513,152.09],[164.75,152.201],[164.964,152.351],[165.149,152.536],[165.299,152.75],[165.41,152.987],[165.477,153.24],[165.5,153.5],[165.5,170.5],[165.477,170.76],[165.41,171.013],[165.299,171.25],[160.299,181.25],[160.149,181.464],[159.964,181.649],[159.75,181.799],[159.513,181.91],[159.26,181.977],[159,182],[142,182],[141.74,181.977],[141.487,181.91],[141.25,181.799],[141.036,181.649],[140.851,181.464],[140.701,181.25],[135.701,171.25],[135.59,171.013],[135.523,170.76],[135.5,170.5],[135.5,153.5]]
EXCLUDE_OBJECT_DEFINE NAME=flowrate_0.05_id_5_copy_0 CENTER=181.5,167 POLYGON=[[166.5,153.5],[166.523,153.24],[166.59,152.987],[166.701,152.75],[166.851,152.536],[167.036,152.351],[167.25,152.201],[167.487,152.09],[167.74,152.023],[168,152],[195,152],[195.26,152.023],[195.513,152.09],[195.75,152.201],[195.964,152.351],[196.149,152.536],[196.299,152.75],[196.41,152.987],[196.477,153.24],[196.5,153.5],[196.5,170.5],[196.477,170.76],[196.41,171.013],[196.299,171.25],[191.299,181.25],[191.149,181.464],[190.964,181.649],[190.75,181.799],[190.513,181.91],[190.26,181.977],[190,182],[173,182],[172.74,181.977],[172.487,181.91],[172.25,181.799],[172.036,181.649],[171.851,181.464],[171.701,181.25],[166.701,171.25],[166.59,171.013],[166.523,170.76],[166.5,170.5],[166.5,153.5]]
EXCLUDE_OBJECT_DEFINE NAME=flowrate_m0.01_id_6_copy_0 CENTER=150.5,135 POLYGON=[[135.5,121.5],[135.523,121.24],[135.59,120.987],[135.701,120.75],[135.851,120.536],[136.036,120.351],[136.25,120.201],[136.487,120.09],[136.74,120.023],[137,120],[164,120],[164.26,120.023],[164.513,120.09],[164.75,120.201],[164.964,120.351],[165.149,120.536],[165.299,120.75],[165.41,120.987],[165.477,121.24],[165.5,121.5],[165.5,138.5],[165.477,138.76],[165.41,139.013],[165.299,139.25],[160.299,149.25],[160.149,149.464],[159.964,149.649],[159.75,149.799],[159.513,149.91],[159.26,149.977],[159,150],[142,150],[141.74,149.977],[141.487,149.91],[141.25,149.799],[141.036,149.649],[140.851,149.464],[140.701,149.25],[135.701,139.25],[135.59,139.013],[135.523,138.76],[135.5,138.5],[135.5,121.5]]
EXCLUDE_OBJECT_DEFINE NAME=flowrate_m0.02_id_7_copy_0 CENTER=181.5,135 POLYGON=[[166.5,121.5],[166.523,121.24],[166.59,120.987],[166.701,120.75],[166.851,120.536],[167.036,120.351],[167.25,120.201],[167.487,120.09],[167.74,120.023],[168,120],[195,120],[195.26,120.023],[195.513,120.09],[195.75,120.201],[195.964,120.351],[196.149,120.536],[196.299,120.75],[196.41,120.987],[196.477,121.24],[196.5,121.5],[196.5,138.5],[196.477,138.76],[196.41,139.013],[196.299,139.25],[191.299,149.25],[191.149,149.464],[190.964,149.649],[190.75,149.799],[190.513,149.91],[190.26,149.977],[190,150],[173,150],[172.74,149.977],[172.487,149.91],[172.25,149.799],[172.036,149.649],[171.851,149.464],[171.701,149.25],[166.701,139.25],[166.59,139.013],[166.523,138.76],[166.5,138.5],[166.5,121.5]]
EXCLUDE_OBJECT_DEFINE NAME=flowrate_m0.03_id_8_copy_0 CENTER=181.5,103 POLYGON=[[166.5,89.5],[166.523,89.2395],[166.59,88.987],[166.701,88.75],[166.851,88.5358],[167.036,88.3509],[167.25,88.201],[167.487,88.0905],[167.74,88.0228],[168,88],[195,88],[195.26,88.0228],[195.513,88.0905],[195.75,88.201],[195.964,88.3509],[196.149,88.5358],[196.299,88.75],[196.41,88.987],[196.477,89.2395],[196.5,89.5],[196.5,106.5],[196.477,106.76],[196.41,107.013],[196.299,107.25],[191.299,117.25],[191.149,117.464],[190.964,117.649],[190.75,117.799],[190.513,117.91],[190.26,117.977],[190,118],[173,118],[172.74,117.977],[172.487,117.91],[172.25,117.799],[172.036,117.649],[171.851,117.464],[171.701,117.25],[166.701,107.25],[166.59,107.013],[166.523,106.76],[166.5,106.5],[166.5,89.5]]
EXCLUDE_OBJECT_DEFINE NAME=flowrate_m0.04_id_9_copy_0 CENTER=150.5,103 POLYGON=[[135.5,89.5],[135.523,89.2395],[135.59,88.987],[135.701,88.75],[135.851,88.5358],[136.036,88.3509],[136.25,88.201],[136.487,88.0905],[136.74,88.0228],[137,88],[164,88],[164.26,88.0228],[164.513,88.0905],[164.75,88.201],[164.964,88.3509],[165.149,88.5358],[165.299,88.75],[165.41,88.987],[165.477,89.2395],[165.5,89.5],[165.5,106.5],[165.477,106.76],[165.41,107.013],[165.299,107.25],[160.299,117.25],[160.149,117.464],[159.964,117.649],[159.75,117.799],[159.513,117.91],[159.26,117.977],[159,118],[142,118],[141.74,117.977],[141.487,117.91],[141.25,117.799],[141.036,117.649],[140.851,117.464],[140.701,117.25],[135.701,107.25],[135.59,107.013],[135.523,106.76],[135.5,106.5],[135.5,89.5]]
EXCLUDE_OBJECT_DEFINE NAME=flowrate_m0.05_id_10_copy_0 CENTER=119.5,103 POLYGON=[[104.5,89.5],[104.523,89.2395],[104.59,88.987],[104.701,88.75],[104.851,88.5358],[105.036,88.3509],[105.25,88.201],[105.487,88.0905],[105.74,88.0228],[106,88],[133,88],[133.26,88.0228],[133.513,88.0905],[133.75,88.201],[133.964,88.3509],[134.149,88.5358],[134.299,88.75],[134.41,88.987],[134.477,89.2395],[134.5,89.5],[134.5,106.5],[134.477,106.76],[134.41,107.013],[134.299,107.25],[129.299,117.25],[129.149,117.464],[128.964,117.649],[128.75,117.799],[128.513,117.91],[128.26,117.977],[128,118],[111,118],[110.74,117.977],[110.487,117.91],[110.25,117.799],[110.036,117.649],[109.851,117.464],[109.701,117.25],[104.701,107.25],[104.59,107.013],[104.523,106.76],[104.5,106.5],[104.5,89.5]]
M73 P0 R23
M106 S0
M106 P2 S0
;TYPE:Custom
PRINT_START BED=100 HOTEND=260 CHAMBER=60 EXTRUDER=0
SET_PRINT_STATS_INFO TOTAL_LAYER=10
M83
M140 S100
M104 S260
M141 S60
G4 P3000
T0
G1 X108.000 Y1 F30000
G0 Z0.3 F600
;G1 E3 F1800
G90
M83
G0 X128 E8  F1320
G0 X133 E.3742  F2200
M73 P0 R22
G0 X138 E.3742  F8800
G0 X143 E.3742  F2200
G0 X148 E.3742  F8800
G0 X153 E.3742  F2200
G91
G1 X1 Z-0.300
G1 X4
G1 Z1 F1200
G90
M400
G1 X108.000 Y2.5 F30000
G0 Z0.3 F600
M83
G0 X128 E10  F1320
G0 X133 E.3742  F2200
G0 X138 E.3742  F8800
G0 X143 E.3742  F2200
G0 X148 E.3742  F8800
G0 X153 E.3742  F2200
G91
G1 X1 Z-0.300
G1 X4
G1 Z1 F1200
G90
M400
G1 Z1 F600
M106 P3 S255
G90
G21
M83 ; use relative distances for extrusion
; Filament gcode
SET_PRESSURE_ADVANCE ADVANCE=0.015; Override pressure advance value
T0
M106 P2 S0
;LAYER_CHANGE
;Z:0.3
;HEIGHT:0.3
;BEFORE_LAYER_CHANGE
;0.3
G92 E0

 ; timelapse without wipe tower
TIMELAPSE_TAKE_FRAME

G92 E0
SET_PRINT_STATS_INFO CURRENT_LAYER=1
;_SET_FAN_SPEED_CHANGING_LAYER
SET_VELOCITY_LIMIT ACCEL=500
G1 E-.8 F1800
G1 X95.488 Y94.975 F30000
G1 Z.7
G1 Z.3
G1 E.8 F1800
;TYPE:Skirt
;WIDTH:0.62
G1 F3000
G1 X103.729 Y86.485 E.7544
G1 X104.287 Y86.137 E.04194
G1 X104.897 Y85.89 E.04195
G1 X106 Y85.722 E.07111
G1 X195.013 Y85.723 E5.67511
G1 X195.85 Y85.823 E.05373
G1 X196.476 Y86.026 E.04195
G1 X197.057 Y86.335 E.04195
G1 X197.575 Y86.74 E.04194
G1 X198.015 Y87.229 E.04194
G1 X198.363 Y87.787 E.04195
G1 X198.677 Y88.65 E.05853
G1 X198.769 Y89.301 E.04195
G1 X198.778 Y170.5 E5.17689
G1 X198.677 Y171.35 E.05457
G1 X198.336 Y172.269 E.06247
G1 X193.336 Y182.269 E.71281
G1 X192.76 Y183.075 E.06319
G1 X192.271 Y183.515 E.04194
G1 X191.713 Y183.863 E.04195
G1 X191.103 Y184.11 E.04194
G1 X190 Y184.278 E.07111
G1 X80 Y184.278 E7.01315
G1 X79.15 Y184.177 E.05457
G1 X78.287 Y183.863 E.05853
G1 X77.729 Y183.515 E.04195
G1 X76.985 Y182.771 E.0671
G1 X76.664 Y182.269 E.03801
G1 X71.664 Y172.269 E.71281
G1 X71.39 Y171.603 E.0459
G1 X71.254 Y170.959 E.04195
G1 X71.222 Y121.5 E3.15331
G1 X71.39 Y120.397 E.07111
G1 X71.637 Y119.787 E.04195
G1 X72.215 Y118.951 E.06483
G1 X95.446 Y95.019 E2.12647
; printing object flowrate_0.05 id:5 copy 0
G1 E-.8 F1800
M73 P1 R22
EXCLUDE_OBJECT_START NAME=flowrate_0.05_id_5_copy_0
G1 X102.061 Y98.826 Z.7 F30000
G1 X195.665 Y152.707 Z.7
G1 Z.3
G1 E.8 F1800
;TYPE:Outer wall
;WIDTH:0.62
G1 F3000
G1 X195.896 Y152.982 E.02416
G1 X196.024 Y153.332 E.025
G1 X196.04 Y153.567 E.01585
G1 X196.04 Y170.366 E1.12924
G1 X195.972 Y170.854 E.03312
G1 X195.793 Y171.165 E.02415
G1 X195.518 Y171.396 E.02416
G1 X195.168 Y171.524 E.025
G1 X194.866 Y171.54 E.02033
G1 X192.785 Y171.54 E.13987
G1 X192.353 Y171.65 E.03002
G1 X192.041 Y171.791 E.02296
G1 X191.759 Y171.983 E.02296
G1 X191.514 Y172.222 E.02296
G1 X191.315 Y172.499 E.02296
G1 X191.167 Y172.807 E.02294
G1 X191.074 Y173.136 E.02298
G1 X191.04 Y173.492 E.02405
G1 X191.04 Y180.366 E.46208
G1 X190.972 Y180.854 E.03312
G1 X190.793 Y181.165 E.02415
G1 X190.518 Y181.396 E.02416
G1 X190.349 Y181.458 E.01207
G1 X189.98 Y181.54 E.0254
G1 X173.134 Y181.54 E1.13241
G1 X172.646 Y181.472 E.03312
G1 X172.335 Y181.293 E.02415
G1 X172.104 Y181.018 E.02416
G1 X171.976 Y180.668 E.025
G1 X171.96 Y180.366 E.02033
G1 X171.96 Y173.285 E.47598
G1 X171.85 Y172.853 E.03002
G1 X171.709 Y172.541 E.02294
G1 X171.517 Y172.259 E.02299
G1 X171.278 Y172.014 E.02296
G1 X171.001 Y171.815 E.02296
G1 X170.693 Y171.667 E.02296
G1 X170.364 Y171.574 E.02296
G1 X170.008 Y171.54 E.02405
G1 X168.134 Y171.54 E.12598
G1 X167.646 Y171.472 E.03312
G1 X167.335 Y171.293 E.02415
G1 X167.104 Y171.018 E.02416
G1 X167.042 Y170.849 E.01207
G1 X166.96 Y170.48 E.0254
G1 X166.96 Y153.634 E1.13241
G1 X167.028 Y153.146 E.03312
G1 X167.207 Y152.835 E.02415
G1 X167.482 Y152.604 E.02416
G1 X167.651 Y152.542 E.01207
G1 X168.02 Y152.46 E.0254
G1 X194.878 Y152.461 E1.80544
G1 X195.354 Y152.527 E.03227
G1 X195.613 Y152.677 E.02014
G1 E-.8 F1800
G1 X193.952 Y160.127 Z.7 F30000
G1 X189.207 Y181.401 Z.7
G1 Z.3
G1 E.8 F1800
;TYPE:Bottom surface
;WIDTH:0.625697
G1 F6300
G1 X190.651 Y179.957 E.12354
G1 X190.651 Y179.163 E.041
G1 X188.663 Y181.151 E.17532
G1 X187.87 Y181.151 E.041
G1 X190.651 Y178.37 E.25107
G1 X190.651 Y177.576 E.041
G1 X187.076 Y181.151 E.32707
G1 X186.282 Y181.151 E.041
G1 X190.651 Y176.782 E.40434
G1 X190.651 Y175.988 E.041
G1 X185.488 Y181.151 E.48318
G1 X184.694 Y181.151 E.041
G1 X190.651 Y175.194 E.56358
G1 X190.651 Y174.401 E.041
G1 X183.901 Y181.151 E.64555
G1 X183.107 Y181.151 E.041
G1 X190.917 Y173.34 E.75012
G1 E-.8 F1800
G1 X190.679 Y173.32 Z.7 F30000
G1 X190.699 Y173.094
