; HEADER_BLOCK_START
; generated by OrcaSlicer 2.3.1 on 2025-10-25 at 23:52:16
; total layer number: 10
; filament_density: 1.02,1.02,1.02,1.24,1.24,1.24
; filament_diameter: 1.75,1.75,1.75,1.75,1.75,1.75
; max_z_height: 3.00
; HEADER_BLOCK_END

; THUMBNAIL_BLOCK_START

;
; THUMBNAIL_BLOCK_END

; external perimeters extrusion width = 0.62mm
; perimeters extrusion width = 0.62mm
; infill extrusion width = 0.62mm
; solid infill extrusion width = 0.72mm
; top infill extrusion width = 0.72mm
; first layer extrusion width = 0.62mm

; external perimeters extrusion width = 0.62mm
; perimeters extrusion width = 0.62mm
; infill extrusion width = 0.62mm
; solid infill extrusion width = 0.72mm
; top infill extrusion width = 0.72mm
; first layer extrusion width = 0.62mm

; external perimeters extrusion width = 0.62mm
; perimeters extrusion width = 0.62mm
; infill extrusion width = 0.62mm
; solid infill extrusion width = 0.72mm
; top infill extrusion width = 0.72mm
; first layer extrusion width = 0.62mm

; external perimeters extrusion width = 0.62mm
; perimeters extrusion width = 0.62mm
; infill extrusion width = 0.62mm
; solid infill extrusion width = 0.72mm
; top infill extrusion width = 0.72mm
; first layer extrusion width = 0.62mm

; external perimeters extrusion width = 0.62mm
; perimeters extrusion width = 0.62mm
; infill extrusion width = 0.62mm
; solid infill extrusion width = 0.72mm
; top infill extrusion width = 0.72mm
; first layer extrusion width = 0.62mm

; external perimeters extrusion width = 0.62mm
; perimeters extrusion width = 0.62mm
; infill extrusion width = 0.62mm
; solid infill extrusion width = 0.72mm
; top infill extrusion width = 0.72mm
; first layer extrusion width = 0.62mm

; external perimeters extrusion width = 0.62mm
; perimeters extrusion width = 0.62mm
; infill extrusion width = 0.62mm
; solid infill extrusion width = 0.72mm
; top infill extrusion width = 0.72mm
; first layer extrusion width = 0.62mm

; external perimeters extrusion width = 0.62mm
; perimeters extrusion width = 0.62mm
; infill extrusion width = 0.62mm
; solid infill extrusion width = 0.72mm
; top infill extrusion width = 0.72mm
; first layer extrusion width = 0.62mm

; external perimeters extrusion width = 0.62mm
; perimeters extrusion width = 0.62mm
; infill extrusion width = 0.62mm
; solid infill extrusion width = 0.72mm
; top infill extrusion width = 0.72mm
; first layer extrusion width = 0.62mm

; EXECUTABLE_BLOCK_START
EXCLUDE_OBJECT_DEFINE NAME=flowrate_0_id_0_copy_0 CENTER=135,135 POLYGON=[[115,122],[115.03,121.653],[115.121,121.316],[115.268,121],[115.468,120.714],[115.714,120.468],[116,120.268],[116.316,120.121],[116.653,120.03],[117,120],[153,120],[153.347,120.03],[153.684,120.121],[154,120.268],[154.286,120.468],[154.532,120.714],[154.732,121],[154.879,121.316],[154.97,121.653],[155,122],[155,138],[154.97,138.347],[154.879,138.684],[154.732,139],[154.532,139.286],[144.286,149.532],[144,149.732],[143.684,149.879],[143.347,149.97],[143,150],[127,150],[126.653,149.97],[126.316,149.879],[126,149.732],[125.714,149.532],[115.468,139.286],[115.268,139],[115.121,138.684],[115.03,138.347],[115,138],[115,122]]
EXCLUDE_OBJECT_DEFINE NAME=flowrate_10_id_1_copy_0 CENTER=177,167 POLYGON=[[157,154],[157.03,153.653],[157.121,153.316],[157.268,153],[157.468,152.714],[157.714,152.468],[158,152.268],[158.316,152.121],[158.653,152.03],[159,152],[195,152],[195.347,152.03],[195.684,152.121],[196,152.268],[196.286,152.468],[196.532,152.714],[196.732,153],[196.879,153.316],[196.97,153.653],[197,154],[197,170],[196.97,170.347],[196.879,170.684],[196.732,171],[196.532,171.286],[186.286,181.532],[186,181.732],[185.684,181.879],[185.347,181.97],[185,182],[169,182],[168.653,181.97],[168.316,181.879],[168,181.732],[167.714,181.532],[157.468,171.286],[157.268,171],[157.121,170.684],[157.03,170.347],[157,170],[157,154]]
EXCLUDE_OBJECT_DEFINE NAME=flowrate_15_id_2_copy_0 CENTER=135,167 POLYGON=[[115,154],[115.03,153.653],[115.121,153.316],[115.268,153],[115.468,152.714],[115.714,152.468],[116,152.268],[116.316,152.121],[116.653,152.03],[117,152],[153,152],[153.347,152.03],[153.684,152.121],[154,152.268],[154.286,152.468],[154.532,152.714],[154.732,153],[154.879,153.316],[154.97,153.653],[155,154],[155,170],[154.97,170.347],[154.879,170.684],[154.732,171],[154.532,171.286],[144.286,181.532],[144,181.732],[143.684,181.879],[143.347,181.97],[143,182],[127,182],[126.653,181.97],[126.316,181.879],[126,181.732],[125.714,181.532],[115.468,171.286],[115.268,171],[115.121,170.684],[115.03,170.347],[115,170],[115,154]]
EXCLUDE_OBJECT_DEFINE NAME=flowrate_20_id_3_copy_0 CENTER=93,167 POLYGON=[[73,154],[73.0304,153.653],[73.1206,153.316],[73.2679,153],[73.4679,152.714],[73.7144,152.468],[74,152.268],[74.316,152.121],[74.6527,152.03],[75,152],[111,152],[111.347,152.03],[111.684,152.121],[112,152.268],[112.286,152.468],[112.532,152.714],[112.732,153],[112.879,153.316],[112.97,153.653],[113,154],[113,170],[112.97,170.347],[112.879,170.684],[112.732,171],[112.532,171.286],[102.286,181.532],[102,181.732],[101.684,181.879],[101.347,181.97],[101,182],[85,182],[84.6527,181.97],[84.316,181.879],[84,181.732],[83.7144,181.532],[83.4679,181.286],[73.4679,171.286],[73.2679,171],[73.1206,170.684],[73.0304,170.347],[73,170],[73,154]]
EXCLUDE_OBJECT_DEFINE NAME=flowrate_5_id_4_copy_0 CENTER=93,135 POLYGON=[[73,122],[73.0304,121.653],[73.1206,121.316],[73.2679,121],[73.4679,120.714],[73.7144,120.468],[74,120.268],[74.316,120.121],[74.6527,120.03],[75,120],[111,120],[111.347,120.03],[111.684,120.121],[112,120.268],[112.286,120.468],[112.532,120.714],[112.732,121],[112.879,121.316],[112.97,121.653],[113,122],[113,138],[112.97,138.347],[112.879,138.684],[112.732,139],[112.532,139.286],[102.286,149.532],[102,149.732],[101.684,149.879],[101.347,149.97],[101,150],[85,150],[84.6527,149.97],[84.316,149.879],[84,149.732],[83.7144,149.532],[83.4679,149.286],[73.4679,139.286],[73.2679,139],[73.1206,138.684],[73.0304,138.347],[73,138],[73,122]]
EXCLUDE_OBJECT_DEFINE NAME=flowrate_m10_id_5_copy_0 CENTER=177,103 POLYGON=[[157,90],[157.03,89.6527],[157.121,89.316],[157.268,89],[157.468,88.7144],[157.714,88.4679],[158,88.2679],[158.316,88.1206],[158.653,88.0304],[159,88],[195,88],[195.347,88.0304],[195.684,88.1206],[196,88.2679],[196.286,88.4679],[196.532,88.7144],[196.732,89],[196.879,89.316],[196.97,89.6527],[197,90],[197,106],[196.97,106.347],[196.879,106.684],[196.732,107],[196.532,107.286],[186.286,117.532],[186,117.732],[185.684,117.879],[185.347,117.97],[185,118],[169,118],[168.653,117.97],[168.316,117.879],[168,117.732],[167.714,117.532],[157.468,107.286],[157.268,107],[157.121,106.684],[157.03,106.347],[157,106],[157,90]]
EXCLUDE_OBJECT_DEFINE NAME=flowrate_m15_id_6_copy_0 CENTER=135,103 POLYGON=[[115,90],[115.03,89.6527],[115.121,89.316],[115.268,89],[115.468,88.7144],[115.714,88.4679],[116,88.2679],[116.316,88.1206],[116.653,88.0304],[117,88],[153,88],[153.347,88.0304],[153.684,88.1206],[154,88.2679],[154.286,88.4679],[154.532,88.7144],[154.732,89],[154.879,89.316],[154.97,89.6527],[155,90],[155,106],[154.97,106.347],[154.879,106.684],[154.732,107],[154.532,107.286],[144.286,117.532],[144,117.732],[143.684,117.879],[143.347,117.97],[143,118],[127,118],[126.653,117.97],[126.316,117.879],[126,117.732],[125.714,117.532],[115.468,107.286],[115.268,107],[115.121,106.684],[115.03,106.347],[115,106],[115,90]]
EXCLUDE_OBJECT_DEFINE NAME=flowrate_m20_id_7_copy_0 CENTER=93,103 POLYGON=[[73,90],[73.0304,89.6527],[73.1206,89.316],[73.2679,89],[73.4679,88.7144],[73.7144,88.4679],[74,88.2679],[74.316,88.1206],[74.6527,88.0304],[75,88],[111,88],[111.347,88.0304],[111.684,88.1206],[112,88.2679],[112.286,88.4679],[112.532,88.7144],[112.732,89],[112.879,89.316],[112.97,89.6527],[113,90],[113,106],[112.97,106.347],[112.879,106.684],[112.732,107],[112.532,107.286],[102.286,117.532],[102,117.732],[101.684,117.879],[101.347,117.97],[101,118],[85,118],[84.6527,117.97],[84.316,117.879],[84,117.732],[83.7144,117.532],[83.4679,117.286],[73.4679,107.286],[73.2679,107],[73.1206,106.684],[73.0304,106.347],[73,106],[73,90]]
EXCLUDE_OBJECT_DEFINE NAME=flowrate_m5_id_8_copy_0 CENTER=177,135 POLYGON=[[157,122],[157.03,121.653],[157.121,121.316],[157.268,121],[157.468,120.714],[157.714,120.468],[158,120.268],[158.316,120.121],[158.653,120.03],[159,120],[195,120],[195.347,120.03],[195.684,120.121],[196,120.268],[196.286,120.468],[196.532,120.714],[196.732,121],[196.879,121.316],[196.97,121.653],[197,122],[197,138],[196.97,138.347],[196.879,138.684],[196.732,139],[196.532,139.286],[186.286,149.532],[186,149.732],[185.684,149.879],[185.347,149.97],[185,150],[169,150],[168.653,149.97],[168.316,149.879],[168,149.732],[167.714,149.532],[157.468,139.286],[157.268,139],[157.121,138.684],[157.03,138.347],[157,138],[157,122]]
M73 P0 R26
M106 S0
M106 P2 S0
;TYPE:Custom
PRINT_START BED=100 HOTEND=260 CHAMBER=60 EXTRUDER=0
SET_PRINT_STATS_INFO TOTAL_LAYER=10
M83
M140 S100
M104 S260
M141 S60
G4 P3000
T0
G1 X108.000 Y1 F30000
G0 Z0.3 F600
;G1 E3 F1800
G90
M83
G0 X128 E8  F1080
G0 X133 E.3742  F1800
G0 X138 E.3742  F7200
G0 X143 E.3742  F1800
G0 X148 E.3742  F7200
G0 X153 E.3742  F1800
G91
G1 X1 Z-0.300
G1 X4
G1 Z1 F1200
G90
M400
G1 X108.000 Y2.5 F30000
G0 Z0.3 F600
M83
G0 X128 E10  F1080
G0 X133 E.3742  F1800
G0 X138 E.3742  F7200
G0 X143 E.3742  F1800
G0 X148 E.3742  F7200
G0 X153 E.3742  F1800
G91
G1 X1 Z-0.300
G1 X4
G1 Z1 F1200
G90
M400
G1 Z1 F600
M106 P3 S255
G90
G21
M83 ; use relative distances for extrusion
; Filament gcode
SET_PRESSURE_ADVANCE ADVANCE=0.025; Override pressure advance value
T0
M106 P2 S0
;LAYER_CHANGE
;Z:0.3
;HEIGHT:0.3
;BEFORE_LAYER_CHANGE
;0.3
G92 E0

G1 E-.8 F1800
 ; timelapse without wipe tower
TIMELAPSE_TAKE_FRAME

G92 E0
SET_PRINT_STATS_INFO CURRENT_LAYER=1
;_SET_FAN_SPEED_CHANGING_LAYER
SET_VELOCITY_LIMIT ACCEL=500
G1 X77.727 Y85.722 F30000
G1 Z.7
G1 Z.3
G1 E.8 F1800
;TYPE:Skirt
;WIDTH:0.62
G1 F3000
G1 X195.017 Y85.724 E7.47796
G1 X195.937 Y85.83 E.05901
G1 X196.647 Y86.056 E.04749
G1 X197.307 Y86.402 E.0475
G1 X197.896 Y86.857 E.04749
G1 X198.398 Y87.408 E.0475
G1 X198.944 Y88.353 E.0696
G1 X199.17 Y89.063 E.04749
G1 X199.269 Y89.802 E.0475
G1 X199.269 Y170.198 E5.12578
G1 X199.17 Y170.937 E.0475
G1 X198.944 Y171.647 E.04749
G1 X198.598 Y172.306 E.04749
G1 X198.143 Y172.896 E.0475
G1 X187.592 Y183.398 E.94909
G1 X186.963 Y183.796 E.04749
G1 X186.274 Y184.08 E.0475
G1 X185 Y184.278 E.08218
G1 X84.454 Y184.239 E6.41039
G1 X83.353 Y183.944 E.07267
G1 X82.694 Y183.598 E.04749
G1 X82.104 Y183.143 E.0475
G1 X71.602 Y172.592 E.94909
G1 X71.204 Y171.963 E.0475
G1 X70.92 Y171.274 E.0475
G1 X70.722 Y170 E.08218
G1 X70.722 Y90 E5.10047
G1 X70.83 Y89.063 E.06012
G1 X71.204 Y88.037 E.0696
G1 X71.857 Y87.104 E.07266
G1 X72.408 Y86.602 E.0475
G1 X73.037 Y86.204 E.0475
G1 X73.726 Y85.92 E.0475
G1 X75 Y85.722 E.08218
G1 X77.667 Y85.722 E.17004
; printing object flowrate_m20 id:7 copy 0
G1 E-.56 F1800
;WIPE_START
G1 F3000
G1 X78.667 Y85.722 E-.24
;WIPE_END
EXCLUDE_OBJECT_START NAME=flowrate_m20_id_7_copy_0
G1 X85.029 Y89.939 Z.7 F30000
G1 X111.462 Y107.457 Z.7
G1 Z.3
G1 E.8 F1800
;TYPE:Outer wall
;WIDTH:0.62
G1 F3000
G1 X110.98 Y107.54 E.02494
G1 X104.991 Y107.54 E.30548
G1 X104.594 Y107.574 E.02031
G1 X104.179 Y107.681 E.02187
G1 X103.789 Y107.859 E.02187
G1 X103.435 Y108.102 E.02187
G1 X103.129 Y108.402 E.02187
G1 X102.88 Y108.751 E.02187
G1 X102.696 Y109.139 E.02187
G1 X102.581 Y109.552 E.02187
M73 P1 R26
G1 X102.54 Y109.991 E.02248
G1 X102.54 Y116.198 E.31661
G1 X102.332 Y116.769 E.03099
G1 X101.989 Y117.178 E.02725
G1 X101.526 Y117.445 E.02725
G1 X100.98 Y117.54 E.02827
G1 X84.802 Y117.54 E.82515
G1 X84.231 Y117.332 E.03099
G1 X83.83 Y116.997 E.02665
G1 X83.552 Y116.516 E.02837
G1 X83.46 Y115.98 E.02772
G1 X83.46 Y109.991 E.30548
G1 X83.426 Y109.594 E.02031
G1 X83.319 Y109.179 E.02187
G1 X83.141 Y108.789 E.02187
G1 X82.898 Y108.435 E.02187
G1 X82.598 Y108.129 E.02187
G1 X82.248 Y107.88 E.02187
G1 X81.861 Y107.696 E.02187
G1 X81.448 Y107.581 E.02187
G1 X81.009 Y107.54 E.02248
G1 X74.802 Y107.54 E.31661
G1 X74.231 Y107.332 E.031
G1 X73.822 Y106.989 E.02725
G1 X73.555 Y106.526 E.02725
G1 X73.46 Y105.98 E.02827
G1 X73.46 Y89.802 E.82515
G1 X73.668 Y89.231 E.031
G1 X74.011 Y88.822 E.02725
G1 X74.474 Y88.555 E.02725
G1 X75.02 Y88.46 E.02827
G1 X110.997 Y88.462 E1.83501
G1 X111.526 Y88.555 E.02739
G1 X111.989 Y88.822 E.02725
G1 X112.332 Y89.231 E.02725
G1 X112.48 Y89.603 E.02044
G1 X112.54 Y90.091 E.02507
G1 X112.54 Y106.198 E.82153
G1 X112.332 Y106.769 E.031
G1 X111.989 Y107.178 E.02725
G1 X111.526 Y107.445 E.02725
G1 X111.521 Y107.446 E.00027
G1 E-.56 F1800
;WIPE_START
G1 F3000
G1 X110.98 Y107.54 E-.13176
G1 X110.529 Y107.54 E-.10824
;WIPE_END
G1 X112.378 Y106.237 Z.7 F30000
G1 Z.3
G1 E.8 F1800
;TYPE:Bottom surface
;WIDTH:0.622297
G1 F6300
G1 X111.732 Y106.883 E.03671
G1 X111.574 Y106.994 E.00429
G1 X111.393 Y107.079 E.00456
G1 X111.199 Y107.13 E.00455
G1 X110.675 Y107.151 E.01812
G1 X112.151 Y105.675 E.09547
G1 X112.151 Y104.886 E.03069
G1 X109.886 Y107.151 E.15217
G1 X109.097 Y107.152 E.0307
G1 X112.151 Y104.097 E.20902
G1 X112.151 Y103.308 E.03069
G1 X108.307 Y107.152 E.26624
G1 X107.518 Y107.152 E.0307
G1 X112.151 Y102.519 E.32458
G1 X112.151 Y101.73 E.03069
G1 X106.729 Y107.152 E.38408
G1 X105.94 Y107.153 E.0307
G1 X112.151 Y100.941 E.44475
G1 X112.151 Y100.152 E.03069
G1 X104.895 Y107.408 E.52555
G1 E-.56 F1800
;WIPE_START
G1 F6300
G1 X105.602 Y106.701 E-.24
;WIPE_END
G1 X105.602 Y107.166 Z.7 F30000
G1 X104.964 Y107.166
G1 X104.507 Y107.206
G1 X104.03 Y107.334
G1 X103.582 Y107.543
G1 X103.177 Y107.827
G1 X102.827 Y108.177
G1 X102.543 Y108.582
G1 X102.334 Y109.03
G1 X102.206 Y109.507
G1 X102.166 Y109.964
G1 X102.166 Y115.964
G1 X102.146 Y116.202
G1 X102.378 Y116.237
G1 Z.3
G1 E.8 F1800
G1 F6300
G1 X101.732 Y116.883 E.03671
G1 X101.574 Y116.994 E.00429
G1 X101.393 Y117.079 E.00455
G1 X101.199 Y117.13 E.00456
G1 X100.675 Y117.151 E.01812
G1 X102.151 Y115.675 E.09546
G1 X102.151 Y114.886 E.03069
G1 X99.886 Y117.151 E.15215
G1 X99.097 Y117.151 E.03069
G1 X102.151 Y114.097 E.20897
G1 X102.151 Y113.308 E.03069
G1 X98.308 Y117.151 E.26618
G1 X97.519 Y117.151 E.03069
G1 X102.151 Y112.519 E.32449
G1 X102.151 Y111.73 E.03069
G1 X96.73 Y117.151 E.38398
G1 X95.941 Y117.151 E.03069
G1 X102.151 Y110.941 E.44462
G1 X102.151 Y110.152 E.03069
G1 X95.152 Y117.151 E.50644
G1 X94.363 Y117.151 E.03069
G1 X102.264 Y109.25 E.57226
G1 X102.322 Y109.024 E.00585
G1 X102.533 Y108.573 E.01691
G1 X102.82 Y108.164 E.01697
G1 X103.134 Y107.848 E.01452
G1 X103.574 Y107.532 E.01893
G1 X104.025 Y107.322 E.01688
G1 X104.254 Y107.26 E.00601
G1 X112.151 Y99.363 E.572
G1 X112.151 Y98.574 E.03069
G1 X93.574 Y117.151 E1.34552
G1 X92.785 Y117.151 E.03069
G1 X112.151 Y97.785 E1.40267
G1 X112.151 Y96.996 E.03069
G1 X91.996 Y117.151 E1.45981
G1 X91.207 Y117.151 E.03069
G1 X112.151 Y96.207 E1.51696
G1 X112.151 Y95.418 E.03069
G1 X90.418 Y117.151 E1.57411
G1 X89.629 Y117.151 E.03069
G1 X112.151 Y94.629 E1.63126
G1 X112.151 Y93.84 E.03069
G1 X88.84 Y117.151 E1.6884
G1 X88.051 Y117.151 E.03069
G1 X112.151 Y93.051 E1.74555
G1 X112.151 Y92.262 E.03069
G1 X87.262 Y117.151 E1.8027
G1 X86.473 Y117.151 E.03069
G1 X112.151 Y91.473 E1.85985
G1 X112.151 Y90.684 E.03069
G1 X85.684 Y117.151 E1.917
G1 X84.906 Y117.14 E.03015
G1 X112.14 Y89.907 E1.97249
G1 X112.13 Y89.801 E.00143
G1 X112.079 Y89.607 E.00455
G1 X111.994 Y89.426 E.00456
G1 X111.927 Y89.33 E.00172
G1 X84.33 Y116.927 E1.99882
G1 X84.141 Y116.758 E.00666
G1 X83.983 Y116.485 E.00916
G1 X111.498 Y88.97 E1.99287
G1 X111.393 Y88.921 E.00169
M73 P2 R26
G1 X111.199 Y88.87 E.00455
G1 X110.829 Y88.85 E.0114
G1 X83.849 Y115.83 E1.95414
G1 X83.849 Y115.041 E.03068
G1 X110.04 Y88.85 E1.89701
G1 X109.251 Y88.85 E.03069
G1 X83.848 Y114.253 E1.83988
G1 X83.848 Y113.464 E.03068
G1 X108.462 Y88.85 E1.78276
G1 X107.673 Y88.85 E.03069
G1 X83.848 Y112.675 E1.72563
G1 X83.848 Y111.886 E.03068
M73 P2 R25
G1 X106.884 Y88.85 E1.6685
G1 X106.095 Y88.85 E.03069
G1 X83.847 Y111.098 E1.61138
