; HEADER_BLOCK_START
; generated by OrcaSlicer 2.3.1 on 2025-10-26 at 10:43:09
; total layer number: 10
; filament_density: 1.02,1.02,1.02,1.24,1.24,1.24
; filament_diameter: 1.75,1.75,1.75,1.75,1.75,1.75
; max_z_height: 3.00
; HEADER_BLOCK_END

; THUMBNAIL_BLOCK_START

;
; THUMBNAIL_BLOCK_END

; external perimeters extrusion width = 0.62mm
; perimeters extrusion width = 0.62mm
; infill extrusion width = 0.62mm
; solid infill extrusion width = 0.72mm
; top infill extrusion width = 0.72mm
; first layer extrusion width = 0.62mm

; external perimeters extrusion width = 0.62mm
; perimeters extrusion width = 0.62mm
; infill extrusion width = 0.62mm
; solid infill extrusion width = 0.72mm
; top infill extrusion width = 0.72mm
; first layer extrusion width = 0.62mm

; external perimeters extrusion width = 0.62mm
; perimeters extrusion width = 0.62mm
; infill extrusion width = 0.62mm
; solid infill extrusion width = 0.72mm
; top infill extrusion width = 0.72mm
; first layer extrusion width = 0.62mm

; external perimeters extrusion width = 0.62mm
; perimeters extrusion width = 0.62mm
; infill extrusion width = 0.62mm
; solid infill extrusion width = 0.72mm
; top infill extrusion width = 0.72mm
; first layer extrusion width = 0.62mm

; external perimeters extrusion width = 0.62mm
; perimeters extrusion width = 0.62mm
; infill extrusion width = 0.62mm
; solid infill extrusion width = 0.72mm
; top infill extrusion width = 0.72mm
; first layer extrusion width = 0.62mm

; external perimeters extrusion width = 0.62mm
; perimeters extrusion width = 0.62mm
; infill extrusion width = 0.62mm
; solid infill extrusion width = 0.72mm
; top infill extrusion width = 0.72mm
; first layer extrusion width = 0.62mm

; EXECUTABLE_BLOCK_START
EXCLUDE_OBJECT_DEFINE NAME=flowrate_0_id_0_copy_0 CENTER=135,183 POLYGON=[[115,170],[115.03,169.653],[115.121,169.316],[115.268,169],[115.468,168.714],[115.714,168.468],[116,168.268],[116.316,168.121],[116.653,168.03],[117,168],[153,168],[153.347,168.03],[153.684,168.121],[154,168.268],[154.286,168.468],[154.532,168.714],[154.732,169],[154.879,169.316],[154.97,169.653],[155,170],[155,186],[154.97,186.347],[154.879,186.684],[154.732,187],[154.532,187.286],[144.286,197.532],[144,197.732],[143.684,197.879],[143.347,197.97],[143,198],[127,198],[126.653,197.97],[126.316,197.879],[126,197.732],[125.714,197.532],[115.468,187.286],[115.268,187],[115.121,186.684],[115.03,186.347],[115,186],[115,170]]
EXCLUDE_OBJECT_DEFINE NAME=flowrate_m1_id_1_copy_0 CENTER=93,151 POLYGON=[[73,138],[73.0304,137.653],[73.1206,137.316],[73.2679,137],[73.4679,136.714],[73.7144,136.468],[74,136.268],[74.316,136.121],[74.6527,136.03],[75,136],[111,136],[111.347,136.03],[111.684,136.121],[112,136.268],[112.286,136.468],[112.532,136.714],[112.732,137],[112.879,137.316],[112.97,137.653],[113,138],[113,154],[112.97,154.347],[112.879,154.684],[112.732,155],[112.532,155.286],[102.286,165.532],[102,165.732],[101.684,165.879],[101.347,165.97],[101,166],[85,166],[84.6527,165.97],[84.316,165.879],[84,165.732],[83.7144,165.532],[83.4679,165.286],[73.4679,155.286],[73.2679,155],[73.1206,154.684],[73.0304,154.347],[73,154],[73,138]]
EXCLUDE_OBJECT_DEFINE NAME=flowrate_m2_id_2_copy_0 CENTER=135,151 POLYGON=[[115,138],[115.03,137.653],[115.121,137.316],[115.268,137],[115.468,136.714],[115.714,136.468],[116,136.268],[116.316,136.121],[116.653,136.03],[117,136],[153,136],[153.347,136.03],[153.684,136.121],[154,136.268],[154.286,136.468],[154.532,136.714],[154.732,137],[154.879,137.316],[154.97,137.653],[155,138],[155,154],[154.97,154.347],[154.879,154.684],[154.732,155],[154.532,155.286],[144.286,165.532],[144,165.732],[143.684,165.879],[143.347,165.97],[143,166],[127,166],[126.653,165.97],[126.316,165.879],[126,165.732],[125.714,165.532],[115.468,155.286],[115.268,155],[115.121,154.684],[115.03,154.347],[115,154],[115,138]]
EXCLUDE_OBJECT_DEFINE NAME=flowrate_m3_id_3_copy_0 CENTER=177,151 POLYGON=[[157,138],[157.03,137.653],[157.121,137.316],[157.268,137],[157.468,136.714],[157.714,136.468],[158,136.268],[158.316,136.121],[158.653,136.03],[159,136],[195,136],[195.347,136.03],[195.684,136.121],[196,136.268],[196.286,136.468],[196.532,136.714],[196.732,137],[196.879,137.316],[196.97,137.653],[197,138],[197,154],[196.97,154.347],[196.879,154.684],[196.732,155],[196.532,155.286],[186.286,165.532],[186,165.732],[185.684,165.879],[185.347,165.97],[185,166],[169,166],[168.653,165.97],[168.316,165.879],[168,165.732],[167.714,165.532],[157.468,155.286],[157.268,155],[157.121,154.684],[157.03,154.347],[157,154],[157,138]]
EXCLUDE_OBJECT_DEFINE NAME=flowrate_m4_id_4_copy_0 CENTER=93,119 POLYGON=[[73,106],[73.0304,105.653],[73.1206,105.316],[73.2679,105],[73.4679,104.714],[73.7144,104.468],[74,104.268],[74.316,104.121],[74.6527,104.03],[75,104],[111,104],[111.347,104.03],[111.684,104.121],[112,104.268],[112.286,104.468],[112.532,104.714],[112.732,105],[112.879,105.316],[112.97,105.653],[113,106],[113,122],[112.97,122.347],[112.879,122.684],[112.732,123],[112.532,123.286],[102.286,133.532],[102,133.732],[101.684,133.879],[101.347,133.97],[101,134],[85,134],[84.6527,133.97],[84.316,133.879],[84,133.732],[83.7144,133.532],[83.4679,133.286],[73.4679,123.286],[73.2679,123],[73.1206,122.684],[73.0304,122.347],[73,122],[73,106]]
EXCLUDE_OBJECT_DEFINE NAME=flowrate_m5_id_5_copy_0 CENTER=135,119 POLYGON=[[115,106],[115.03,105.653],[115.121,105.316],[115.268,105],[115.468,104.714],[115.714,104.468],[116,104.268],[116.316,104.121],[116.653,104.03],[117,104],[153,104],[153.347,104.03],[153.684,104.121],[154,104.268],[154.286,104.468],[154.532,104.714],[154.732,105],[154.879,105.316],[154.97,105.653],[155,106],[155,122],[154.97,122.347],[154.879,122.684],[154.732,123],[154.532,123.286],[144.286,133.532],[144,133.732],[143.684,133.879],[143.347,133.97],[143,134],[127,134],[126.653,133.97],[126.316,133.879],[126,133.732],[125.714,133.532],[115.468,123.286],[115.268,123],[115.121,122.684],[115.03,122.347],[115,122],[115,106]]
M73 P0 R16
M106 S0
M106 P2 S0
;TYPE:Custom
PRINT_START BED=100 HOTEND=260 CHAMBER=60 EXTRUDER=0
SET_PRINT_STATS_INFO TOTAL_LAYER=10
M83
M140 S100
M104 S260
M141 S60
G4 P3000
T0
G1 X108.000 Y1 F30000
G0 Z0.3 F600
;G1 E3 F1800
G90
M83
G0 X128 E8  F1080
G0 X133 E.3742  F1800
G0 X138 E.3742  F7200
G0 X143 E.3742  F1800
G0 X148 E.3742  F7200
G0 X153 E.3742  F1800
G91
G1 X1 Z-0.300
G1 X4
G1 Z1 F1200
G90
M400
G1 X108.000 Y2.5 F30000
G0 Z0.3 F600
M83
G0 X128 E10  F1080
G0 X133 E.3742  F1800
G0 X138 E.3742  F7200
G0 X143 E.3742  F1800
G0 X148 E.3742  F7200
G0 X153 E.3742  F1800
G91
G1 X1 Z-0.300
G1 X4
G1 Z1 F1200
G90
M400
G1 Z1 F600
M106 P3 S255
G90
G21
M83 ; use relative distances for extrusion
; Filament gcode
SET_PRESSURE_ADVANCE ADVANCE=0.025; Override pressure advance value
T0
M106 P2 S0
;LAYER_CHANGE
;Z:0.3
;HEIGHT:0.3
;BEFORE_LAYER_CHANGE
;0.3
G92 E0

G1 E-.8 F1800
 ; timelapse without wipe tower
TIMELAPSE_TAKE_FRAME

G92 E0
SET_PRINT_STATS_INFO CURRENT_LAYER=1
;_SET_FAN_SPEED_CHANGING_LAYER
SET_VELOCITY_LIMIT ACCEL=500
G1 X77.729 Y101.722 F30000
G1 Z.7
G1 Z.3
G1 E.8 F1800
;TYPE:Skirt
;WIDTH:0.62
G1 F3000
G1 X153.017 Y101.724 E4.8001
G1 X154.274 Y101.92 E.08106
G1 X154.963 Y102.204 E.0475
G1 X155.666 Y102.656 E.05332
G1 X197.666 Y134.656 E3.36641
G1 X198.143 Y135.104 E.04169
G1 X198.598 Y135.694 E.0475
G1 X198.944 Y136.353 E.04749
G1 X199.17 Y137.063 E.0475
G1 X199.269 Y137.802 E.0475
G1 X199.278 Y154 E1.03275
G1 X199.08 Y155.274 E.08218
G1 X198.598 Y156.306 E.07266
G1 X198.143 Y156.896 E.0475
G1 X187.666 Y167.344 E.94332
G1 X145.306 Y199.598 E3.39446
G1 X144.274 Y200.08 E.07266
M73 P1 R16
G1 X143 Y200.278 E.08218
G1 X127 Y200.278 E1.02009
G1 X125.726 Y200.08 E.08218
G1 X125.037 Y199.796 E.0475
G1 X124.334 Y199.344 E.05332
G1 X82.334 Y167.344 E3.36641
G1 X71.857 Y156.896 E.94332
G1 X71.204 Y155.963 E.07266
G1 X70.83 Y154.937 E.0696
G1 X70.722 Y154 E.06013
G1 X70.722 Y106 E3.06028
G1 X70.92 Y104.726 E.08218
G1 X71.204 Y104.037 E.0475
G1 X71.602 Y103.408 E.0475
G1 X72.408 Y102.602 E.07266
G1 X73.037 Y102.204 E.0475
G1 X73.726 Y101.92 E.0475
G1 X75 Y101.722 E.08218
G1 X77.669 Y101.722 E.17015
; printing object flowrate_m1 id:1 copy 0
G1 E-.56 F1800
;WIPE_START
G1 F3000
G1 X78.669 Y101.722 E-.24
;WIPE_END
EXCLUDE_OBJECT_START NAME=flowrate_m1_id_1_copy_0
G1 X82.646 Y108.236 Z.7 F30000
G1 X111.478 Y155.454 Z.7
G1 Z.3
G1 E.8 F1800
;TYPE:Outer wall
;WIDTH:0.62
G1 F3000
G1 X110.98 Y155.54 E.03189
G1 X104.991 Y155.54 E.37803
G1 X104.594 Y155.574 E.02513
G1 X104.179 Y155.681 E.02707
G1 X103.789 Y155.859 E.02707
G1 X103.435 Y156.102 E.02706
G1 X103.129 Y156.402 E.02706
G1 X102.88 Y156.752 E.02706
G1 X102.696 Y157.138 E.02706
G1 X102.581 Y157.552 E.02707
G1 X102.54 Y157.991 E.02782
G1 X102.54 Y164.198 E.3918
G1 X102.332 Y164.769 E.03836
G1 X101.989 Y165.178 E.03372
G1 X101.526 Y165.445 E.03372
G1 X100.98 Y165.54 E.03499
G1 X84.802 Y165.54 E1.02113
G1 X84.231 Y165.332 E.03836
G1 X83.822 Y164.989 E.03372
G1 X83.555 Y164.526 E.03372
G1 X83.46 Y163.98 E.03499
G1 X83.46 Y157.991 E.37803
G1 X83.426 Y157.594 E.02513
G1 X83.319 Y157.179 E.02706
G1 X83.141 Y156.789 E.02706
G1 X82.898 Y156.435 E.02707
G1 X82.598 Y156.129 E.02707
G1 X82.248 Y155.88 E.02707
G1 X81.861 Y155.696 E.02707
G1 X81.448 Y155.581 E.02706
G1 X81.009 Y155.54 E.02782
G1 X74.802 Y155.54 E.3918
G1 X74.231 Y155.332 E.03836
G1 X73.822 Y154.989 E.03372
G1 X73.555 Y154.526 E.03372
G1 X73.46 Y153.98 E.03499
G1 X73.46 Y137.802 E1.02113
G1 X73.668 Y137.231 E.03836
G1 X74.011 Y136.822 E.03372
G1 X74.474 Y136.555 E.03372
G1 X75.02 Y136.46 E.03499
G1 X110.997 Y136.462 E2.27082
G1 X111.526 Y136.555 E.03389
G1 X111.989 Y136.822 E.03372
G1 X112.332 Y137.231 E.03372
G1 X112.48 Y137.603 E.0253
G1 X112.54 Y138.091 E.03102
G1 X112.54 Y154.198 E1.01664
G1 X112.332 Y154.769 E.03836
G1 X111.989 Y155.178 E.03372
G1 X111.536 Y155.44 E.03303
G1 E-.56 F1800
;WIPE_START
G1 F3000
G1 X110.98 Y155.54 E-.13549
G1 X110.544 Y155.54 E-.10451
;WIPE_END
G1 X112.378 Y154.237 Z.7 F30000
G1 Z.3
G1 E.8 F1800
;TYPE:Bottom surface
;WIDTH:0.622297
G1 F6300
G1 X111.732 Y154.883 E.04543
G1 X111.574 Y154.994 E.00531
G1 X111.393 Y155.079 E.00564
G1 X111.199 Y155.13 E.00564
G1 X110.675 Y155.151 E.02243
G1 X112.151 Y153.675 E.11814
G1 X112.151 Y152.886 E.03798
G1 X109.886 Y155.151 E.18832
G1 X109.097 Y155.152 E.03799
G1 X112.151 Y152.097 E.25866
G1 X112.151 Y151.308 E.03798
G1 X108.307 Y155.152 E.32947
G1 X107.518 Y155.152 E.03799
G1 X112.151 Y150.519 E.40166
G1 X112.151 Y149.73 E.03798
G1 X106.729 Y155.152 E.4753
G1 X105.94 Y155.153 E.03799
G1 X112.151 Y148.941 E.55038
G1 X112.151 Y148.152 E.03798
G1 X104.895 Y155.408 E.65037
G1 E-.56 F1800
M73 P2 R16
;WIPE_START
G1 F6300
G1 X105.602 Y154.701 E-.24
;WIPE_END
G1 X105.602 Y155.166 Z.7 F30000
G1 X104.964 Y155.166
G1 X104.507 Y155.206
G1 X104.03 Y155.334
G1 X103.582 Y155.543
G1 X103.177 Y155.827
G1 X102.827 Y156.177
G1 X102.543 Y156.582
G1 X102.334 Y157.03
G1 X102.206 Y157.507
G1 X102.166 Y157.964
G1 X102.166 Y163.964
G1 X102.146 Y164.202
G1 X102.378 Y164.237
G1 Z.3
G1 E.8 F1800
G1 F6300
G1 X101.732 Y164.883 E.04543
G1 X101.574 Y164.994 E.00531
G1 X101.393 Y165.079 E.00564
G1 X101.199 Y165.13 E.00564
G1 X100.675 Y165.151 E.02242
G1 X102.151 Y163.675 E.11813
G1 X102.151 Y162.886 E.03798
G1 X99.886 Y165.151 E.18828
G1 X99.097 Y165.151 E.03798
G1 X102.151 Y162.097 E.2586
G1 X102.151 Y161.308 E.03798
G1 X98.308 Y165.151 E.32939
G1 X97.519 Y165.151 E.03798
G1 X102.151 Y160.519 E.40156
G1 X102.151 Y159.73 E.03798
G1 X96.73 Y165.151 E.47517
G1 X95.941 Y165.151 E.03798
G1 X102.151 Y158.941 E.55022
G1 X102.151 Y158.152 E.03798
G1 X95.152 Y165.151 E.62672
G1 X94.363 Y165.151 E.03798
G1 X102.264 Y157.25 E.70817
G1 X102.322 Y157.024 E.00724
G1 X102.533 Y156.573 E.02093
G1 X102.82 Y156.164 E.021
G1 X103.134 Y155.848 E.01797
G1 X103.574 Y155.532 E.02343
G1 X104.025 Y155.322 E.02089
G1 X104.254 Y155.26 E.00743
G1 X112.151 Y147.363 E.70785
G1 X112.151 Y146.574 E.03798
G1 X93.574 Y165.151 E1.66508
G1 X92.785 Y165.151 E.03798
G1 X112.151 Y145.785 E1.7358
G1 X112.151 Y144.996 E.03798
G1 X91.996 Y165.151 E1.80652
G1 X91.207 Y165.151 E.03798
G1 X112.151 Y144.207 E1.87724
G1 X112.151 Y143.418 E.03798
G1 X90.418 Y165.151 E1.94796
G1 X89.629 Y165.151 E.03798
G1 X112.151 Y142.629 E2.01868
G1 X112.151 Y141.84 E.03798
G1 X88.84 Y165.151 E2.0894
G1 X88.051 Y165.151 E.03798
G1 X112.151 Y141.051 E2.16012
G1 X112.151 Y140.262 E.03798
G1 X87.262 Y165.151 E2.23084
G1 X86.473 Y165.151 E.03798
G1 X112.151 Y139.473 E2.30156
G1 X112.151 Y138.684 E.03798
G1 X85.684 Y165.151 E2.37228
G1 X84.906 Y165.14 E.03731
G1 X112.14 Y137.907 E2.44096
G1 X112.13 Y137.801 E.00176
G1 X112.079 Y137.607 E.00564
G1 X111.994 Y137.426 E.00564
G1 X111.927 Y137.33 E.00212
G1 X84.33 Y164.927 E2.47354
G1 X84.121 Y164.738 E.00967
M73 P3 R16
G1 X83.97 Y164.498 E.00973
G1 X111.498 Y136.97 E2.46732
G1 X111.393 Y136.921 E.00209
G1 X111.199 Y136.87 E.00564
G1 X110.829 Y136.85 E.01411
G1 X83.849 Y163.83 E2.41825
G1 X83.849 Y163.041 E.03796
G1 X110.04 Y136.85 E2.34755
G1 X109.251 Y136.85 E.03798
G1 X83.848 Y162.253 E2.27686
G1 X83.848 Y161.464 E.03796
G1 X108.462 Y136.85 E2.20616
G1 X107.673 Y136.85 E.03798
G1 X83.848 Y160.675 E2.13547
G1 X83.848 Y159.886 E.03796
G1 X106.884 Y136.85 E2.06477
G1 X106.095 Y136.85 E.03798
G1 X83.847 Y159.098 E1.99408
G1 X83.847 Y158.309 E.03796
G1 X105.306 Y136.85 E1.92339
G1 X104.517 Y136.85 E.03798
G1 X83.811 Y157.556 E1.85588
G1 X83.678 Y157.024 E.02382
G1 X83.638 Y156.94 E.00136
G1 X103.728 Y136.85 E1.80065
G1 X102.939 Y136.85 E.03798
G1 X83.362 Y156.427 E1.75468
G1 X83.152 Y156.134 E.01359
G1 X83.008 Y155.991 E.00572
M73 P3 R15
G1 X102.15 Y136.85 E1.71568
G1 X101.361 Y136.85 E.03798
G1 X82.575 Y155.636 E1.68385
G1 X82.426 Y155.532 E.00479
G1 X82.06 Y155.362 E.01573
G1 X100.572 Y136.85 E1.65923
G1 X99.783 Y136.85 E.03798
G1 X81.446 Y155.187 E1.64356
G1 X81.014 Y155.151 E.01735
G1 X80.693 Y155.151 E.01161
G1 X98.994 Y136.85 E1.64036
G1 X98.205 Y136.85 E.03798
G1 X79.904 Y155.151 E1.64037
G1 X79.115 Y155.151 E.03798
M73 P4 R15
G1 X97.416 Y136.85 E1.64037
G1 X96.627 Y136.85 E.03798
G1 X78.326 Y155.151 E1.64037
G1 X77.537 Y155.151 E.03798
G1 X95.838 Y136.85 E1.64037
G1 X95.049 Y136.85 E.03798
G1 X76.748 Y155.151 E1.64038
G1 X75.959 Y155.151 E.03798
G1 X94.26 Y136.85 E1.64038
G1 X93.471 Y136.85 E.03798
G1 X75.17 Y155.151 E1.64038
G1 X74.801 Y155.13 E.01403
G1 X74.607 Y155.079 E.00564
G1 X74.502 Y155.03 E.00209
G1 X92.682 Y136.85 E1.6295
G1 X91.893 Y136.85 E.03798
G1 X74.073 Y154.67 E1.59725
G1 X74.006 Y154.574 E.00212
G1 X73.921 Y154.393 E.00564
G1 X73.87 Y154.199 E.00564
G1 X73.86 Y154.093 E.00177
G1 X91.104 Y136.85 E1.5456
G1 X90.315 Y136.85 E.03798
G1 X73.849 Y153.316 E1.4759
G1 X73.849 Y152.527 E.03798
G1 X89.526 Y136.85 E1.40518
G1 X88.737 Y136.85 E.03798
G1 X73.849 Y151.738 E1.33447
G1 X73.849 Y150.949 E.03798
G1 X87.948 Y136.849 E1.26375
G1 X87.159 Y136.849 E.03798
G1 X73.849 Y150.16 E1.19303
G1 X73.849 Y149.371 E.03798
G1 X86.37 Y136.849 E1.12231
G1 X85.581 Y136.849 E.03798
G1 X73.849 Y148.582 E1.0516
G1 X73.849 Y147.793 E.03798
G1 X84.792 Y136.849 E.98088
G1 X84.003 Y136.849 E.03798
G1 X73.849 Y147.004 E.91016
G1 X73.849 Y146.215 E.03798
G1 X83.214 Y136.849 E.83944
G1 X82.425 Y136.849 E.03798
G1 X73.849 Y145.426 E.76873
G1 X73.849 Y144.637 E.03798
G1 X81.636 Y136.849 E.69801
G1 X80.847 Y136.849 E.03798
G1 X73.849 Y143.848 E.62669
G1 X73.849 Y143.059 E.03798
G1 X80.058 Y136.849 E.55019
G1 X79.269 Y136.849 E.03798
G1 X73.849 Y142.27 E.47515
G1 X73.849 Y141.481 E.03798
G1 X78.481 Y136.849 E.40154
G1 X77.692 Y136.849 E.03798
M73 P5 R15
G1 X73.849 Y140.692 E.32938
G1 X73.849 Y139.903 E.03798
G1 X76.903 Y136.849 E.25859
G1 X76.114 Y136.849 E.03798
G1 X73.849 Y139.114 E.18827
G1 X73.849 Y138.325 E.03798
G1 X75.325 Y136.849 E.11813
G1 X74.8 Y136.87 E.02247
G1 X74.607 Y136.921 E.00559
G1 X74.426 Y137.006 E.00564
G1 X74.268 Y137.117 E.00532
G1 X73.622 Y137.763 E.04541
; stop printing object flowrate_m1 id:1 copy 0
; printing object flowrate_m4 id:4 copy 0
G1 E-.56 F1800
;WIPE_START
G1 F6300
G1 X74.268 Y137.117 E-.21914
