; HEADER_BLOCK_START
; generated by OrcaSlicer 2.3.1 on 2025-10-26 at 12:08:34
; total layer number: 4
; filament_density: 1.02,1.02,1.02,1.24,1.24,1.24
; filament_diameter: 1.75,1.75,1.75,1.75,1.75,1.75
; max_z_height: 0.85
; HEADER_BLOCK_END

; THUMBNAIL_BLOCK_START

;
; THUMBNAIL_BLOCK_END

; external perimeters extrusion width = 0.62mm
; perimeters extrusion width = 0.62mm
; infill extrusion width = 0.62mm
; solid infill extrusion width = 0.62mm
; top infill extrusion width = 0.62mm
; first layer extrusion width = 0.84mm

; EXECUTABLE_BLOCK_START
EXCLUDE_OBJECT_DEFINE NAME=Orca-PA-Calibration-Test CENTER=0,0 POLYGON=[[25,25],[245,25],[245,245],[25,245],[25,25]]
M73 P0 R7
M106 S0
M106 P2 S0
;TYPE:Custom
PRINT_START BED=100 HOTEND=260 CHAMBER=60 EXTRUDER=0
SET_PRINT_STATS_INFO TOTAL_LAYER=4
M83
M140 S100
M104 S260
M141 S60
G4 P3000
T0
G1 X108.000 Y1 F30000
G0 Z0.25 F600
;G1 E3 F1800
G90
M83
G0 X128 E8  F983.344
G0 X133 E.3742  F1638.91
G0 X138 E.3742  F6555.63
G0 X143 E.3742  F1638.91
G0 X148 E.3742  F6555.63
G0 X153 E.3742  F1638.91
G91
G1 X1 Z-0.300
G1 X4
G1 Z1 F1200
G90
M400
G1 X108.000 Y2.5 F30000
G0 Z0.25 F600
M83
G0 X128 E10  F983.344
G0 X133 E.3742  F1638.91
M73 P1 R7
G0 X138 E.3742  F6555.63
G0 X143 E.3742  F1638.91
G0 X148 E.3742  F6555.63
G0 X153 E.3742  F1638.91
G91
G1 X1 Z-0.300
G1 X4
G1 Z1 F1200
G90
M400
G1 Z1 F600
M106 P3 S255
G90
G21
M83 ; use relative distances for extrusion
; Filament gcode
SET_PRESSURE_ADVANCE ADVANCE=0.025; Override pressure advance value
T0
M106 P2 S0
;LAYER_CHANGE
;Z:0.25
;HEIGHT:0.25
;BEFORE_LAYER_CHANGE
;0.25
G92 E0

 ; timelapse without wipe tower
TIMELAPSE_TAKE_FRAME

G92 E0
SET_PRINT_STATS_INFO CURRENT_LAYER=1
;_SET_FAN_SPEED_CHANGING_LAYER
SET_VELOCITY_LIMIT ACCEL=500
;CUSTOM_GCODE
; start pressure advance pattern for layer
G1 E-.8 F1800
G1 X84.911 Y107.287 F30000
G1 E.8 F1800
G1 Z.25 F30000
SET_PRESSURE_ADVANCE ADVANCE=0; Override pressure advance value
G1 E-.8 F1800
G1 X84.911 Y107.287 F30000
G1 E.8 F1800

G1 X84.911 Y149.713 E3.15549

G1 X185.089 Y149.713 E7.45076

G1 X185.089 Y107.287 E3.15549
M73 P2 R6

G1 X84.911 Y107.287 E7.45076
G1 E-.8
M73 P3 R6
G1 X85.698 Y108.073 F30000
G1 E.8 F1800

G1 X85.698 Y148.927 E3.03852

G1 X184.302 Y148.927 E7.33379
M73 P4 R6

G1 X184.302 Y108.073 E3.03852

G1 X85.698 Y108.073 E7.33379
M73 P5 R6
G1 E-.8
M73 P6 R6
G1 X86.484 Y108.859 F30000
G1 E.8 F1800

G1 X86.484 Y148.141 E2.92155

G1 X183.516 Y148.141 E7.21682

G1 X183.516 Y108.859 E2.92155
M73 P7 R6

G1 X86.484 Y108.859 E7.21682
G1 E-.8
M73 P8 R6
G1 X84.911 Y150.5 F30000
G1 E.8 F1800

G1 X84.911 Y164.286 E1.02537

G1 X185.089 Y164.286 E7.45076

G1 X185.089 Y150.5 E1.02537
M73 P9 R6

G1 X84.911 Y150.5 E7.45076
G1 E-.8
M73 P10 R6
G1 X85.698 Y151.286 F30000
G1 E.8 F1800

G1 X85.698 Y163.5 E.9084

G1 X184.302 Y163.5 E7.33379

G1 X184.302 Y151.286 E.9084
M73 P11 R6

G1 X85.698 Y151.286 E7.33379
G1 E-.8
G1 X86.484 Y152.072 F30000
G1 E.8 F1800

G1 X86.484 Y162.713 E.79143

G1 X183.516 Y162.713 E7.21682
M73 P12 R6

G1 X183.516 Y152.072 E.79143

G1 X86.484 Y152.072 E7.21682
G1 E-.8
M73 P13 R6
G1 X87.044 Y152.632 F30000
G1 E.8 F1800
G1 E-.8
G1 X88.156 Y152.632 F30000
G1 E.8 F1800

G1 X87.044 Y153.744 E.11697
G1 E-.8
G1 X87.044 Y154.856 F30000
G1 E.8 F1800

G1 X89.268 Y152.632 E.23394
G1 E-.8
G1 X90.38 Y152.632 F30000
G1 E.8 F1800

G1 X87.044 Y155.968 E.35091
G1 E-.8
G1 X87.044 Y157.081 F30000
G1 E.8 F1800

G1 X91.492 Y152.632 E.46788
G1 E-.8
G1 X92.604 Y152.632 F30000
G1 E.8 F1800

G1 X87.044 Y158.193 E.58485
G1 E-.8
M73 P14 R6
G1 X87.044 Y159.305 F30000
G1 E.8 F1800

G1 X93.716 Y152.632 E.70182
G1 E-.8
G1 X94.828 Y152.632 F30000
G1 E.8 F1800

G1 X87.044 Y160.417 E.81879
G1 E-.8
G1 X87.044 Y161.529 F30000
G1 E.8 F1800

G1 X95.941 Y152.632 E.93576
G1 E-.8
G1 X97.053 Y152.632 F30000
G1 E.8 F1800

G1 X87.532 Y162.153 E1.00144
G1 E-.8
G1 X88.644 Y162.153 F30000
G1 E.8 F1800

G1 X98.165 Y152.632 E1.00144
G1 E-.8
G1 X99.277 Y152.632 F30000
G1 E.8 F1800

G1 X89.756 Y162.153 E1.00144
G1 E-.8
G1 X90.868 Y162.153 F30000
G1 E.8 F1800

G1 X100.389 Y152.632 E1.00144
G1 E-.8
M73 P15 R6
G1 X101.501 Y152.632 F30000
G1 E.8 F1800

G1 X91.98 Y162.153 E1.00144
G1 E-.8
G1 X93.092 Y162.153 F30000
G1 E.8 F1800

G1 X102.613 Y152.632 E1.00144
G1 E-.8
G1 X103.725 Y152.632 F30000
G1 E.8 F1800

G1 X94.204 Y162.153 E1.00144
G1 E-.8
G1 X95.316 Y162.153 F30000
G1 E.8 F1800

G1 X104.837 Y152.632 E1.00144
G1 E-.8
G1 X105.949 Y152.632 F30000
G1 E.8 F1800

G1 X96.428 Y162.153 E1.00144
G1 E-.8
G1 X97.54 Y162.153 F30000
G1 E.8 F1800

G1 X107.061 Y152.632 E1.00144
G1 E-.8
G1 X108.173 Y152.632 F30000
G1 E.8 F1800

G1 X98.652 Y162.153 E1.00144
G1 E-.8
M73 P16 R6
G1 X99.764 Y162.153 F30000
G1 E.8 F1800

G1 X109.285 Y152.632 E1.00144
G1 E-.8
M73 P16 R5
G1 X110.397 Y152.632 F30000
G1 E.8 F1800

G1 X100.876 Y162.153 E1.00144
G1 E-.8
G1 X101.989 Y162.153 F30000
G1 E.8 F1800

G1 X111.509 Y152.632 E1.00144
G1 E-.8
G1 X112.622 Y152.632 F30000
G1 E.8 F1800

G1 X103.101 Y162.153 E1.00144
G1 E-.8
G1 X104.213 Y162.153 F30000
G1 E.8 F1800

G1 X113.734 Y152.632 E1.00144
G1 E-.8
G1 X114.846 Y152.632 F30000
G1 E.8 F1800

G1 X105.325 Y162.153 E1.00144
G1 E-.8
G1 X106.437 Y162.153 F30000
G1 E.8 F1800

G1 X115.958 Y152.632 E1.00144
G1 E-.8
M73 P17 R5
G1 X117.07 Y152.632 F30000
G1 E.8 F1800

G1 X107.549 Y162.153 E1.00144
G1 E-.8
G1 X108.661 Y162.153 F30000
G1 E.8 F1800

G1 X118.182 Y152.632 E1.00144
G1 E-.8
G1 X119.294 Y152.632 F30000
G1 E.8 F1800

G1 X109.773 Y162.153 E1.00144
G1 E-.8
G1 X110.885 Y162.153 F30000
G1 E.8 F1800

G1 X120.406 Y152.632 E1.00144
G1 E-.8
G1 X121.518 Y152.632 F30000
G1 E.8 F1800

G1 X111.997 Y162.153 E1.00144
G1 E-.8
G1 X113.109 Y162.153 F30000
G1 E.8 F1800

G1 X122.63 Y152.632 E1.00144
G1 E-.8
G1 X123.742 Y152.632 F30000
G1 E.8 F1800

G1 X114.221 Y162.153 E1.00144
G1 E-.8
M73 P18 R5
G1 X115.333 Y162.153 F30000
G1 E.8 F1800

G1 X124.854 Y152.632 E1.00144
G1 E-.8
G1 X125.966 Y152.632 F30000
G1 E.8 F1800

G1 X116.445 Y162.153 E1.00144
G1 E-.8
G1 X117.557 Y162.153 F30000
G1 E.8 F1800

G1 X127.078 Y152.632 E1.00144
G1 E-.8
G1 X128.19 Y152.632 F30000
G1 E.8 F1800

G1 X118.669 Y162.153 E1.00144
G1 E-.8
G1 X119.782 Y162.153 F30000
G1 E.8 F1800

G1 X129.303 Y152.632 E1.00144
G1 E-.8
G1 X130.415 Y152.632 F30000
G1 E.8 F1800

G1 X120.894 Y162.153 E1.00144
G1 E-.8
G1 X122.006 Y162.153 F30000
G1 E.8 F1800
M73 P19 R5

G1 X131.527 Y152.632 E1.00144
G1 E-.8
G1 X132.639 Y152.632 F30000
G1 E.8 F1800

G1 X123.118 Y162.153 E1.00144
G1 E-.8
G1 X124.23 Y162.153 F30000
G1 E.8 F1800

G1 X133.751 Y152.632 E1.00144
G1 E-.8
G1 X134.863 Y152.632 F30000
G1 E.8 F1800

G1 X125.342 Y162.153 E1.00144
G1 E-.8
G1 X126.454 Y162.153 F30000
G1 E.8 F1800

G1 X135.975 Y152.632 E1.00144
G1 E-.8
G1 X137.087 Y152.632 F30000
G1 E.8 F1800

G1 X127.566 Y162.153 E1.00144
G1 E-.8
G1 X128.678 Y162.153 F30000
G1 E.8 F1800

G1 X138.199 Y152.632 E1.00144
G1 E-.8
M73 P20 R5
G1 X139.311 Y152.632 F30000
G1 E.8 F1800

G1 X129.79 Y162.153 E1.00144
G1 E-.8
G1 X130.902 Y162.153 F30000
G1 E.8 F1800

G1 X140.423 Y152.632 E1.00144
G1 E-.8
G1 X141.535 Y152.632 F30000
G1 E.8 F1800

G1 X132.014 Y162.153 E1.00144
G1 E-.8
G1 X133.126 Y162.153 F30000
G1 E.8 F1800

G1 X142.647 Y152.632 E1.00144
G1 E-.8
G1 X143.759 Y152.632 F30000
G1 E.8 F1800

G1 X134.238 Y162.153 E1.00144
G1 E-.8
G1 X135.35 Y162.153 F30000
G1 E.8 F1800

G1 X144.871 Y152.632 E1.00144
G1 E-.8
G1 X145.984 Y152.632 F30000
G1 E.8 F1800

G1 X136.463 Y162.153 E1.00144
G1 E-.8
M73 P21 R5
G1 X137.575 Y162.153 F30000
G1 E.8 F1800

G1 X147.096 Y152.632 E1.00144
G1 E-.8
G1 X148.208 Y152.632 F30000
G1 E.8 F1800

G1 X138.687 Y162.153 E1.00144
G1 E-.8
G1 X139.799 Y162.153 F30000
G1 E.8 F1800

G1 X149.32 Y152.632 E1.00144
G1 E-.8
G1 X150.432 Y152.632 F30000
G1 E.8 F1800

G1 X140.911 Y162.153 E1.00144
G1 E-.8
G1 X142.023 Y162.153 F30000
G1 E.8 F1800

G1 X151.544 Y152.632 E1.00144
G1 E-.8
G1 X152.656 Y152.632 F30000
G1 E.8 F1800

G1 X143.135 Y162.153 E1.00144
G1 E-.8
G1 X144.247 Y162.153 F30000
G1 E.8 F1800

G1 X153.768 Y152.632 E1.00144
G1 E-.8
M73 P22 R5
G1 X154.88 Y152.632 F30000
G1 E.8 F1800

G1 X145.359 Y162.153 E1.00144
G1 E-.8
G1 X146.471 Y162.153 F30000
G1 E.8 F1800

G1 X155.992 Y152.632 E1.00144
G1 E-.8
G1 X157.104 Y152.632 F30000
G1 E.8 F1800

G1 X147.583 Y162.153 E1.00144
G1 E-.8
G1 X148.695 Y162.153 F30000
G1 E.8 F1800

G1 X158.216 Y152.632 E1.00144
G1 E-.8
G1 X159.328 Y152.632 F30000
G1 E.8 F1800

G1 X149.807 Y162.153 E1.00144
G1 E-.8
G1 X150.919 Y162.153 F30000
G1 E.8 F1800

G1 X160.44 Y152.632 E1.00144
G1 E-.8
G1 X161.552 Y152.632 F30000
G1 E.8 F1800

G1 X152.031 Y162.153 E1.00144
G1 E-.8
M73 P23 R5
G1 X153.144 Y162.153 F30000
G1 E.8 F1800

G1 X162.664 Y152.632 E1.00144
G1 E-.8
G1 X163.777 Y152.632 F30000
G1 E.8 F1800

G1 X154.256 Y162.153 E1.00144
G1 E-.8
G1 X155.368 Y162.153 F30000
G1 E.8 F1800

G1 X164.889 Y152.632 E1.00144
G1 E-.8
G1 X166.001 Y152.632 F30000
G1 E.8 F1800

G1 X156.48 Y162.153 E1.00144
G1 E-.8
G1 X157.592 Y162.153 F30000
G1 E.8 F1800

G1 X167.113 Y152.632 E1.00144
G1 E-.8
G1 X168.225 Y152.632 F30000
G1 E.8 F1800

G1 X158.704 Y162.153 E1.00144
G1 E-.8
G1 X159.816 Y162.153 F30000
G1 E.8 F1800

G1 X169.337 Y152.632 E1.00144
G1 E-.8
M73 P24 R5
G1 X170.449 Y152.632 F30000
G1 E.8 F1800

G1 X160.928 Y162.153 E1.00144
G1 E-.8
G1 X162.04 Y162.153 F30000
G1 E.8 F1800

G1 X171.561 Y152.632 E1.00144
G1 E-.8
G1 X172.673 Y152.632 F30000
G1 E.8 F1800

G1 X163.152 Y162.153 E1.00144
G1 E-.8
G1 X164.264 Y162.153 F30000
G1 E.8 F1800

G1 X173.785 Y152.632 E1.00144
G1 E-.8
G1 X174.897 Y152.632 F30000
G1 E.8 F1800

G1 X165.376 Y162.153 E1.00144
G1 E-.8
G1 X166.488 Y162.153 F30000
G1 E.8 F1800

G1 X176.009 Y152.632 E1.00144
G1 E-.8
G1 X177.121 Y152.632 F30000
G1 E.8 F1800
M73 P25 R5

G1 X167.6 Y162.153 E1.00144
G1 E-.8
G1 X168.712 Y162.153 F30000
G1 E.8 F1800

G1 X178.233 Y152.632 E1.00144
G1 E-.8
G1 X179.345 Y152.632 F30000
G1 E.8 F1800

G1 X169.825 Y162.153 E1.00144
G1 E-.8
G1 X170.937 Y162.153 F30000
G1 E.8 F1800

G1 X180.458 Y152.632 E1.00144
G1 E-.8
G1 X181.57 Y152.632 F30000
G1 E.8 F1800

G1 X172.049 Y162.153 E1.00144
G1 E-.8
G1 X173.161 Y162.153 F30000
G1 E.8 F1800

G1 X182.682 Y152.632 E1.00144
G1 E-.8
G1 X182.956 Y153.47 F30000
G1 E.8 F1800

G1 X174.273 Y162.153 E.91333
G1 E-.8
G1 X175.385 Y162.153 F30000
G1 E.8 F1800
M73 P26 R5

G1 X182.956 Y154.582 E.79636
G1 E-.8
G1 X182.956 Y155.694 F30000
G1 E.8 F1800

G1 X176.497 Y162.153 E.67938
G1 E-.8
G1 X177.609 Y162.153 F30000
G1 E.8 F1800

G1 X182.956 Y156.806 E.56241
G1 E-.8
G1 X182.956 Y157.918 F30000
G1 E.8 F1800

G1 X178.721 Y162.153 E.44544
G1 E-.8
G1 X179.833 Y162.153 F30000
G1 E.8 F1800

G1 X182.956 Y159.03 E.32847
G1 E-.8
G1 X182.956 Y160.142 F30000
G1 E.8 F1800

G1 X180.945 Y162.153 E.2115
G1 E-.8
G1 X182.057 Y162.153 F30000
G1 E.8 F1800

G1 X182.956 Y161.254 E.09453
G1 E-.8
G1 Z.65 F30000
G1 X90.457 Y109.419
G1 Z.25
G1 E.8 F1800
SET_PRESSURE_ADVANCE ADVANCE=0; Override pressure advance value

G1 X109.537 Y128.5 E1.58583

G1 X90.457 Y147.581 E1.58583
M73 P27 R5
G1 E-.8
G1 Z.65 F30000
G1 X91.351 Y109.419
G1 Z.25
G1 E.8 F1800

G1 X110.431 Y128.5 E1.58583

G1 X91.351 Y147.581 E1.58583
G1 E-.8
G1 Z.65 F30000
G1 X92.244 Y109.419
G1 Z.25
M73 P28 R5
G1 E.8 F1800

G1 X111.325 Y128.5 E1.58583

G1 X92.244 Y147.581 E1.58583
G1 E-.8
G1 Z.65 F30000
G1 X94.919 Y109.419
G1 Z.25
G1 E.8 F1800
SET_PRESSURE_ADVANCE ADVANCE=0.005; Override pressure advance value

G1 X114 Y128.5 E1.58583

G1 X94.919 Y147.581 E1.58583
G1 E-.8
M73 P29 R5
G1 Z.65 F30000
G1 X95.813 Y109.419
G1 Z.25
G1 E.8 F1800

G1 X114.894 Y128.5 E1.58583

G1 X95.813 Y147.581 E1.58583
G1 E-.8
G1 Z.65 F30000
G1 X96.707 Y109.419
G1 Z.25
G1 E.8 F1800

G1 X115.788 Y128.5 E1.58583

G1 X96.707 Y147.581 E1.58583
M73 P30 R5
G1 E-.8
M73 P30 R4
G1 Z.65 F30000
G1 X99.382 Y109.419
G1 Z.25
G1 E.8 F1800
SET_PRESSURE_ADVANCE ADVANCE=0.01; Override pressure advance value

G1 X118.463 Y128.5 E1.58583

G1 X99.382 Y147.581 E1.58583
G1 E-.8
G1 Z.65 F30000
G1 X100.276 Y109.419
G1 Z.25
G1 E.8 F1800

G1 X119.357 Y128.5 E1.58583
M73 P31 R4

G1 X100.276 Y147.581 E1.58583
G1 E-.8
G1 Z.65 F30000
G1 X101.17 Y109.419
G1 Z.25
G1 E.8 F1800

G1 X120.251 Y128.5 E1.58583

G1 X101.17 Y147.581 E1.58583
G1 E-.8
M73 P32 R4
G1 Z.65 F30000
G1 X103.845 Y109.419
G1 Z.25
G1 E.8 F1800
SET_PRESSURE_ADVANCE ADVANCE=0.015; Override pressure advance value

G1 X122.926 Y128.5 E1.58583

G1 X103.845 Y147.581 E1.58583
G1 E-.8
G1 Z.65 F30000
G1 X104.739 Y109.419
G1 Z.25
G1 E.8 F1800

G1 X123.819 Y128.5 E1.58583

G1 X104.739 Y147.581 E1.58583
G1 E-.8
M73 P33 R4
G1 Z.65 F30000
G1 X105.633 Y109.419
G1 Z.25
G1 E.8 F1800

G1 X124.713 Y128.5 E1.58583

G1 X105.633 Y147.581 E1.58583
G1 E-.8
G1 Z.65 F30000
G1 X108.308 Y109.419
G1 Z.25
G1 E.8 F1800
SET_PRESSURE_ADVANCE ADVANCE=0.02; Override pressure advance value

G1 X127.388 Y128.5 E1.58583

G1 X108.308 Y147.581 E1.58583
M73 P34 R4
G1 E-.8
G1 Z.65 F30000
G1 X109.202 Y109.419
G1 Z.25
G1 E.8 F1800

G1 X128.282 Y128.5 E1.58583

G1 X109.202 Y147.581 E1.58583
G1 E-.8
G1 Z.65 F30000
M73 P35 R4
G1 X110.096 Y109.419
G1 Z.25
G1 E.8 F1800

G1 X129.176 Y128.5 E1.58583

G1 X110.096 Y147.581 E1.58583
G1 E-.8
G1 Z.65 F30000
G1 X112.771 Y109.419
G1 Z.25
G1 E.8 F1800
SET_PRESSURE_ADVANCE ADVANCE=0.025; Override pressure advance value

G1 X131.851 Y128.5 E1.58583

G1 X112.771 Y147.581 E1.58583
G1 E-.8
M73 P36 R4
G1 Z.65 F30000
G1 X113.665 Y109.419
G1 Z.25
G1 E.8 F1800

G1 X132.745 Y128.5 E1.58583

G1 X113.665 Y147.581 E1.58583
G1 E-.8
G1 Z.65 F30000
G1 X114.558 Y109.419
G1 Z.25
G1 E.8 F1800

G1 X133.639 Y128.5 E1.58583

G1 X114.558 Y147.581 E1.58583
M73 P37 R4
G1 E-.8
G1 Z.65 F30000
G1 X117.233 Y109.419
G1 Z.25
G1 E.8 F1800
SET_PRESSURE_ADVANCE ADVANCE=0.03; Override pressure advance value

G1 X136.314 Y128.5 E1.58583

G1 X117.233 Y147.581 E1.58583
G1 E-.8
G1 Z.65 F30000
G1 X118.127 Y109.419
G1 Z.25
M73 P38 R4
G1 E.8 F1800

G1 X137.208 Y128.5 E1.58583

G1 X118.127 Y147.581 E1.58583
G1 E-.8
G1 Z.65 F30000
G1 X119.021 Y109.419
G1 Z.25
G1 E.8 F1800

G1 X138.102 Y128.5 E1.58583

G1 X119.021 Y147.581 E1.58583
G1 E-.8
M73 P39 R4
G1 Z.65 F30000
G1 X121.696 Y109.419
G1 Z.25
G1 E.8 F1800
SET_PRESSURE_ADVANCE ADVANCE=0.035; Override pressure advance value

G1 X140.777 Y128.5 E1.58583

G1 X121.696 Y147.581 E1.58583
G1 E-.8
G1 Z.65 F30000
G1 X122.59 Y109.419
G1 Z.25
G1 E.8 F1800

G1 X141.671 Y128.5 E1.58583

G1 X122.59 Y147.581 E1.58583
M73 P40 R4
G1 E-.8
G1 Z.65 F30000
G1 X123.484 Y109.419
G1 Z.25
G1 E.8 F1800

G1 X142.565 Y128.5 E1.58583

G1 X123.484 Y147.581 E1.58583
G1 E-.8
G1 Z.65 F30000
G1 X126.159 Y109.419
G1 Z.25
M73 P41 R4
G1 E.8 F1800
SET_PRESSURE_ADVANCE ADVANCE=0.04; Override pressure advance value

G1 X145.24 Y128.5 E1.58583

G1 X126.159 Y147.581 E1.58583
G1 E-.8
G1 Z.65 F30000
G1 X127.053 Y109.419
G1 Z.25
G1 E.8 F1800

G1 X146.133 Y128.5 E1.58583

G1 X127.053 Y147.581 E1.58583
G1 E-.8
M73 P42 R4
G1 Z.65 F30000
G1 X127.947 Y109.419
G1 Z.25
G1 E.8 F1800

G1 X147.027 Y128.5 E1.58583

G1 X127.947 Y147.581 E1.58583
G1 E-.8
G1 Z.65 F30000
G1 X130.622 Y109.419
G1 Z.25
G1 E.8 F1800
SET_PRESSURE_ADVANCE ADVANCE=0.045; Override pressure advance value

G1 X149.702 Y128.5 E1.58583

G1 X130.622 Y147.581 E1.58583
M73 P43 R4
G1 E-.8
G1 Z.65 F30000
G1 X131.516 Y109.419
G1 Z.25
G1 E.8 F1800

G1 X150.596 Y128.5 E1.58583

G1 X131.516 Y147.581 E1.58583
G1 E-.8
G1 Z.65 F30000
G1 X132.41 Y109.419
G1 Z.25
M73 P44 R4
G1 E.8 F1800

G1 X151.49 Y128.5 E1.58583

G1 X132.41 Y147.581 E1.58583
M73 P44 R3
G1 E-.8
G1 Z.65 F30000
G1 X135.085 Y109.419
G1 Z.25
G1 E.8 F1800
SET_PRESSURE_ADVANCE ADVANCE=0.05; Override pressure advance value

G1 X154.165 Y128.5 E1.58583

G1 X135.085 Y147.581 E1.58583
G1 E-.8
M73 P45 R3
G1 Z.65 F30000
G1 X135.979 Y109.419
G1 Z.25
G1 E.8 F1800

G1 X155.059 Y128.5 E1.58583

G1 X135.979 Y147.581 E1.58583
G1 E-.8
G1 Z.65 F30000
G1 X136.872 Y109.419
G1 Z.25
G1 E.8 F1800

G1 X155.953 Y128.5 E1.58583

G1 X136.872 Y147.581 E1.58583
M73 P46 R3
G1 E-.8
G1 Z.65 F30000
G1 X139.547 Y109.419
G1 Z.25
G1 E.8 F1800
SET_PRESSURE_ADVANCE ADVANCE=0.055; Override pressure advance value

G1 X158.628 Y128.5 E1.58583

G1 X139.547 Y147.581 E1.58583
