; HEADER_BLOCK_START
; generated by OrcaSlicer 2.3.1 on 2025-10-31 at 21:22:39
; total layer number: 4
; filament_density: 1.02,1.02,1.02,1.24,1.24,1.24
; filament_diameter: 1.75,1.75,1.75,1.75,1.75,1.75
; max_z_height: 0.85
; HEADER_BLOCK_END

; THUMBNAIL_BLOCK_START

;
; THUMBNAIL_BLOCK_END

; external perimeters extrusion width = 0.62mm
; perimeters extrusion width = 0.62mm
; infill extrusion width = 0.62mm
; solid infill extrusion width = 0.62mm
; top infill extrusion width = 0.62mm
; first layer extrusion width = 0.84mm

; EXECUTABLE_BLOCK_START
EXCLUDE_OBJECT_DEFINE NAME=Orca-PA-Calibration-Test CENTER=0,0 POLYGON=[[25,25],[245,25],[245,245],[25,245],[25,25]]
M73 P0 R3
M106 S0
M106 P2 S0
;TYPE:Custom
PRINT_START BED=100 HOTEND=260 CHAMBER=60 EXTRUDER=0
SET_PRINT_STATS_INFO TOTAL_LAYER=4
M83
M140 S100
M104 S260
M141 S60
G4 P3000
T0
G1 X108.000 Y1 F30000
G0 Z0.25 F600
;G1 E3 F1800
G90
M83
G0 X128 E8  F1320
G0 X133 E.3742  F2200
G0 X138 E.3742  F8800
G0 X143 E.3742  F2200
G0 X148 E.3742  F8800
G0 X153 E.3742  F2200
G91
G1 X1 Z-0.300
G1 X4
M73 P1 R3
G1 Z1 F1200
G90
M400
G1 X108.000 Y2.5 F30000
G0 Z0.25 F600
M83
G0 X128 E10  F1320
G0 X133 E.3742  F2200
G0 X138 E.3742  F8800
G0 X143 E.3742  F2200
G0 X148 E.3742  F8800
G0 X153 E.3742  F2200
G91
G1 X1 Z-0.300
M73 P2 R3
G1 X4
G1 Z1 F1200
G90
M400
G1 Z1 F600
M106 P3 S255
G90
G21
M83 ; use relative distances for extrusion
; Filament gcode
SET_PRESSURE_ADVANCE ADVANCE=0.022; Override pressure advance value
T0
M106 P2 S0
;LAYER_CHANGE
;Z:0.25
;HEIGHT:0.25
;BEFORE_LAYER_CHANGE
;0.25
G92 E0

 ; timelapse without wipe tower
TIMELAPSE_TAKE_FRAME

G92 E0
SET_PRINT_STATS_INFO CURRENT_LAYER=1
;_SET_FAN_SPEED_CHANGING_LAYER
SET_VELOCITY_LIMIT ACCEL=500
;CUSTOM_GCODE
; start pressure advance pattern for layer
G1 E-.8 F1800
G1 X107.225 Y107.287 F30000
G1 E.8 F1800
G1 Z.25 F30000
SET_PRESSURE_ADVANCE ADVANCE=0; Override pressure advance value
G1 E-.8 F1800
G1 X107.225 Y107.287 F30000
G1 E.8 F1800

G1 X107.225 Y149.713 E3.19017

G1 X162.775 Y149.713 E4.17693
M73 P3 R3

G1 X162.775 Y107.287 E3.19017
M73 P4 R3

G1 X107.225 Y107.287 E4.17693
M73 P5 R3
G1 E-.8
G1 X108.012 Y108.073 F30000
G1 E.8 F1800
M73 P6 R3

G1 X108.012 Y148.927 E3.07191

G1 X161.988 Y148.927 E4.05868

G1 X161.988 Y108.073 E3.07191
M73 P7 R3

G1 X108.012 Y108.073 E4.05868
M73 P8 R3
G1 E-.8
M73 P9 R3
G1 X108.798 Y108.859 F30000
G1 E.8 F1800

G1 X108.798 Y148.141 E2.95366

G1 X161.202 Y148.141 E3.94042

G1 X161.202 Y108.859 E2.95366
M73 P10 R3

G1 X108.798 Y108.859 E3.94042
M73 P11 R3
G1 E-.8
M73 P12 R2
G1 X107.225 Y150.5 F30000
G1 E.8 F1800

G1 X107.225 Y164.286 E1.03664

G1 X162.775 Y164.286 E4.17693

G1 X162.775 Y150.5 E1.03664
M73 P13 R2

G1 X107.225 Y150.5 E4.17693
M73 P14 R2
G1 E-.8
G1 X108.012 Y151.286 F30000
G1 E.8 F1800
M73 P15 R2

G1 X108.012 Y163.5 E.91838

G1 X161.988 Y163.5 E4.05868

G1 X161.988 Y151.286 E.91838
M73 P16 R2

G1 X108.012 Y151.286 E4.05868
G1 E-.8
M73 P17 R2
G1 X108.798 Y152.072 F30000
G1 E.8 F1800

G1 X108.798 Y162.713 E.80013

G1 X161.202 Y162.713 E3.94042

G1 X161.202 Y152.072 E.80013
M73 P18 R2

G1 X108.798 Y152.072 E3.94042
G1 E-.8
M73 P19 R2
G1 X109.358 Y152.632 F30000
G1 E.8 F1800
G1 E-.8
G1 X110.47 Y152.632 F30000
G1 E.8 F1800

G1 X109.358 Y153.744 E.11826
G1 E-.8
G1 X109.358 Y154.856 F30000
G1 E.8 F1800

G1 X111.582 Y152.632 E.23651
G1 E-.8
G1 X112.694 Y152.632 F30000
G1 E.8 F1800

G1 X109.358 Y155.968 E.35477
G1 E-.8
G1 X109.358 Y157.081 F30000
G1 E.8 F1800

G1 X113.806 Y152.632 E.47302
G1 E-.8
M73 P20 R2
G1 X114.918 Y152.632 F30000
G1 E.8 F1800

G1 X109.358 Y158.193 E.59128
G1 E-.8
G1 X109.358 Y159.305 F30000
G1 E.8 F1800

G1 X116.03 Y152.632 E.70954
G1 E-.8
G1 X117.142 Y152.632 F30000
G1 E.8 F1800

G1 X109.358 Y160.417 E.82779
G1 E-.8
G1 X109.358 Y161.529 F30000
G1 E.8 F1800

G1 X118.254 Y152.632 E.94605
G1 E-.8
M73 P21 R2
G1 X119.367 Y152.632 F30000
G1 E.8 F1800

G1 X109.846 Y162.153 E1.01245
G1 E-.8
G1 X110.958 Y162.153 F30000
G1 E.8 F1800

G1 X120.479 Y152.632 E1.01245
G1 E-.8
G1 X121.591 Y152.632 F30000
G1 E.8 F1800

G1 X112.07 Y162.153 E1.01245
G1 E-.8
M73 P22 R2
G1 X113.182 Y162.153 F30000
G1 E.8 F1800

G1 X122.703 Y152.632 E1.01245
G1 E-.8
G1 X123.815 Y152.632 F30000
G1 E.8 F1800

G1 X114.294 Y162.153 E1.01245
G1 E-.8
G1 X115.406 Y162.153 F30000
G1 E.8 F1800

G1 X124.927 Y152.632 E1.01245
G1 E-.8
G1 X126.039 Y152.632 F30000
G1 E.8 F1800
M73 P23 R2

G1 X116.518 Y162.153 E1.01245
G1 E-.8
G1 X117.63 Y162.153 F30000
G1 E.8 F1800

G1 X127.151 Y152.632 E1.01245
G1 E-.8
G1 X128.263 Y152.632 F30000
G1 E.8 F1800

G1 X118.742 Y162.153 E1.01245
G1 E-.8
G1 X119.854 Y162.153 F30000
G1 E.8 F1800

G1 X129.375 Y152.632 E1.01245
G1 E-.8
M73 P24 R2
G1 X130.487 Y152.632 F30000
G1 E.8 F1800

G1 X120.966 Y162.153 E1.01245
G1 E-.8
G1 X122.078 Y162.153 F30000
G1 E.8 F1800

G1 X131.599 Y152.632 E1.01245
G1 E-.8
G1 X132.711 Y152.632 F30000
G1 E.8 F1800

G1 X123.19 Y162.153 E1.01245
G1 E-.8
M73 P25 R2
G1 X124.302 Y162.153 F30000
G1 E.8 F1800

G1 X133.823 Y152.632 E1.01245
G1 E-.8
G1 X134.935 Y152.632 F30000
G1 E.8 F1800

G1 X125.415 Y162.153 E1.01245
G1 E-.8
G1 X126.527 Y162.153 F30000
G1 E.8 F1800

G1 X136.048 Y152.632 E1.01245
G1 E-.8
M73 P26 R2
G1 X137.16 Y152.632 F30000
G1 E.8 F1800

G1 X127.639 Y162.153 E1.01245
G1 E-.8
G1 X128.751 Y162.153 F30000
G1 E.8 F1800

G1 X138.272 Y152.632 E1.01245
G1 E-.8
G1 X139.384 Y152.632 F30000
G1 E.8 F1800

G1 X129.863 Y162.153 E1.01245
G1 E-.8
G1 X130.975 Y162.153 F30000
G1 E.8 F1800
M73 P27 R2

G1 X140.496 Y152.632 E1.01245
G1 E-.8
G1 X141.608 Y152.632 F30000
G1 E.8 F1800

G1 X132.087 Y162.153 E1.01245
G1 E-.8
G1 X133.199 Y162.153 F30000
G1 E.8 F1800

G1 X142.72 Y152.632 E1.01245
G1 E-.8
G1 X143.832 Y152.632 F30000
G1 E.8 F1800

G1 X134.311 Y162.153 E1.01245
G1 E-.8
M73 P28 R2
G1 X135.423 Y162.153 F30000
G1 E.8 F1800

G1 X144.944 Y152.632 E1.01245
G1 E-.8
G1 X146.056 Y152.632 F30000
G1 E.8 F1800

G1 X136.535 Y162.153 E1.01245
G1 E-.8
G1 X137.647 Y162.153 F30000
G1 E.8 F1800

G1 X147.168 Y152.632 E1.01245
G1 E-.8
M73 P29 R2
G1 X148.28 Y152.632 F30000
G1 E.8 F1800

G1 X138.759 Y162.153 E1.01245
G1 E-.8
G1 X139.871 Y162.153 F30000
G1 E.8 F1800

G1 X149.392 Y152.632 E1.01245
G1 E-.8
G1 X150.504 Y152.632 F30000
G1 E.8 F1800

G1 X140.983 Y162.153 E1.01245
G1 E-.8
M73 P30 R2
G1 X142.096 Y162.153 F30000
G1 E.8 F1800

G1 X151.616 Y152.632 E1.01245
G1 E-.8
G1 X152.729 Y152.632 F30000
G1 E.8 F1800

G1 X143.208 Y162.153 E1.01245
G1 E-.8
G1 X144.32 Y162.153 F30000
G1 E.8 F1800

G1 X153.841 Y152.632 E1.01245
G1 E-.8
G1 X154.953 Y152.632 F30000
G1 E.8 F1800
M73 P31 R2

G1 X145.432 Y162.153 E1.01245
G1 E-.8
G1 X146.544 Y162.153 F30000
G1 E.8 F1800

G1 X156.065 Y152.632 E1.01245
G1 E-.8
G1 X157.177 Y152.632 F30000
G1 E.8 F1800

G1 X147.656 Y162.153 E1.01245
G1 E-.8
G1 X148.768 Y162.153 F30000
G1 E.8 F1800

G1 X158.289 Y152.632 E1.01245
G1 E-.8
M73 P32 R2
G1 X159.401 Y152.632 F30000
G1 E.8 F1800

G1 X149.88 Y162.153 E1.01245
G1 E-.8
G1 X150.992 Y162.153 F30000
G1 E.8 F1800

G1 X160.513 Y152.632 E1.01245
G1 E-.8
G1 X160.642 Y153.615 F30000
G1 E.8 F1800

G1 X152.104 Y162.153 E.90791
G1 E-.8
M73 P33 R2
G1 X153.216 Y162.153 F30000
G1 E.8 F1800

G1 X160.642 Y154.727 E.78966
G1 E-.8
G1 X160.642 Y155.839 F30000
G1 E.8 F1800

G1 X154.328 Y162.153 E.6714
G1 E-.8
G1 X155.44 Y162.153 F30000
G1 E.8 F1800

G1 X160.642 Y156.951 E.55315
G1 E-.8
G1 X160.642 Y158.064 F30000
G1 E.8 F1800

G1 X156.552 Y162.153 E.43489
G1 E-.8
G1 X157.664 Y162.153 F30000
M73 P34 R2
G1 E.8 F1800

G1 X160.642 Y159.176 E.31664
G1 E-.8
G1 X160.642 Y160.288 F30000
G1 E.8 F1800

G1 X158.777 Y162.153 E.19838
G1 E-.8
G1 X159.889 Y162.153 F30000
G1 E.8 F1800

G1 X160.642 Y161.4 E.08012
G1 E-.8
G1 Z.65 F30000
G1 X112.771 Y109.419
G1 Z.25
G1 E.8 F1800
SET_PRESSURE_ADVANCE ADVANCE=0; Override pressure advance value

G1 X131.851 Y128.5 E1.60326

G1 X112.771 Y147.581 E1.60326
M73 P35 R2
G1 E-.8
G1 Z.65 F30000
G1 X113.665 Y109.419
G1 Z.25
M73 P36 R2
G1 E.8 F1800

G1 X132.745 Y128.5 E1.60326

G1 X113.665 Y147.581 E1.60326
G1 E-.8
G1 Z.65 F30000
G1 X114.558 Y109.419
M73 P37 R2
G1 Z.25
G1 E.8 F1800

G1 X133.639 Y128.5 E1.60326

G1 X114.558 Y147.581 E1.60326
G1 E-.8
M73 P38 R2
G1 Z.65 F30000
G1 X117.233 Y109.419
G1 Z.25
G1 E.8 F1800
SET_PRESSURE_ADVANCE ADVANCE=0.005; Override pressure advance value

G1 X136.314 Y128.5 E1.60326

G1 X117.233 Y147.581 E1.60326
M73 P39 R2
G1 E-.8
G1 Z.65 F30000
G1 X118.127 Y109.419
G1 Z.25
G1 E.8 F1800

G1 X137.208 Y128.5 E1.60326

G1 X118.127 Y147.581 E1.60326
M73 P40 R2
G1 E-.8
G1 Z.65 F30000
G1 X119.021 Y109.419
G1 Z.25
M73 P41 R2
G1 E.8 F1800

G1 X138.102 Y128.5 E1.60326

G1 X119.021 Y147.581 E1.60326
M73 P41 R1
G1 E-.8
G1 Z.65 F30000
G1 X121.696 Y109.419
G1 Z.25
M73 P42 R1
G1 E.8 F1800
SET_PRESSURE_ADVANCE ADVANCE=0.01; Override pressure advance value

G1 X140.777 Y128.5 E1.60326

G1 X121.696 Y147.581 E1.60326
G1 E-.8
M73 P43 R1
G1 Z.65 F30000
G1 X122.59 Y109.419
G1 Z.25
G1 E.8 F1800

G1 X141.671 Y128.5 E1.60326

G1 X122.59 Y147.581 E1.60326
G1 E-.8
M73 P44 R1
G1 Z.65 F30000
G1 X123.484 Y109.419
G1 Z.25
G1 E.8 F1800

G1 X142.565 Y128.5 E1.60326

G1 X123.484 Y147.581 E1.60326
M73 P45 R1
G1 E-.8
G1 Z.65 F30000
G1 X126.159 Y109.419
G1 Z.25
G1 E.8 F1800
M73 P46 R1
SET_PRESSURE_ADVANCE ADVANCE=0.015; Override pressure advance value

G1 X145.24 Y128.5 E1.60326

G1 X126.159 Y147.581 E1.60326
G1 E-.8
G1 Z.65 F30000
G1 X127.053 Y109.419
G1 Z.25
M73 P47 R1
G1 E.8 F1800

G1 X146.133 Y128.5 E1.60326

G1 X127.053 Y147.581 E1.60326
G1 E-.8
M73 P48 R1
G1 Z.65 F30000
G1 X127.947 Y109.419
G1 Z.25
G1 E.8 F1800

G1 X147.027 Y128.5 E1.60326

G1 X127.947 Y147.581 E1.60326
G1 E-.8
M73 P49 R1
G1 Z.65 F30000
G1 X130.622 Y109.419
G1 Z.25
G1 E.8 F1800
SET_PRESSURE_ADVANCE ADVANCE=0.02; Override pressure advance value

G1 X149.702 Y128.5 E1.60326

G1 X130.622 Y147.581 E1.60326
M73 P50 R1
G1 E-.8
G1 Z.65 F30000
G1 X131.516 Y109.419
G1 Z.25
G1 E.8 F1800
M73 P51 R1

G1 X150.596 Y128.5 E1.60326

G1 X131.516 Y147.581 E1.60326
G1 E-.8
G1 Z.65 F30000
G1 X132.41 Y109.419
G1 Z.25
M73 P52 R1
G1 E.8 F1800

G1 X151.49 Y128.5 E1.60326

G1 X132.41 Y147.581 E1.60326
G1 E-.8
M73 P53 R1
G1 Z.65 F30000
G1 X135.085 Y109.419
G1 Z.25
G1 E.8 F1800
SET_PRESSURE_ADVANCE ADVANCE=0.025; Override pressure advance value

G1 X154.165 Y128.5 E1.60326

G1 X135.085 Y147.581 E1.60326
G1 E-.8
M73 P54 R1
G1 Z.65 F30000
G1 X135.979 Y109.419
G1 Z.25
G1 E.8 F1800

G1 X155.059 Y128.5 E1.60326

G1 X135.979 Y147.581 E1.60326
M73 P55 R1
G1 E-.8
G1 Z.65 F30000
G1 X136.872 Y109.419
G1 Z.25
G1 E.8 F1800

G1 X155.953 Y128.5 E1.60326
M73 P56 R1

G1 X136.872 Y147.581 E1.60326
G1 E-.8
G1 Z.65 F30000
G1 X139.547 Y109.419
G1 Z.25
M73 P57 R1
G1 E.8 F1800
SET_PRESSURE_ADVANCE ADVANCE=0.03; Override pressure advance value

G1 X158.628 Y128.5 E1.60326

G1 X139.547 Y147.581 E1.60326
G1 E-.8
M73 P58 R1
G1 Z.65 F30000
G1 X140.441 Y109.419
G1 Z.25
G1 E.8 F1800

G1 X159.522 Y128.5 E1.60326

G1 X140.441 Y147.581 E1.60326
G1 E-.8
M73 P59 R1
G1 Z.65 F30000
G1 X141.335 Y109.419
G1 Z.25
G1 E.8 F1800

G1 X160.416 Y128.5 E1.60326

G1 X141.335 Y147.581 E1.60326
M73 P60 R1
G1 E-.8
G1 Z.65 F30000
G1 X112.771 Y109.419
G1 Z.25
G1 E.8 F1800
M73 P61 R1
; end pressure advance pattern for layer

; printing object pa_pattern_300_5000 id:15 copy 0
G1 E-.8
EXCLUDE_OBJECT_START NAME=pa_pattern_300_5000_id_15_copy_0
G1 X111.3 Y128.875 F30000
G1 Z.65
G1 Z.25
G1 E.8 F1800
;TYPE:Inner wall
;WIDTH:0.804127
G1 F619
G1 X110.55 Y128.875 E.05386
G1 X110.55 Y128.125 E.05386
G1 X111.3 Y128.125 E.05386
G1 X111.3 Y128.815 E.04955
G1 E-.8 F1800
G1 X112.069 Y129.644 Z.65 F30000
G1 Z.25
G1 E.8 F1800
;WIDTH:0.839999
G1 F619
G1 X109.782 Y129.644 E.17199
G1 X109.782 Y127.356 E.17199
G1 X112.069 Y127.356 E.17199
G1 X112.069 Y129.584 E.16748
G1 E-.8 F1800
G1 X112.855 Y130.43 Z.65 F30000
G1 Z.25
M73 P62 R1
G1 E.8 F1800
;TYPE:Outer wall
G1 F619
G1 X108.995 Y130.43 E.29024
G1 X108.995 Y126.57 E.29024
G1 X112.855 Y126.57 E.29024
G1 X112.855 Y130.37 E.28573
; stop printing object pa_pattern_300_5000 id:15 copy 0
;LAYER_CHANGE
;Z:0.45
;HEIGHT:0.2
;BEFORE_LAYER_CHANGE
;0.45
G92 E0

EXCLUDE_OBJECT_END NAME=pa_pattern_300_5000_id_15_copy_0
 ; timelapse without wipe tower
TIMELAPSE_TAKE_FRAME

G92 E0
SET_PRINT_STATS_INFO CURRENT_LAYER=2
;_SET_FAN_SPEED_CHANGING_LAYER
SET_VELOCITY_LIMIT ACCEL=10000
M140 S100 ; set bed temperature
;CUSTOM_GCODE
; start pressure advance pattern for layer
G1 Z.45 F30000
SET_PRESSURE_ADVANCE ADVANCE=0; Override pressure advance value
G1 F30
G1 E-.8 F1800
G1 X109.641 Y151.388 F30000
G1 E.8 F1800
G1 X109.641 Y153.388 E.09671
G1 X113.641 Y153.388 E.19341
G1 X113.641 Y151.388 E.09671
G1 X109.979 Y151.388 E.19341
M73 P63 R1
G1 F30
G1 E-.8 F1800
G1 X118.567 Y151.388 F30000
G1 E.8 F1800
G1 X118.567 Y153.388 E.09671
G1 X122.567 Y153.388 E.19341
G1 X122.567 Y151.388 E.09671
G1 X118.904 Y151.388 E.19341
G1 E-.8
G1 X122.567 Y155.388 F30000
G1 E.8 F1800
G1 X121.567 Y155.388 E.09671
G1 E-.8
G1 X118.567 Y157.388 F30000
G1 E.8 F1800
G1 X118.567 Y159.388 E.09671
G1 X122.567 Y159.388 E.19341
G1 X122.567 Y157.388 E.09671
G1 X118.904 Y157.388 E.19341
G1 E-.8
G1 X118.567 Y161.388 F30000
G1 E.8 F1800
G1 X122.567 Y161.388 E.19341
G1 F30
G1 E-.8 F1800
G1 X127.492 Y151.388 F30000
G1 E.8 F1800
G1 X127.492 Y153.388 E.09671
G1 X131.492 Y153.388 E.19341
G1 X131.492 Y151.388 E.09671
G1 X127.83 Y151.388 E.19341
G1 E-.8
M73 P64 R1
G1 X131.492 Y155.388 F30000
G1 E.8 F1800
G1 X130.492 Y155.388 E.09671
G1 E-.8
G1 X127.492 Y157.388 F30000
G1 E.8 F1800
G1 X127.492 Y159.388 E.09671
G1 X131.492 Y159.388 E.19341
G1 X131.492 Y157.388 E.09671
G1 X127.83 Y157.388 E.19341
G1 E-.8
G1 X127.492 Y160.388 F30000
G1 E.8 F1800
G1 X127.492 Y162.388 E.09671
G1 X129.492 Y162.388 E.09671
G1 X129.492 Y160.388 E.09671
G1 X131.492 Y160.388 E.09671
G1 X131.492 Y162.388 E.09671
G1 F30
G1 E-.8 F1800
G1 X136.418 Y151.388 F30000
G1 E.8 F1800
G1 X136.418 Y153.388 E.09671
G1 X140.418 Y153.388 E.19341
G1 X140.418 Y151.388 E.09671
G1 X136.756 Y151.388 E.19341
G1 E-.8
G1 X140.418 Y155.388 F30000
G1 E.8 F1800
G1 X139.418 Y155.388 E.09671
G1 E-.8
G1 X136.418 Y157.388 F30000
G1 E.8 F1800
G1 X136.418 Y159.388 E.09671
G1 X140.418 Y159.388 E.19341
G1 X140.418 Y157.388 E.09671
M73 P65 R1
G1 X136.756 Y157.388 E.19341
G1 E-.8
G1 X136.418 Y160.388 F30000
G1 E.8 F1800
G1 X136.418 Y162.388 E.09671
G1 X140.418 Y162.388 E.19341
G1 X140.418 Y160.388 E.09671
G1 E-.8
G1 X138.418 Y162.726 F30000
G1 E.8 F1800
G1 X138.418 Y160.388 E.09671
G1 F30
G1 E-.8 F1800
G1 X149.806 Y151.388 F30000
G1 E.8 F1800
G1 X149.806 Y153.388 E.09671
G1 X153.806 Y153.388 E.19341
G1 X153.806 Y151.388 E.09671
G1 E-.8
G1 X151.806 Y153.726 F30000
G1 E.8 F1800
G1 X151.806 Y151.388 E.09671
G1 E-.8
G1 X149.806 Y154.388 F30000
G1 E.8 F1800
G1 X151.806 Y154.388 E.09671
G1 X151.806 Y156.388 E.09671
G1 E-.8
G1 X149.806 Y156.388 F30000
G1 E.8 F1800
G1 X153.806 Y156.388 E.19341
G1 E-.8
G1 X153.806 Y158.388 F30000
G1 E.8 F1800
G1 X152.806 Y158.388 E.09671
G1 E-.8
G1 X153.806 Y162.388 F30000
G1 E.8 F1800
G1 X149.806 Y162.388 E.19341
G1 X149.806 Y160.388 E.09671
M73 P66 R1
G1 X151.806 Y160.388 E.09671
G1 X151.806 Y162.388 E.09671
G1 F30
G1 E-.8 F1800
G1 X158.732 Y153.388 F30000
G1 E.8 F1800
G1 X158.732 Y151.388 E.09671
G1 X160.732 Y151.388 E.09671
G1 X160.732 Y153.388 E.09671
G1 X162.732 Y153.388 E.09671
G1 X162.732 Y151.388 E.09671
G1 E-.8
G1 X158.732 Y154.388 F30000
G1 E.8 F1800
G1 X158.732 Y156.388 E.09671
G1 X162.732 Y156.388 E.19341
G1 X162.732 Y154.388 E.09671
G1 X159.07 Y154.388 E.19341
G1 E-.8
G1 X158.732 Y157.388 F30000
G1 E.8 F1800
G1 X158.732 Y159.388 E.09671
G1 X162.732 Y159.388 E.19341
G1 X162.732 Y157.388 E.09671
G1 X159.07 Y157.388 E.19341
G1 E-.8
G1 X158.732 Y160.388 F30000
G1 E.8 F1800
G1 X158.732 Y162.388 E.09671
G1 X162.732 Y162.388 E.19341
G1 X162.732 Y160.388 E.09671
M73 P67 R1
G1 X159.07 Y160.388 E.19341
SET_VELOCITY_LIMIT ACCEL=4999
G1 E-.8
G1 Z.85 F30000
G1 X107.225 Y107.287
G1 Z.45
G1 E.8 F1800
G1 F17940
G1 X107.225 Y149.713 E2.05145
SET_VELOCITY_LIMIT ACCEL=5000
G1 E-.8 F1800
G1 Z.85 F30000
G1 X110.638 Y107.287
G1 Z.45
G1 E.8 F1800
