; HEADER_BLOCK_START
; generated by OrcaSlicer 2.3.1 on 2025-10-29 at 23:33:21
; total layer number: 6
; filament_density: 1.02,1.02,1.02,1.24,1.24,1.24
; filament_diameter: 1.75,1.75,1.75,1.75,1.75,1.75
; max_z_height: 1.70
; HEADER_BLOCK_END

; THUMBNAIL_BLOCK_START

;
; THUMBNAIL_BLOCK_END

; external perimeters extrusion width = 0.62mm
; perimeters extrusion width = 0.62mm
; infill extrusion width = 0.62mm
; solid infill extrusion width = 0.62mm
; top infill extrusion width = 0.62mm
; first layer extrusion width = 0.62mm

; EXECUTABLE_BLOCK_START
EXCLUDE_OBJECT_DEFINE NAME=Part_Studio_1_-_Part_1_16_.step_id_0_copy_0 CENTER=135,135 POLYGON=[[115,119],[115.006,118.783],[115.023,118.568],[115.053,118.353],[115.094,118.14],[115.146,117.93],[115.209,117.723],[115.284,117.519],[115.37,117.32],[115.466,117.126],[115.573,116.938],[115.689,116.755],[115.816,116.579],[115.951,116.41],[116.096,116.249],[116.249,116.096],[116.41,115.951],[116.579,115.816],[116.755,115.689],[116.938,115.573],[117.126,115.466],[117.32,115.37],[117.519,115.284],[117.723,115.209],[117.93,115.146],[118.14,115.094],[118.353,115.053],[118.568,115.023],[118.783,115.006],[119,115],[151,115],[151.217,115.006],[151.432,115.023],[151.647,115.053],[151.86,115.094],[152.07,115.146],[152.277,115.209],[152.481,115.284],[152.68,115.37],[152.874,115.466],[153.062,115.573],[153.245,115.689],[153.421,115.816],[153.59,115.951],[153.751,116.096],[153.904,116.249],[154.049,116.41],[154.184,116.579],[154.311,116.755],[154.427,116.938],[154.534,117.126],[154.63,117.32],[154.716,117.519],[154.791,117.723],[154.854,117.93],[154.906,118.14],[154.947,118.353],[154.977,118.568],[154.994,118.783],[155,119],[155,151],[154.994,151.217],[154.977,151.432],[154.947,151.647],[154.906,151.86],[154.854,152.07],[154.791,152.277],[154.716,152.481],[154.63,152.68],[154.534,152.874],[154.427,153.062],[154.311,153.245],[154.184,153.421],[154.049,153.59],[153.904,153.751],[153.751,153.904],[153.59,154.049],[153.421,154.184],[153.245,154.311],[153.062,154.427],[152.874,154.534],[152.68,154.63],[152.481,154.716],[152.277,154.791],[152.07,154.854],[151.86,154.906],[151.647,154.947],[151.432,154.977],[151.217,154.994],[151,155],[119,155],[118.783,154.994],[118.568,154.977],[118.353,154.947],[118.14,154.906],[117.93,154.854],[117.723,154.791],[117.519,154.716],[117.32,154.63],[117.126,154.534],[116.938,154.427],[116.755,154.311],[116.579,154.184],[116.41,154.049],[116.249,153.904],[116.096,153.751],[115.951,153.59],[115.816,153.421],[115.689,153.245],[115.573,153.062],[115.466,152.874],[115.37,152.68],[115.284,152.481],[115.209,152.277],[115.146,152.07],[115.094,151.86],[115.053,151.647],[115.023,151.432],[115.006,151.217],[115,151],[115,119]]
M73 P0 R4
M106 S0
M106 P2 S0
;TYPE:Custom
PRINT_START BED=100 HOTEND=260 CHAMBER=60 EXTRUDER=0
SET_PRINT_STATS_INFO TOTAL_LAYER=6
M83
M140 S100
M104 S260
M141 S60
G4 P3000
T0
G1 X108.000 Y1 F30000
G0 Z0.2 F600
;G1 E3 F1800
G90
M83
G0 X128 E8  F1320
G0 X133 E.3742  F2200
G0 X138 E.3742  F8800
G0 X143 E.3742  F2200
G0 X148 E.3742  F8800
G0 X153 E.3742  F2200
G91
G1 X1 Z-0.300
G1 X4
G1 Z1 F1200
G90
M400
G1 X108.000 Y2.5 F30000
G0 Z0.2 F600
M83
G0 X128 E10  F1320
G0 X133 E.3742  F2200
M73 P1 R4
G0 X138 E.3742  F8800
G0 X143 E.3742  F2200
G0 X148 E.3742  F8800
G0 X153 E.3742  F2200
G91
G1 X1 Z-0.300
G1 X4
G1 Z1 F1200
G90
M400
G1 Z1 F600
M106 P3 S255
G90
G21
M83 ; use relative distances for extrusion
; Filament gcode
SET_PRESSURE_ADVANCE ADVANCE=0.022; Override pressure advance value
T0
M106 P2 S0
;LAYER_CHANGE
;Z:0.2
;HEIGHT:0.2
;BEFORE_LAYER_CHANGE
;0.2
G92 E0

 ; timelapse without wipe tower
TIMELAPSE_TAKE_FRAME

G92 E0
SET_PRINT_STATS_INFO CURRENT_LAYER=1
;_SET_FAN_SPEED_CHANGING_LAYER
SET_VELOCITY_LIMIT ACCEL=500
G1 E-.8 F1800
G1 X114.545 Y114.612 F30000
G1 Z.6
G1 Z.2
G1 E.8 F1800
;TYPE:Skirt
;WIDTH:0.62
G1 F3000
G1 X115.146 Y114.032 E.03686
G1 X116.11 Y113.416 E.05051
G1 X117.258 Y112.958 E.05458
G1 X118.598 Y112.725 E.06002
G1 X151.012 Y112.712 E1.43095
G1 X152.078 Y112.805 E.04725
M73 P2 R4
G1 X153.27 Y113.136 E.05458
G1 X154.204 Y113.59 E.04587
G1 X155.118 Y114.248 E.04969
G1 X155.968 Y115.145 E.05458
G1 X156.526 Y116 E.04506
G1 X156.978 Y117.051 E.05051
G1 X157.244 Y118.259 E.05458
G1 X157.282 Y151.279 E1.45769
G1 X157.154 Y152.291 E.04506
G1 X156.864 Y153.27 E.04506
G1 X156.423 Y154.183 E.04477
G1 X155.832 Y155.023 E.04534
G1 X154.854 Y155.968 E.06003
G1 X153.696 Y156.681 E.06003
G1 X152.412 Y157.127 E.06003
G1 X151.062 Y157.288 E.06002
G1 X118.721 Y157.282 E1.42769
G1 X117.709 Y157.154 E.04506
G1 X116.73 Y156.864 E.04506
G1 X115.811 Y156.42 E.04506
G1 X114.977 Y155.832 E.04506
G1 X114.032 Y154.854 E.06003
G1 X113.319 Y153.696 E.06003
G1 X112.873 Y152.412 E.06003
G1 X112.712 Y151.062 E.06002
G1 X112.718 Y118.721 E1.42769
G1 X112.846 Y117.709 E.04506
G1 X113.134 Y116.736 E.04477
G1 X113.58 Y115.811 E.04534
G1 X114.168 Y114.977 E.04506
G1 X114.502 Y114.654 E.02052
; printing object Part Studio 1 - Part 1 (16).step id:0 copy 0
G1 E-.8 F1800
EXCLUDE_OBJECT_START NAME=Part_Studio_1_-_Part_1_16_.step_id_0_copy_0
G1 X122.113 Y115.225 Z.6 F30000
M73 P3 R4
G1 X151.589 Y117.439 Z.6
G1 Z.2
G1 E.8 F1800
;TYPE:Inner wall
;WIDTH:0.695109
G1 F3000
G1 X152.004 Y117.684 E.02402
G1 X152.391 Y118.094 E.02815
;WIDTH:0.693464
G1 X152.611 Y118.519 E.02381
;WIDTH:0.67965
G1 X152.747 Y119.1 E.02906
;WIDTH:0.645414
G1 X152.788 Y119.807 E.03267
;WIDTH:0.619406
G1 X152.788 Y150.512 E1.3541
;WIDTH:0.645751
G1 X152.722 Y150.921 E.0191
;WIDTH:0.672095
G1 X152.656 Y151.33 E.01993
;WIDTH:0.686908
G1 X152.526 Y151.667 E.01783
;WIDTH:0.694688
G1 X152.294 Y152.028 E.02136
G1 X151.906 Y152.391 E.02649
;WIDTH:0.693464
G1 X151.481 Y152.611 E.02381
;WIDTH:0.67965
G1 X150.9 Y152.747 E.02906
;WIDTH:0.645414
G1 X150.193 Y152.788 E.03267
;WIDTH:0.619406
G1 X119.807 Y152.788 E1.34002
;WIDTH:0.643178
G1 X119.131 Y152.751 E.03111
;WIDTH:0.672095
G1 X118.67 Y152.656 E.02263
;WIDTH:0.686909
G1 X118.333 Y152.526 E.01783
;WIDTH:0.694688
G1 X117.972 Y152.294 E.02137
G1 X117.609 Y151.906 E.02649
;WIDTH:0.693464
G1 X117.389 Y151.481 E.02381
;WIDTH:0.67965
G1 X117.253 Y150.9 E.02906
;WIDTH:0.645414
G1 X117.212 Y150.193 E.03267
;WIDTH:0.619406
G1 X117.212 Y119.807 E1.34002
;WIDTH:0.643178
G1 X117.249 Y119.131 E.03111
;WIDTH:0.672094
G1 X117.344 Y118.67 E.02263
;WIDTH:0.686909
G1 X117.486 Y118.299 E.01955
;WIDTH:0.698105
G1 X117.792 Y117.866 E.0266
M73 P4 R4
G1 X118.297 Y117.486 E.03169
;WIDTH:0.68655
G1 X118.574 Y117.368 E.01479
;WIDTH:0.677925
G1 X119.067 Y117.257 E.02457
;WIDTH:0.647864
G1 X119.807 Y117.212 E.03432
;WIDTH:0.619372
G1 X150.193 Y117.215 E1.33996
;WIDTH:0.652974
G1 X151.062 Y117.275 E.04062
;WIDTH:0.680677
G1 X151.532 Y117.421 E.02403
G1 X151.665 Y116.788 F30000
;WIDTH:0.675148
G1 F3000
G1 X152.098 Y116.97 E.02272
;WIDTH:0.677143
G1 X152.552 Y117.316 E.0277
G1 X152.912 Y117.719 E.02622
;WIDTH:0.676672
G1 X153.163 Y118.197 E.02616
;WIDTH:0.666015
G1 X153.276 Y118.55 E.01765
;WIDTH:0.657568
G1 X153.347 Y119.1 E.02606
;WIDTH:0.639605
G1 X153.365 Y119.807 E.03231
;WIDTH:0.619542
G1 X153.365 Y150.193 E1.34034
;WIDTH:0.63788
G1 X153.348 Y150.869 E.0308
;WIDTH:0.660187
G1 X153.276 Y151.397 E.02516
;WIDTH:0.671615
G1 X153.129 Y151.871 E.02384
;WIDTH:0.677616
G1 X152.888 Y152.304 E.02405
G1 X152.684 Y152.552 E.01562
;WIDTH:0.67714
G1 X152.281 Y152.912 E.02623
;WIDTH:0.676672
G1 X151.803 Y153.163 E.02616
;WIDTH:0.666015
G1 X151.45 Y153.276 E.01765
;WIDTH:0.657568
G1 X150.9 Y153.347 E.02606
;WIDTH:0.639605
G1 X150.193 Y153.365 E.03231
;WIDTH:0.619542
G1 X119.807 Y153.365 E1.34034
;WIDTH:0.63788
G1 X119.131 Y153.348 E.0308
;WIDTH:0.660187
G1 X118.603 Y153.276 E.02516
;WIDTH:0.671615
G1 X118.129 Y153.129 E.02384
;WIDTH:0.677616
G1 X117.696 Y152.888 E.02405
G1 X117.448 Y152.684 E.01562
;WIDTH:0.67714
G1 X117.088 Y152.281 E.02623
;WIDTH:0.676672
G1 X116.837 Y151.803 E.02616
;WIDTH:0.666016
G1 X116.724 Y151.45 E.01765
;WIDTH:0.657568
G1 X116.653 Y150.9 E.02606
;WIDTH:0.639605
G1 X116.635 Y150.193 E.03231
;WIDTH:0.619542
G1 X116.635 Y119.807 E1.34034
;WIDTH:0.63788
G1 X116.657 Y119.034 E.03521
M73 P5 R4
;WIDTH:0.660187
G1 X116.735 Y118.501 E.02542
;WIDTH:0.671615
G1 X116.905 Y118.031 E.02406
;WIDTH:0.679901
G1 X117.189 Y117.572 E.02628
G1 X117.521 Y117.239 E.02292
;WIDTH:0.678702
G1 X117.969 Y116.941 E.02618
;WIDTH:0.671338
G1 X118.455 Y116.751 E.02508
;WIDTH:0.664685
G1 X119.067 Y116.655 E.02946
;WIDTH:0.641495
G1 X119.807 Y116.635 E.0339
;WIDTH:0.619516
G1 X150.193 Y116.64 E1.3403
;WIDTH:0.645437
G1 X151.087 Y116.664 E.04118
;WIDTH:0.663559
G1 X151.61 Y116.766 E.0253
G1 X151.912 Y116.231 F30000
;WIDTH:0.642467
G1 F3000
G1 X152.241 Y116.364 E.01627
;WIDTH:0.643604
G1 X152.761 Y116.664 E.0276
;WIDTH:0.643937
G1 X153.127 Y117.011 E.02317
G1 X153.501 Y117.482 E.02765
;WIDTH:0.643087
G1 X153.716 Y117.941 E.02329
;WIDTH:0.638746
G1 X153.892 Y118.526 E.02782
;WIDTH:0.635305
G1 X153.937 Y119.1 E.02608
;WIDTH:0.627986
G1 X153.942 Y119.807 E.03167
;WIDTH:0.619813
G1 X153.942 Y150.193 E1.34097
;WIDTH:0.627284
G1 X153.929 Y151.03 E.03741
;WIDTH:0.636372
G1 X153.86 Y151.63 E.02741
;WIDTH:0.641027
G1 X153.655 Y152.228 E.02895
;WIDTH:0.643472
G1 X153.328 Y152.77 E.02906
;WIDTH:0.643937
G1 X152.989 Y153.127 E.02265
G1 X152.518 Y153.501 E.02765
;WIDTH:0.643087
G1 X152.059 Y153.716 E.02329
;WIDTH:0.638746
G1 X151.474 Y153.892 E.02782
;WIDTH:0.635304
G1 X150.9 Y153.937 E.02608
;WIDTH:0.627986
G1 X150.193 Y153.942 E.03167
;WIDTH:0.619813
G1 X119.807 Y153.942 E1.34097
;WIDTH:0.627283
G1 X118.97 Y153.929 E.03741
;WIDTH:0.636372
G1 X118.37 Y153.86 E.02741
;WIDTH:0.641027
G1 X117.772 Y153.655 E.02895
;WIDTH:0.643472
G1 X117.23 Y153.328 E.02906
;WIDTH:0.643937
G1 X116.873 Y152.989 E.02265
G1 X116.499 Y152.518 E.02765
;WIDTH:0.643088
G1 X116.284 Y152.059 E.02329
;WIDTH:0.638746
G1 X116.108 Y151.474 E.02782
;WIDTH:0.635304
G1 X116.063 Y150.9 E.02608
;WIDTH:0.627986
G1 X116.058 Y150.193 E.03167
;WIDTH:0.619813
G1 X116.058 Y119.807 E1.34097
;WIDTH:0.627283
G1 X116.071 Y118.97 E.03741
M73 P6 R4
;WIDTH:0.636371
G1 X116.14 Y118.37 E.02741
;WIDTH:0.641028
G1 X116.29 Y117.934 E.02113
G1 X116.433 Y117.625 E.01555
;WIDTH:0.644546
G1 X116.796 Y117.078 E.03021
G1 X117.221 Y116.678 E.02685
;WIDTH:0.643915
G1 X117.653 Y116.416 E.02326
;WIDTH:0.640915
G1 X118.098 Y116.221 E.02219
;WIDTH:0.638204
G1 X118.594 Y116.103 E.02323
;WIDTH:0.633094
G1 X119.067 Y116.063 E.02145
;WIDTH:0.628756
G1 X119.807 Y116.059 E.03317
;WIDTH:0.619802
G1 X150.194 Y116.064 E1.34096
;WIDTH:0.630362
G1 X151.256 Y116.089 E.04776
;WIDTH:0.637746
G1 X151.783 Y116.179 E.02433
;WIDTH:0.642467
G1 X151.856 Y116.209 E.00362
G1 X152.14 Y115.668 F30000
;TYPE:Outer wall
;WIDTH:0.619999
G1 F3000
G1 X152.66 Y115.875 E.0247
G1 X153.139 Y116.181 E.0251
G1 X153.699 Y116.711 E.03405
G1 X154.031 Y117.173 E.02509
G1 X154.354 Y117.873 E.03405
G1 X154.492 Y118.427 E.02522
G1 X154.54 Y119.1 E.02974
G1 X154.54 Y150.982 E1.40749
G1 X154.456 Y151.761 E.03456
G1 X154.211 Y152.486 E.03377
G1 X153.817 Y153.141 E.03378
G1 X153.289 Y153.699 E.03391
G1 X152.827 Y154.031 E.02509
G1 X152.127 Y154.354 E.03405
G1 X151.573 Y154.492 E.02522
G1 X150.985 Y154.54 E.02601
G1 X119.018 Y154.54 E1.41123
G1 X118.239 Y154.456 E.03456
G1 X117.514 Y154.211 E.03377
G1 X116.859 Y153.817 E.03378
G1 X116.301 Y153.289 E.03391
G1 X115.969 Y152.827 E.02509
G1 X115.646 Y152.127 E.03405
G1 X115.508 Y151.573 E.02522
G1 X115.46 Y150.985 E.02601
G1 X115.46 Y119.018 E1.41123
G1 X115.544 Y118.239 E.03456
M73 P7 R4
G1 X115.789 Y117.514 E.03378
G1 X116.094 Y117.006 E.02618
G1 X116.428 Y116.569 E.02426
G1 X116.856 Y116.185 E.02541
G1 X117.517 Y115.787 E.03405
G1 X117.888 Y115.651 E.01745
G1 X118.48 Y115.508 E.02687
G1 X119.01 Y115.46 E.02353
G1 X151.184 Y115.466 E1.42034
G1 X151.947 Y115.591 E.0341
G1 X152.084 Y115.646 E.00655
G1 E-.8 F1800
G1 X144.469 Y116.151 Z.6 F30000
G1 X119.769 Y117.788 Z.6
G1 Z.2
G1 E.8 F1800
;TYPE:Inner wall
;WIDTH:0.619372
G1 F3000
G1 X150.193 Y117.79 E1.34164
;WIDTH:0.652974
G1 X150.907 Y117.862 E.0335
;WIDTH:0.680677
G1 X151.304 Y118.006 E.02059
;WIDTH:0.694075
G1 X151.663 Y118.255 E.02176
G1 X151.871 Y118.485 E.01544
;WIDTH:0.693464
G1 X152.088 Y118.909 E.0237
;WIDTH:0.6687
G1 X152.158 Y119.19 E.01386
;WIDTH:0.645414
G1 X152.212 Y119.807 E.02856
;WIDTH:0.619406
G1 X152.212 Y150.193 E1.34002
M73 P8 R4
;WIDTH:0.643178
G1 X152.163 Y150.783 E.0272
;WIDTH:0.674408
G1 X152.043 Y151.2 E.02096
;WIDTH:0.694688
G1 X151.811 Y151.591 E.02265
G1 X151.515 Y151.871 E.02032
;WIDTH:0.693464
G1 X151.091 Y152.088 E.0237
;WIDTH:0.668699
G1 X150.455 Y152.212 E.031
;WIDTH:0.619406
G1 X119.807 Y152.212 E1.3516
;WIDTH:0.643178
G1 X119.217 Y152.163 E.0272
;WIDTH:0.672095
G1 X118.848 Y152.064 E.01841
;WIDTH:0.694688
G1 X118.409 Y151.811 E.02523
G1 X118.129 Y151.515 E.02032
;WIDTH:0.693464
G1 X117.912 Y151.091 E.0237
;WIDTH:0.668699
G1 X117.788 Y150.455 E.031
;WIDTH:0.619406
G1 X117.788 Y119.807 E1.3516
;WIDTH:0.643178
G1 X117.837 Y119.217 E.0272
;WIDTH:0.672094
G1 X117.936 Y118.848 E.01841
;WIDTH:0.69765
G1 X118.224 Y118.363 E.02824
G1 X118.64 Y118.031 E.02665
;WIDTH:0.68655
G1 X119 Y117.884 E.01917
;WIDTH:0.661665
G1 X119.557 Y117.788 E.02673
;WIDTH:0.619372
G1 X119.709 Y117.788 E.00668
G1 X119.459 Y118.408 F30000
;WIDTH:0.664685
G1 F3000
G1 X119.615 Y118.365 E.00772
;WIDTH:0.619516
G1 X150.193 Y118.366 E1.34874
;WIDTH:0.645437
G1 X150.698 Y118.431 E.02348
;WIDTH:0.675148
G1 X151.082 Y118.608 E.02042
;WIDTH:0.676672
G1 X151.367 Y118.882 E.01919
G1 X151.527 Y119.175 E.01617
;WIDTH:0.657568
G1 X151.586 Y119.369 E.00957
M73 P9 R4
;WIDTH:0.639605
G1 X151.635 Y119.807 E.0201
;WIDTH:0.619542
G1 X151.635 Y150.193 E1.34034
;WIDTH:0.63788
G1 X151.59 Y150.612 E.01917
;WIDTH:0.671615
G1 X151.427 Y151.028 E.0215
;WIDTH:0.678756
G1 X151.189 Y151.309 E.01794
G1 X150.825 Y151.527 E.02061
;WIDTH:0.657568
G1 X150.377 Y151.635 E.02168
;WIDTH:0.619542
G1 X119.807 Y151.635 E1.34845
;WIDTH:0.63788
G1 X119.388 Y151.59 E.01917
;WIDTH:0.671615
G1 X118.972 Y151.427 E.0215
;WIDTH:0.678757
G1 X118.691 Y151.189 E.01794
G1 X118.473 Y150.825 E.02061
;WIDTH:0.657568
G1 X118.365 Y150.377 E.02168
;WIDTH:0.619542
G1 X118.365 Y119.807 E1.34845
;WIDTH:0.63788
G1 X118.41 Y119.388 E.01917
;WIDTH:0.671615
G1 X118.573 Y118.972 E.0215
;WIDTH:0.677837
G1 X118.826 Y118.678 E.01884
G1 X119.091 Y118.508 E.01525
;WIDTH:0.664685
G1 X119.401 Y118.424 E.01529
G1 X119.685 Y118.959 F30000
;WIDTH:0.628756
G1 F3000
G1 X119.807 Y118.942 E.00554
;WIDTH:0.619802
G1 X150.193 Y118.942 E1.34094
;WIDTH:0.637746
G1 X150.616 Y119.042 E.01976
;WIDTH:0.643087
G1 X150.882 Y119.264 E.01594
G1 X151.023 Y119.547 E.01448
;WIDTH:0.627986
G1 X151.058 Y119.807 E.01177
;WIDTH:0.619813
G1 X151.058 Y150.193 E1.34097
M73 P10 R4
;WIDTH:0.627284
G1 X151.026 Y150.442 E.01125
;WIDTH:0.643472
G1 X150.857 Y150.767 E.01679
G1 X150.629 Y150.952 E.0135
;WIDTH:0.638746
G1 X150.307 Y151.058 E.01543
;WIDTH:0.619813
G1 X119.807 Y151.058 E1.34602
;WIDTH:0.636372
G1 X119.408 Y150.97 E.01854
;WIDTH:0.643937
G1 X119.152 Y150.777 E.01475
G1 X119.018 Y150.567 E.01146
;WIDTH:0.635304
G1 X118.942 Y150.193 E.0173
;WIDTH:0.619813
G1 X118.942 Y119.807 E1.34097
;WIDTH:0.636371
G1 X119.03 Y119.408 E.01854
;WIDTH:0.643562
G1 X119.232 Y119.145 E.01526
G1 X119.535 Y118.981 E.01584
;WIDTH:0.628756
G1 X119.625 Y118.968 E.0041
G1 X119.768 Y119.54 F30000
;TYPE:Outer wall
;WIDTH:0.619999
G1 F3000
G1 X150.193 Y119.54 E1.34311
G1 X150.377 Y119.613 E.00873
G1 X150.46 Y119.747 E.00695
G1 X150.46 Y150.193 E1.34407
G1 X150.387 Y150.377 E.00873
M73 P11 R4
G1 X150.232 Y150.46 E.00778
G1 X119.807 Y150.46 E1.34311
G1 X119.623 Y150.387 E.00873
G1 X119.54 Y150.232 E.00778
G1 X119.54 Y119.807 E1.34311
G1 X119.613 Y119.624 E.00871
G1 X119.716 Y119.568 E.00515
; stop printing object Part Studio 1 - Part 1 (16).step id:0 copy 0
;LAYER_CHANGE
;Z:0.5
;HEIGHT:0.3
;BEFORE_LAYER_CHANGE
;0.5
G92 E0

EXCLUDE_OBJECT_END NAME=Part_Studio_1_-_Part_1_16_.step_id_0_copy_0
 ; timelapse without wipe tower
TIMELAPSE_TAKE_FRAME

G92 E0
SET_PRINT_STATS_INFO CURRENT_LAYER=2
;_SET_FAN_SPEED_CHANGING_LAYER
SET_VELOCITY_LIMIT ACCEL=10000
