; HEADER_BLOCK_START
; generated by OrcaSlicer 2.3.1 on 2025-10-29 at 20:05:24
; total layer number: 51
; filament_density: 1.02,1.02,1.02,1.24,1.24,1.24
; filament_diameter: 1.75,1.75,1.75,1.75,1.75,1.75
; max_z_height: 10.20
; HEADER_BLOCK_END

; THUMBNAIL_BLOCK_START

;
; THUMBNAIL_BLOCK_END

; external perimeters extrusion width = 0.62mm
; perimeters extrusion width = 0.62mm
; infill extrusion width = 0.62mm
; solid infill extrusion width = 0.62mm
; top infill extrusion width = 0.62mm
; first layer extrusion width = 0.62mm

; external perimeters extrusion width = 0.62mm
; perimeters extrusion width = 0.62mm
; infill extrusion width = 0.62mm
; solid infill extrusion width = 0.62mm
; top infill extrusion width = 0.62mm
; first layer extrusion width = 0.62mm

; external perimeters extrusion width = 0.62mm
; perimeters extrusion width = 0.62mm
; infill extrusion width = 0.62mm
; solid infill extrusion width = 0.62mm
; top infill extrusion width = 0.62mm
; first layer extrusion width = 0.62mm

; external perimeters extrusion width = 0.62mm
; perimeters extrusion width = 0.62mm
; infill extrusion width = 0.62mm
; solid infill extrusion width = 0.62mm
; top infill extrusion width = 0.62mm
; first layer extrusion width = 0.62mm

; EXECUTABLE_BLOCK_START
EXCLUDE_OBJECT_DEFINE NAME=Part_Studio_1_-_Part_1_14_.step_id_0_copy_0 CENTER=147,159 POLYGON=[[122,149],[172,149],[172,169],[122,169],[122,149]]
EXCLUDE_OBJECT_DEFINE NAME=Part_Studio_1_-_Part_1_14_.step_id_1_copy_0 CENTER=147,135 POLYGON=[[122,125],[172,125],[172,145],[122,145],[122,125]]
EXCLUDE_OBJECT_DEFINE NAME=Part_Studio_1_-_Part_1_14_.step_id_2_copy_0 CENTER=147,111 POLYGON=[[122,101],[172,101],[172,121],[122,121],[122,101]]
EXCLUDE_OBJECT_DEFINE NAME=Part_Studio_1_-_Part_1_14_.step_id_3_copy_0 CENTER=108,135 POLYGON=[[98,160],[98,110],[118,110],[118,160],[98,160]]
M73 P0 R22
M106 S0
M106 P2 S0
;TYPE:Custom
PRINT_START BED=100 HOTEND=260 CHAMBER=60 EXTRUDER=0
SET_PRINT_STATS_INFO TOTAL_LAYER=51
M83
M140 S100
M104 S260
M141 S60
G4 P3000
T0
G1 X108.000 Y1 F30000
G0 Z0.2 F600
;G1 E3 F1800
G90
M83
G0 X128 E8  F1320
G0 X133 E.3742  F2200
G0 X138 E.3742  F8800
G0 X143 E.3742  F2200
G0 X148 E.3742  F8800
G0 X153 E.3742  F2200
G91
G1 X1 Z-0.300
G1 X4
G1 Z1 F1200
G90
M400
G1 X108.000 Y2.5 F30000
G0 Z0.2 F600
M83
G0 X128 E10  F1320
G0 X133 E.3742  F2200
G0 X138 E.3742  F8800
G0 X143 E.3742  F2200
G0 X148 E.3742  F8800
G0 X153 E.3742  F2200
G91
G1 X1 Z-0.300
G1 X4
G1 Z1 F1200
G90
M400
G1 Z1 F600
M106 P3 S255
G90
G21
M83 ; use relative distances for extrusion
; Filament gcode
SET_PRESSURE_ADVANCE ADVANCE=0.022; Override pressure advance value
T0
M106 P2 S0
;LAYER_CHANGE
;Z:0.2
;HEIGHT:0.2
;BEFORE_LAYER_CHANGE
;0.2
G92 E0

 ; timelapse without wipe tower
TIMELAPSE_TAKE_FRAME

G92 E0
SET_PRINT_STATS_INFO CURRENT_LAYER=1
;_SET_FAN_SPEED_CHANGING_LAYER
SET_VELOCITY_LIMIT ACCEL=500
G1 E-.8 F1800
G1 X100.693 Y106.546 F30000
G1 Z.6
G1 Z.2
G1 E.8 F1800
;TYPE:Skirt
;WIDTH:0.62
G1 F3000
G1 X121.196 Y98.857 E.96667
G1 X122 Y98.711 E.03605
G1 X172 Y98.711 E2.20728
G1 X173.28 Y99.103 E.05908
G1 X174.122 Y100.143 E.05908
G1 X174.289 Y101 E.03855
G1 X174.289 Y169 E3.0019
G1 X173.897 Y170.28 E.05908
G1 X172.857 Y171.122 E.05908
G1 X172 Y171.289 E.03855
G1 X122 Y171.289 E2.20728
G1 X121.196 Y171.143 E.03605
G1 X97.196 Y162.143 E1.13154
G1 X96.136 Y161.327 E.05908
G1 X95.711 Y160 E.06151
G1 X95.711 Y110 E2.20728
G1 X96.103 Y108.72 E.05908
G1 X97.196 Y107.857 E.06151
G1 X100.637 Y106.567 E.16222
; printing object Part Studio 1 - Part 1 (14).step id:2 copy 0
G1 E-.8 F1800
EXCLUDE_OBJECT_START NAME=Part_Studio_1_-_Part_1_14_.step_id_2_copy_0
G1 X108.259 Y106.165 Z.6 F30000
G1 X164.213 Y103.213 Z.6
G1 Z.2
G1 E.8 F1800
;TYPE:Inner wall
;WIDTH:0.619999
G1 F3000
G1 X169.787 Y103.213 E.24609
G1 X169.787 Y118.787 E.68755
G1 X164.213 Y118.787 E.24609
G1 X164.213 Y103.273 E.6849
G1 X163.636 Y102.636 F30000
M73 P1 R22
G1 F3000
G1 X170.364 Y102.636 E.29705
G1 X170.364 Y119.364 E.7385
G1 X163.636 Y119.364 E.29705
G1 X163.636 Y102.696 E.73585
G1 X163.059 Y102.059 F30000
G1 F3000
G1 X170.941 Y102.059 E.348
G1 X170.941 Y119.941 E.78945
G1 X163.059 Y119.941 E.348
G1 X163.059 Y102.119 E.7868
G1 X162.46 Y101.46 F30000
;TYPE:Outer wall
G1 F3000
G1 X171.54 Y101.46 E.40084
G1 X171.54 Y120.54 E.8423
G1 X162.46 Y120.54 E.40084
G1 X162.46 Y101.52 E.83965
G1 E-.8 F1800
G1 X169.496 Y104.479 Z.6 F30000
G1 X169.643 Y104.541 Z.6
G1 Z.2
G1 E.8 F1800
;TYPE:Bottom surface
;WIDTH:0.628053
G1 F6300
G1 X168.719 Y103.617 E.04911
G1 X167.892 Y103.617 E.02844
G1 X169.383 Y105.108 E.08444
G1 X169.383 Y105.936 E.02844
G1 X167.064 Y103.617 E.1364
G1 X166.237 Y103.617 E.02844
G1 X169.383 Y106.763 E.1885
G1 X169.383 Y107.591 E.02844
G1 X165.409 Y103.617 E.24106
G1 X164.617 Y103.617 E.02697
G1 X164.617 Y103.652 E.00014
G1 X169.383 Y108.418 E.29242
G1 X169.383 Y109.246 E.02844
G1 X164.617 Y104.479 E.29242
G1 X164.617 Y105.307 E.02844
G1 X169.383 Y110.073 E.29242
G1 X169.383 Y110.901 E.02844
G1 X164.617 Y106.134 E.29242
G1 X164.617 Y106.962 E.02844
G1 X169.383 Y111.728 E.29242
G1 X169.383 Y112.556 E.02844
G1 X164.617 Y107.789 E.29242
G1 X164.617 Y108.617 E.02844
G1 X169.383 Y113.383 E.29242
G1 X169.383 Y114.211 E.02844
G1 X164.617 Y109.444 E.29242
G1 X164.617 Y110.272 E.02844
G1 X169.383 Y115.038 E.29242
G1 X169.383 Y115.866 E.02844
G1 X164.617 Y111.099 E.29242
G1 X164.617 Y111.927 E.02844
G1 X169.383 Y116.693 E.29242
G1 X169.383 Y117.521 E.02844
G1 X164.617 Y112.754 E.29242
G1 X164.617 Y113.582 E.02844
G1 X169.383 Y118.348 E.29242
G1 X169.383 Y118.383 E.00014
G1 X168.591 Y118.383 E.02697
G1 X164.617 Y114.409 E.24105
G1 X164.617 Y115.237 E.02844
G1 X167.763 Y118.383 E.18849
G1 X166.936 Y118.383 E.02844
G1 X164.617 Y116.064 E.1364
G1 X164.617 Y116.892 E.02844
G1 X166.108 Y118.383 E.08443
G1 X165.281 Y118.383 E.02844
G1 X164.357 Y117.46 E.0491
G1 E-.8 F1800
G1 X157.3 Y114.551 Z.6 F30000
G1 X129.787 Y103.213 Z.6
G1 Z.2
G1 E.8 F1800
;TYPE:Inner wall
;WIDTH:0.619999
G1 F3000
G1 X129.787 Y118.787 E.68755
G1 X124.213 Y118.787 E.24609
G1 X124.213 Y103.213 E.68755
G1 X129.727 Y103.213 E.24345
G1 X130.364 Y102.636 F30000
G1 F3000
G1 X130.364 Y119.364 E.7385
G1 X123.636 Y119.364 E.29705
G1 X123.636 Y102.636 E.7385
G1 X130.304 Y102.636 E.2944
G1 X130.941 Y102.059 F30000
G1 F3000
G1 X130.941 Y119.941 E.78945
G1 X123.059 Y119.941 E.348
G1 X123.059 Y102.059 E.78945
G1 X130.881 Y102.059 E.34535
M73 P2 R22
G1 X131.54 Y101.46 F30000
;TYPE:Outer wall
G1 F3000
G1 X131.54 Y120.54 E.8423
G1 X122.46 Y120.54 E.40084
G1 X122.46 Y101.46 E.8423
G1 X131.48 Y101.46 E.39819
G1 E-.8 F1800
G1 X129.643 Y104.541 Z.6 F30000
G1 Z.2
G1 E.8 F1800
;TYPE:Bottom surface
;WIDTH:0.628053
G1 F6300
G1 X128.719 Y103.617 E.04911
G1 X127.892 Y103.617 E.02844
G1 X129.383 Y105.108 E.08444
G1 X129.383 Y105.936 E.02844
G1 X127.064 Y103.617 E.1364
G1 X126.237 Y103.617 E.02844
G1 X129.383 Y106.763 E.1885
G1 X129.383 Y107.591 E.02844
G1 X125.409 Y103.617 E.24106
G1 X124.617 Y103.617 E.02697
G1 X124.617 Y103.652 E.00014
G1 X129.383 Y108.418 E.29242
G1 X129.383 Y109.246 E.02844
G1 X124.617 Y104.479 E.29242
G1 X124.617 Y105.307 E.02844
G1 X129.383 Y110.073 E.29242
G1 X129.383 Y110.901 E.02844
G1 X124.617 Y106.134 E.29242
G1 X124.617 Y106.962 E.02844
G1 X129.383 Y111.728 E.29242
G1 X129.383 Y112.556 E.02844
G1 X124.617 Y107.789 E.29242
G1 X124.617 Y108.617 E.02844
G1 X129.383 Y113.383 E.29242
G1 X129.383 Y114.211 E.02844
G1 X124.617 Y109.444 E.29242
G1 X124.617 Y110.272 E.02844
M73 P2 R21
G1 X129.383 Y115.038 E.29242
G1 X129.383 Y115.866 E.02844
G1 X124.617 Y111.099 E.29242
G1 X124.617 Y111.927 E.02844
G1 X129.383 Y116.693 E.29242
G1 X129.383 Y117.521 E.02844
G1 X124.617 Y112.754 E.29242
G1 X124.617 Y113.582 E.02844
G1 X129.383 Y118.348 E.29242
G1 X129.383 Y118.383 E.00014
G1 X128.591 Y118.383 E.02697
G1 X124.617 Y114.409 E.24105
G1 X124.617 Y115.237 E.02844
G1 X127.763 Y118.383 E.18849
G1 X126.936 Y118.383 E.02844
G1 X124.617 Y116.064 E.1364
G1 X124.617 Y116.892 E.02844
G1 X126.108 Y118.383 E.08443
G1 X125.281 Y118.383 E.02844
G1 X124.357 Y117.46 E.0491
; stop printing object Part Studio 1 - Part 1 (14).step id:2 copy 0
; printing object Part Studio 1 - Part 1 (14).step id:1 copy 0
G1 E-.8 F1800
EXCLUDE_OBJECT_END NAME=Part_Studio_1_-_Part_1_14_.step_id_2_copy_0
EXCLUDE_OBJECT_START NAME=Part_Studio_1_-_Part_1_14_.step_id_1_copy_0
G1 X131.771 Y119.274 Z.6 F30000
G1 X164.213 Y127.213 Z.6
G1 Z.2
G1 E.8 F1800
;TYPE:Inner wall
;WIDTH:0.619999
G1 F3000
G1 X169.787 Y127.213 E.24609
G1 X169.787 Y142.787 E.68755
G1 X164.213 Y142.787 E.24609
G1 X164.213 Y127.273 E.6849
G1 X163.636 Y126.636 F30000
G1 F3000
G1 X170.364 Y126.636 E.29705
G1 X170.364 Y143.364 E.7385
G1 X163.636 Y143.364 E.29705
G1 X163.636 Y126.696 E.73585
G1 X163.059 Y126.059 F30000
G1 F3000
G1 X170.941 Y126.059 E.348
G1 X170.941 Y143.941 E.78945
G1 X163.059 Y143.941 E.348
G1 X163.059 Y126.119 E.7868
G1 X162.46 Y125.46 F30000
;TYPE:Outer wall
G1 F3000
G1 X171.54 Y125.46 E.40084
G1 X171.54 Y144.54 E.8423
G1 X162.46 Y144.54 E.40084
G1 X162.46 Y125.52 E.83965
G1 E-.8 F1800
G1 X169.496 Y128.479 Z.6 F30000
G1 X169.643 Y128.541 Z.6
G1 Z.2
G1 E.8 F1800
;TYPE:Bottom surface
;WIDTH:0.628053
G1 F6300
G1 X168.719 Y127.617 E.04911
G1 X167.892 Y127.617 E.02844
M73 P3 R21
G1 X169.383 Y129.108 E.08444
G1 X169.383 Y129.936 E.02844
G1 X167.064 Y127.617 E.1364
G1 X166.237 Y127.617 E.02844
G1 X169.383 Y130.763 E.1885
G1 X169.383 Y131.591 E.02844
G1 X165.409 Y127.617 E.24106
G1 X164.617 Y127.617 E.02697
G1 X164.617 Y127.652 E.00014
G1 X169.383 Y132.418 E.29242
G1 X169.383 Y133.246 E.02844
G1 X164.617 Y128.479 E.29242
G1 X164.617 Y129.307 E.02844
G1 X169.383 Y134.073 E.29242
G1 X169.383 Y134.901 E.02844
G1 X164.617 Y130.134 E.29242
G1 X164.617 Y130.962 E.02844
G1 X169.383 Y135.728 E.29242
G1 X169.383 Y136.556 E.02844
G1 X164.617 Y131.789 E.29242
G1 X164.617 Y132.617 E.02844
G1 X169.383 Y137.383 E.29242
G1 X169.383 Y138.211 E.02844
G1 X164.617 Y133.444 E.29242
G1 X164.617 Y134.272 E.02844
G1 X169.383 Y139.038 E.29242
G1 X169.383 Y139.866 E.02844
G1 X164.617 Y135.099 E.29242
G1 X164.617 Y135.927 E.02844
G1 X169.383 Y140.693 E.29242
G1 X169.383 Y141.521 E.02844
G1 X164.617 Y136.754 E.29242
G1 X164.617 Y137.582 E.02844
G1 X169.383 Y142.348 E.29242
G1 X169.383 Y142.383 E.00014
G1 X168.591 Y142.383 E.02697
G1 X164.617 Y138.409 E.24105
G1 X164.617 Y139.237 E.02844
G1 X167.763 Y142.383 E.18849
G1 X166.936 Y142.383 E.02844
G1 X164.617 Y140.064 E.1364
G1 X164.617 Y140.892 E.02844
G1 X166.108 Y142.383 E.08443
G1 X165.281 Y142.383 E.02844
G1 X164.357 Y141.46 E.0491
G1 E-.8 F1800
G1 X157.3 Y138.551 Z.6 F30000
G1 X129.787 Y127.213 Z.6
G1 Z.2
G1 E.8 F1800
;TYPE:Inner wall
;WIDTH:0.619999
G1 F3000
G1 X129.787 Y142.787 E.68755
G1 X124.213 Y142.787 E.24609
G1 X124.213 Y127.213 E.68755
G1 X129.727 Y127.213 E.24345
G1 X130.364 Y126.636 F30000
G1 F3000
G1 X130.364 Y143.364 E.7385
G1 X123.636 Y143.364 E.29705
G1 X123.636 Y126.636 E.7385
G1 X130.304 Y126.636 E.2944
G1 X130.941 Y126.059 F30000
G1 F3000
G1 X130.941 Y143.941 E.78945
G1 X123.059 Y143.941 E.348
G1 X123.059 Y126.059 E.78945
G1 X130.881 Y126.059 E.34535
G1 X131.54 Y125.46 F30000
;TYPE:Outer wall
G1 F3000
G1 X131.54 Y144.54 E.8423
G1 X122.46 Y144.54 E.40084
G1 X122.46 Y125.46 E.8423
G1 X131.48 Y125.46 E.39819
G1 E-.8 F1800
G1 X129.643 Y128.541 Z.6 F30000
G1 Z.2
G1 E.8 F1800
;TYPE:Bottom surface
;WIDTH:0.628053
G1 F6300
G1 X128.719 Y127.617 E.04911
G1 X127.892 Y127.617 E.02844
G1 X129.383 Y129.108 E.08444
G1 X129.383 Y129.936 E.02844
G1 X127.064 Y127.617 E.1364
G1 X126.237 Y127.617 E.02844
G1 X129.383 Y130.763 E.1885
G1 X129.383 Y131.591 E.02844
G1 X125.409 Y127.617 E.24106
G1 X124.617 Y127.617 E.02697
G1 X124.617 Y127.652 E.00014
G1 X129.383 Y132.418 E.29242
G1 X129.383 Y133.246 E.02844
G1 X124.617 Y128.479 E.29242
G1 X124.617 Y129.307 E.02844
G1 X129.383 Y134.073 E.29242
G1 X129.383 Y134.901 E.02844
G1 X124.617 Y130.134 E.29242
G1 X124.617 Y130.962 E.02844
G1 X129.383 Y135.728 E.29242
G1 X129.383 Y136.556 E.02844
G1 X124.617 Y131.789 E.29242
G1 X124.617 Y132.617 E.02844
M73 P4 R21
G1 X129.383 Y137.383 E.29242
G1 X129.383 Y138.211 E.02844
G1 X124.617 Y133.444 E.29242
G1 X124.617 Y134.272 E.02844
G1 X129.383 Y139.038 E.29242
G1 X129.383 Y139.866 E.02844
G1 X124.617 Y135.099 E.29242
G1 X124.617 Y135.927 E.02844
G1 X129.383 Y140.693 E.29242
G1 X129.383 Y141.521 E.02844
G1 X124.617 Y136.754 E.29242
G1 X124.617 Y137.582 E.02844
G1 X129.383 Y142.348 E.29242
G1 X129.383 Y142.383 E.00014
G1 X128.591 Y142.383 E.02697
G1 X124.617 Y138.409 E.24105
G1 X124.617 Y139.237 E.02844
G1 X127.763 Y142.383 E.18849
G1 X126.936 Y142.383 E.02844
G1 X124.617 Y140.064 E.1364
G1 X124.617 Y140.892 E.02844
G1 X126.108 Y142.383 E.08443
G1 X125.281 Y142.383 E.02844
G1 X124.357 Y141.46 E.0491
; stop printing object Part Studio 1 - Part 1 (14).step id:1 copy 0
; printing object Part Studio 1 - Part 1 (14).step id:0 copy 0
G1 E-.8 F1800
EXCLUDE_OBJECT_END NAME=Part_Studio_1_-_Part_1_14_.step_id_1_copy_0
EXCLUDE_OBJECT_START NAME=Part_Studio_1_-_Part_1_14_.step_id_0_copy_0
G1 X131.771 Y143.274 Z.6 F30000
G1 X164.213 Y151.213 Z.6
G1 Z.2
G1 E.8 F1800
;TYPE:Inner wall
;WIDTH:0.619999
G1 F3000
G1 X169.787 Y151.213 E.24609
G1 X169.787 Y166.787 E.68755
G1 X164.213 Y166.787 E.24609
G1 X164.213 Y151.273 E.6849
G1 X163.636 Y150.636 F30000
G1 F3000
G1 X170.364 Y150.636 E.29705
G1 X170.364 Y167.364 E.7385
G1 X163.636 Y167.364 E.29705
G1 X163.636 Y150.696 E.73585
G1 X163.059 Y150.059 F30000
G1 F3000
G1 X170.941 Y150.059 E.348
G1 X170.941 Y167.941 E.78945
G1 X163.059 Y167.941 E.348
G1 X163.059 Y150.119 E.7868
G1 X162.46 Y149.46 F30000
;TYPE:Outer wall
G1 F3000
G1 X171.54 Y149.46 E.40084
G1 X171.54 Y168.54 E.8423
G1 X162.46 Y168.54 E.40084
G1 X162.46 Y149.52 E.83965
G1 E-.8 F1800
G1 X169.496 Y152.479 Z.6 F30000
G1 X169.643 Y152.541 Z.6
G1 Z.2
G1 E.8 F1800
;TYPE:Bottom surface
;WIDTH:0.628053
G1 F6300
G1 X168.719 Y151.617 E.04911
G1 X167.892 Y151.617 E.02844
G1 X169.383 Y153.108 E.08444
G1 X169.383 Y153.936 E.02844
G1 X167.064 Y151.617 E.1364
G1 X166.237 Y151.617 E.02844
G1 X169.383 Y154.763 E.1885
G1 X169.383 Y155.591 E.02844
G1 X165.409 Y151.617 E.24106
G1 X164.617 Y151.617 E.02697
G1 X164.617 Y151.652 E.00014
G1 X169.383 Y156.418 E.29242
G1 X169.383 Y157.246 E.02844
G1 X164.617 Y152.479 E.29242
G1 X164.617 Y153.307 E.02844
G1 X169.383 Y158.073 E.29242
G1 X169.383 Y158.901 E.02844
G1 X164.617 Y154.134 E.29242
G1 X164.617 Y154.962 E.02844
G1 X169.383 Y159.728 E.29242
G1 X169.383 Y160.556 E.02844
G1 X164.617 Y155.789 E.29242
G1 X164.617 Y156.617 E.02844
G1 X169.383 Y161.383 E.29242
G1 X169.383 Y162.211 E.02844
G1 X164.617 Y157.444 E.29242
G1 X164.617 Y158.272 E.02844
G1 X169.383 Y163.038 E.29242
G1 X169.383 Y163.866 E.02844
G1 X164.617 Y159.099 E.29242
G1 X164.617 Y159.927 E.02844
G1 X169.383 Y164.693 E.29242
G1 X169.383 Y165.521 E.02844
G1 X164.617 Y160.754 E.29242
G1 X164.617 Y161.582 E.02844
G1 X169.383 Y166.348 E.29242
G1 X169.383 Y166.383 E.00014
G1 X168.591 Y166.383 E.02697
G1 X164.617 Y162.409 E.24105
G1 X164.617 Y163.237 E.02844
G1 X167.763 Y166.383 E.18849
G1 X166.936 Y166.383 E.02844
M73 P5 R21
G1 X164.617 Y164.064 E.1364
G1 X164.617 Y164.892 E.02844
G1 X166.108 Y166.383 E.08443
G1 X165.281 Y166.383 E.02844
G1 X164.357 Y165.46 E.0491
G1 E-.8 F1800
G1 X157.3 Y162.551 Z.6 F30000
G1 X129.787 Y151.213 Z.6
G1 Z.2
G1 E.8 F1800
;TYPE:Inner wall
;WIDTH:0.619999
G1 F3000
G1 X129.787 Y166.787 E.68755
G1 X124.213 Y166.787 E.24609
G1 X124.213 Y151.213 E.68755
G1 X129.727 Y151.213 E.24345
G1 X130.364 Y150.636 F30000
G1 F3000
G1 X130.364 Y167.364 E.7385
G1 X123.636 Y167.364 E.29705
G1 X123.636 Y150.636 E.7385
G1 X130.304 Y150.636 E.2944
G1 X130.941 Y150.059 F30000
G1 F3000
G1 X130.941 Y167.941 E.78945
G1 X123.059 Y167.941 E.348
G1 X123.059 Y150.059 E.78945
G1 X130.881 Y150.059 E.34535
G1 X131.54 Y149.46 F30000
;TYPE:Outer wall
G1 F3000
G1 X131.54 Y168.54 E.8423
G1 X122.46 Y168.54 E.40084
G1 X122.46 Y149.46 E.8423
G1 X131.48 Y149.46 E.39819
G1 E-.8 F1800
G1 X129.643 Y152.541 Z.6 F30000
G1 Z.2
G1 E.8 F1800
;TYPE:Bottom surface
;WIDTH:0.628053
G1 F6300
