; HEADER_BLOCK_START
; generated by OrcaSlicer 2.3.1 on 2025-10-29 at 19:45:59
; total layer number: 51
; filament_density: 1.02,1.02,1.02,1.24,1.24,1.24
; filament_diameter: 1.75,1.75,1.75,1.75,1.75,1.75
; max_z_height: 10.20
; HEADER_BLOCK_END

; THUMBNAIL_BLOCK_START

;
; THUMBNAIL_BLOCK_END

; external perimeters extrusion width = 0.62mm
; perimeters extrusion width = 0.62mm
; infill extrusion width = 0.62mm
; solid infill extrusion width = 0.62mm
; top infill extrusion width = 0.62mm
; first layer extrusion width = 0.62mm

; EXECUTABLE_BLOCK_START
EXCLUDE_OBJECT_DEFINE NAME=Part_Studio_1_-_Part_1_14_.step_id_0_copy_0 CENTER=135,135 POLYGON=[[110,125],[160,125],[160,145],[110,145],[110,125]]
M73 P0 R5
M106 S0
M106 P2 S0
;TYPE:Custom
PRINT_START BED=100 HOTEND=260 CHAMBER=60 EXTRUDER=0
SET_PRINT_STATS_INFO TOTAL_LAYER=51
M83
M140 S100
M104 S260
M141 S60
G4 P3000
T0
G1 X108.000 Y1 F30000
G0 Z0.2 F600
;G1 E3 F1800
G90
M83
G0 X128 E8  F1320
G0 X133 E.3742  F2200
G0 X138 E.3742  F8800
G0 X143 E.3742  F2200
G0 X148 E.3742  F8800
G0 X153 E.3742  F2200
G91
G1 X1 Z-0.300
G1 X4
G1 Z1 F1200
G90
M400
G1 X108.000 Y2.5 F30000
G0 Z0.2 F600
M83
G0 X128 E10  F1320
G0 X133 E.3742  F2200
M73 P1 R5
G0 X138 E.3742  F8800
G0 X143 E.3742  F2200
G0 X148 E.3742  F8800
G0 X153 E.3742  F2200
G91
G1 X1 Z-0.300
G1 X4
G1 Z1 F1200
G90
M400
G1 Z1 F600
M106 P3 S255
G90
G21
M83 ; use relative distances for extrusion
; Filament gcode
SET_PRESSURE_ADVANCE ADVANCE=0.022; Override pressure advance value
T0
M106 P2 S0
;LAYER_CHANGE
;Z:0.2
;HEIGHT:0.2
;BEFORE_LAYER_CHANGE
;0.2
G92 E0

 ; timelapse without wipe tower
TIMELAPSE_TAKE_FRAME

G92 E0
SET_PRINT_STATS_INFO CURRENT_LAYER=1
;_SET_FAN_SPEED_CHANGING_LAYER
SET_VELOCITY_LIMIT ACCEL=500
G1 E-.8 F1800
G1 X113.838 Y122.711 F30000
G1 Z.6
G1 Z.2
G1 E.8 F1800
;TYPE:Skirt
;WIDTH:0.62
G1 F3000
G1 X160 Y122.711 E2.03786
G1 X161.28 Y123.103 E.05908
G1 X162.122 Y124.143 E.05908
G1 X162.289 Y125 E.03855
G1 X162.289 Y145 E.88291
G1 X161.897 Y146.28 E.05908
G1 X160.857 Y147.122 E.05908
G1 X160 Y147.289 E.03855
G1 X110 Y147.289 E2.20728
M73 P2 R5
G1 X108.72 Y146.897 E.05908
G1 X107.878 Y145.857 E.05908
G1 X107.711 Y145 E.03855
G1 X107.711 Y125 E.88291
G1 X108.103 Y123.72 E.05908
G1 X109.143 Y122.878 E.05908
G1 X110 Y122.711 E.03855
G1 X113.778 Y122.711 E.16678
; printing object Part Studio 1 - Part 1 (14).step id:0 copy 0
G1 E-.8 F1800
EXCLUDE_OBJECT_START NAME=Part_Studio_1_-_Part_1_14_.step_id_0_copy_0
G1 X121.359 Y123.599 Z.6 F30000
G1 X152.213 Y127.213 Z.6
G1 Z.2
G1 E.8 F1800
;TYPE:Inner wall
;WIDTH:0.619999
G1 F3000
G1 X157.787 Y127.213 E.24609
G1 X157.787 Y142.787 E.68755
G1 X152.213 Y142.787 E.24609
G1 X152.213 Y127.273 E.6849
G1 X151.636 Y126.636 F30000
M73 P3 R5
G1 F3000
G1 X158.364 Y126.636 E.29705
G1 X158.364 Y143.364 E.7385
G1 X151.636 Y143.364 E.29705
G1 X151.636 Y126.696 E.73585
G1 X151.059 Y126.059 F30000
G1 F3000
G1 X158.941 Y126.059 E.348
G1 X158.941 Y143.941 E.78945
G1 X151.059 Y143.941 E.348
G1 X151.059 Y126.119 E.7868
G1 X150.46 Y125.46 F30000
;TYPE:Outer wall
G1 F3000
G1 X159.54 Y125.46 E.40084
G1 X159.54 Y144.54 E.8423
G1 X150.46 Y144.54 E.40084
M73 P4 R5
G1 X150.46 Y125.52 E.83965
G1 E-.8 F1800
G1 X157.496 Y128.479 Z.6 F30000
G1 X157.643 Y128.541 Z.6
G1 Z.2
G1 E.8 F1800
;TYPE:Bottom surface
;WIDTH:0.628053
G1 F6300
G1 X156.719 Y127.617 E.04911
G1 X155.892 Y127.617 E.02844
G1 X157.383 Y129.108 E.08444
G1 X157.383 Y129.936 E.02844
G1 X155.064 Y127.617 E.1364
G1 X154.237 Y127.617 E.02844
G1 X157.383 Y130.763 E.1885
G1 X157.383 Y131.591 E.02844
G1 X153.409 Y127.617 E.24106
G1 X152.617 Y127.617 E.02697
G1 X152.617 Y127.652 E.00014
G1 X157.383 Y132.418 E.29242
G1 X157.383 Y133.246 E.02844
G1 X152.617 Y128.479 E.29242
G1 X152.617 Y129.307 E.02844
G1 X157.383 Y134.073 E.29242
G1 X157.383 Y134.901 E.02844
G1 X152.617 Y130.134 E.29242
G1 X152.617 Y130.962 E.02844
G1 X157.383 Y135.728 E.29242
G1 X157.383 Y136.556 E.02844
G1 X152.617 Y131.789 E.29242
G1 X152.617 Y132.617 E.02844
G1 X157.383 Y137.383 E.29242
G1 X157.383 Y138.211 E.02844
M73 P5 R5
G1 X152.617 Y133.444 E.29242
G1 X152.617 Y134.272 E.02844
G1 X157.383 Y139.038 E.29242
G1 X157.383 Y139.866 E.02844
G1 X152.617 Y135.099 E.29242
G1 X152.617 Y135.927 E.02844
G1 X157.383 Y140.693 E.29242
G1 X157.383 Y141.521 E.02844
G1 X152.617 Y136.754 E.29242
G1 X152.617 Y137.582 E.02844
G1 X157.383 Y142.348 E.29242
G1 X157.383 Y142.383 E.00014
G1 X156.591 Y142.383 E.02697
G1 X152.617 Y138.409 E.24105
G1 X152.617 Y139.237 E.02844
G1 X155.763 Y142.383 E.18849
G1 X154.936 Y142.383 E.02844
G1 X152.617 Y140.064 E.1364
G1 X152.617 Y140.892 E.02844
G1 X154.108 Y142.383 E.08443
G1 X153.281 Y142.383 E.02844
G1 X152.357 Y141.46 E.0491
G1 E-.8 F1800
G1 X145.3 Y138.551 Z.6 F30000
G1 X117.787 Y127.213 Z.6
G1 Z.2
G1 E.8 F1800
;TYPE:Inner wall
;WIDTH:0.619999
G1 F3000
G1 X117.787 Y142.787 E.68755
G1 X112.213 Y142.787 E.24609
M73 P6 R5
G1 X112.213 Y127.213 E.68755
G1 X117.727 Y127.213 E.24345
G1 X118.364 Y126.636 F30000
G1 F3000
G1 X118.364 Y143.364 E.7385
G1 X111.636 Y143.364 E.29705
G1 X111.636 Y126.636 E.7385
G1 X118.304 Y126.636 E.2944
G1 X118.941 Y126.059 F30000
G1 F3000
G1 X118.941 Y143.941 E.78945
G1 X111.059 Y143.941 E.348
G1 X111.059 Y126.059 E.78945
G1 X118.881 Y126.059 E.34535
G1 X119.54 Y125.46 F30000
;TYPE:Outer wall
G1 F3000
G1 X119.54 Y144.54 E.8423
G1 X110.46 Y144.54 E.40084
M73 P7 R5
G1 X110.46 Y125.46 E.8423
G1 X119.48 Y125.46 E.39819
G1 E-.8 F1800
G1 X117.643 Y128.541 Z.6 F30000
G1 Z.2
G1 E.8 F1800
;TYPE:Bottom surface
;WIDTH:0.628053
G1 F6300
G1 X116.719 Y127.617 E.04911
G1 X115.892 Y127.617 E.02844
G1 X117.383 Y129.108 E.08444
G1 X117.383 Y129.936 E.02844
G1 X115.064 Y127.617 E.1364
G1 X114.237 Y127.617 E.02844
G1 X117.383 Y130.763 E.1885
G1 X117.383 Y131.591 E.02844
G1 X113.409 Y127.617 E.24106
G1 X112.617 Y127.617 E.02697
G1 X112.617 Y127.652 E.00014
G1 X117.383 Y132.418 E.29242
G1 X117.383 Y133.246 E.02844
G1 X112.617 Y128.479 E.29242
G1 X112.617 Y129.307 E.02844
G1 X117.383 Y134.073 E.29242
G1 X117.383 Y134.901 E.02844
G1 X112.617 Y130.134 E.29242
G1 X112.617 Y130.962 E.02844
G1 X117.383 Y135.728 E.29242
G1 X117.383 Y136.556 E.02844
M73 P8 R5
G1 X112.617 Y131.789 E.29242
G1 X112.617 Y132.617 E.02844
G1 X117.383 Y137.383 E.29242
G1 X117.383 Y138.211 E.02844
G1 X112.617 Y133.444 E.29242
G1 X112.617 Y134.272 E.02844
G1 X117.383 Y139.038 E.29242
G1 X117.383 Y139.866 E.02844
G1 X112.617 Y135.099 E.29242
G1 X112.617 Y135.927 E.02844
G1 X117.383 Y140.693 E.29242
G1 X117.383 Y141.521 E.02844
G1 X112.617 Y136.754 E.29242
G1 X112.617 Y137.582 E.02844
G1 X117.383 Y142.348 E.29242
G1 X117.383 Y142.383 E.00014
G1 X116.591 Y142.383 E.02697
G1 X112.617 Y138.409 E.24105
G1 X112.617 Y139.237 E.02844
G1 X115.763 Y142.383 E.18849
G1 X114.936 Y142.383 E.02844
G1 X112.617 Y140.064 E.1364
G1 X112.617 Y140.892 E.02844
G1 X114.108 Y142.383 E.08443
G1 X113.281 Y142.383 E.02844
G1 X112.357 Y141.46 E.0491
; stop printing object Part Studio 1 - Part 1 (14).step id:0 copy 0
;LAYER_CHANGE
;Z:0.4
;HEIGHT:0.2
;BEFORE_LAYER_CHANGE
;0.4
G92 E0

EXCLUDE_OBJECT_END NAME=Part_Studio_1_-_Part_1_14_.step_id_0_copy_0
 ; timelapse without wipe tower
TIMELAPSE_TAKE_FRAME

G92 E0
SET_PRINT_STATS_INFO CURRENT_LAYER=2
;_SET_FAN_SPEED_CHANGING_LAYER
SET_VELOCITY_LIMIT ACCEL=10000
M140 S100 ; set bed temperature
; printing object Part Studio 1 - Part 1 (14).step id:0 copy 0
G1 E-.8 F1800
EXCLUDE_OBJECT_START NAME=Part_Studio_1_-_Part_1_14_.step_id_0_copy_0
G1 X152.063 Y127.063 Z.4 F30000
G1 E.8 F1800
SET_VELOCITY_LIMIT ACCEL=5000
;TYPE:Inner wall
;WIDTH:0.619999
G1 F12431.423
G1 X157.937 Y127.063 E.25934
G1 X157.937 Y142.937 E.70079
G1 X152.063 Y142.937 E.25934
G1 X152.063 Y127.123 E.69814
SET_VELOCITY_LIMIT ACCEL=10000
G1 X151.486 Y126.486 F30000
M73 P9 R5
SET_VELOCITY_LIMIT ACCEL=5000
G1 F12431.423
G1 X158.514 Y126.486 E.31029
G1 X158.514 Y143.514 E.75174
G1 X151.486 Y143.514 E.31029
G1 X151.486 Y126.546 E.7491
SET_VELOCITY_LIMIT ACCEL=10000
G1 X150.909 Y125.909 F30000
SET_VELOCITY_LIMIT ACCEL=5000
G1 F12431.423
G1 X159.091 Y125.909 E.36124
G1 X159.091 Y144.091 E.8027
G1 X150.909 Y144.091 E.36124
G1 X150.909 Y125.969 E.80005
SET_VELOCITY_LIMIT ACCEL=10000
G1 X150.31 Y125.31 F30000
SET_VELOCITY_LIMIT ACCEL=3000
;TYPE:Outer wall
G1 F12000
G1 X159.69 Y125.31 E.41409
G1 X159.69 Y144.69 E.85554
G1 X150.31 Y144.69 E.41409
G1 X150.31 Y125.37 E.85289
SET_VELOCITY_LIMIT ACCEL=10000
G1 E-.8 F1800
G1 X152.698 Y127.592 F30000
G1 E.8 F1800
;TYPE:Internal solid infill
;WIDTH:0.658596
G1 F11652.092
G1 X152.621 Y127.592 E.0007
G1 X152.582 Y127.659 E.0007
G1 X152.621 Y127.726 E.0007
G1 X152.698 Y127.726 E.0007
G1 X152.706 Y127.711 E.00003
G1 X157.241 Y142.082 F30000
;WIDTH:0.974054
G1 F7704.49
G1 X157.125 Y142.082 E.00236
G1 X157.067 Y142.183 E.00236
G1 X157.125 Y142.284 E.00236
G1 X157.241 Y142.284 E.00236
G1 X157.27 Y142.235 E.00057
G1 X155.671 Y142.706 F30000
;WIDTH:0.625246
G1 F12319.411
G1 X157.447 Y140.931 E.10176
G1 X157.447 Y140.107 E.02814
G1 X155.107 Y142.447 E.13701
G1 X154.284 Y142.447 E.02814
G1 X157.447 Y139.284 E.18861
G1 X157.447 Y138.46 E.02814
G1 X153.46 Y142.447 E.24068
G1 X152.637 Y142.447 E.02814
G1 X157.447 Y137.637 E.29384
G1 X157.447 Y136.813 E.02814
G1 X152.553 Y141.707 E.2993
G1 X152.553 Y140.883 E.02814
G1 X157.447 Y135.99 E.2993
G1 X157.447 Y135.166 E.02814
G1 X152.553 Y140.06 E.2993
G1 X152.553 Y139.236 E.02814
G1 X157.447 Y134.343 E.2993
G1 X157.447 Y133.519 E.02814
G1 X152.553 Y138.413 E.2993
G1 X152.553 Y137.589 E.02814
G1 X157.447 Y132.696 E.2993
G1 X157.447 Y131.872 E.02814
G1 X152.553 Y136.766 E.2993
G1 X152.553 Y135.942 E.02814
G1 X157.447 Y131.049 E.2993
G1 X157.447 Y130.225 E.02814
G1 X152.553 Y135.119 E.2993
G1 X152.553 Y134.295 E.02814
G1 X157.447 Y129.402 E.2993
G1 X157.447 Y128.578 E.02814
G1 X152.553 Y133.472 E.2993
G1 X152.553 Y132.648 E.02814
G1 X157.447 Y127.754 E.2993
G1 X157.447 Y127.553 E.004
G1 X156.825 Y127.553 E.01979
G1 X152.553 Y131.825 E.25894
G1 X152.553 Y131.001 E.02814
G1 X156.001 Y127.553 E.20651
G1 X155.177 Y127.553 E.02814
G1 X152.553 Y130.177 E.15485
G1 X152.553 Y129.354 E.02814
G1 X154.354 Y127.553 E.10333
G1 X153.53 Y127.553 E.02814
G1 X152.294 Y128.79 E.06817
G1 E-.8 F1800
G1 X117.937 Y127.063 F30000
G1 E.8 F1800
SET_VELOCITY_LIMIT ACCEL=5000
;TYPE:Inner wall
;WIDTH:0.619999
G1 F12431.423
G1 X117.937 Y142.937 E.70079
G1 X112.063 Y142.937 E.25934
G1 X112.063 Y127.063 E.70079
G1 X117.877 Y127.063 E.25669
SET_VELOCITY_LIMIT ACCEL=10000
G1 X118.514 Y126.486 F30000
M73 P10 R5
SET_VELOCITY_LIMIT ACCEL=5000
G1 F12431.423
G1 X118.514 Y143.514 E.75174
G1 X111.486 Y143.514 E.31029
G1 X111.486 Y126.486 E.75174
G1 X118.454 Y126.486 E.30764
SET_VELOCITY_LIMIT ACCEL=10000
G1 X119.091 Y125.909 F30000
SET_VELOCITY_LIMIT ACCEL=5000
G1 F12431.423
G1 X119.091 Y144.091 E.8027
G1 X110.909 Y144.091 E.36124
G1 X110.909 Y125.909 E.8027
G1 X119.031 Y125.909 E.35859
SET_VELOCITY_LIMIT ACCEL=10000
G1 X119.69 Y125.31 F30000
SET_VELOCITY_LIMIT ACCEL=3000
;TYPE:Outer wall
G1 F12000
G1 X119.69 Y144.69 E.85554
G1 X110.31 Y144.69 E.41409
G1 X110.31 Y125.31 E.85554
G1 X119.63 Y125.31 E.41144
SET_VELOCITY_LIMIT ACCEL=10000
G1 E-.8 F1800
G1 X112.698 Y127.592 F30000
G1 E.8 F1800
;TYPE:Internal solid infill
;WIDTH:0.6586
G1 F11652.017
G1 X112.621 Y127.592 E.0007
G1 X112.582 Y127.659 E.0007
G1 X112.621 Y127.726 E.0007
G1 X112.698 Y127.726 E.0007
G1 X112.706 Y127.711 E.00003
G1 X117.241 Y142.082 F30000
;WIDTH:0.974054
G1 F7704.49
G1 X117.125 Y142.082 E.00236
G1 X117.067 Y142.183 E.00236
G1 X117.125 Y142.284 E.00236
G1 X117.241 Y142.284 E.00236
G1 X117.27 Y142.235 E.00057
G1 X115.671 Y142.706 F30000
;WIDTH:0.625246
G1 F12319.411
G1 X117.447 Y140.931 E.10176
G1 X117.447 Y140.107 E.02814
G1 X115.107 Y142.447 E.13701
G1 X114.284 Y142.447 E.02814
G1 X117.447 Y139.284 E.18861
G1 X117.447 Y138.46 E.02814
G1 X113.46 Y142.447 E.24068
G1 X112.637 Y142.447 E.02814
G1 X117.447 Y137.637 E.29384
G1 X117.447 Y136.813 E.02814
G1 X112.553 Y141.707 E.2993
G1 X112.553 Y140.883 E.02814
G1 X117.447 Y135.99 E.2993
G1 X117.447 Y135.166 E.02814
G1 X112.553 Y140.06 E.2993
G1 X112.553 Y139.236 E.02814
G1 X117.447 Y134.343 E.2993
G1 X117.447 Y133.519 E.02814
G1 X112.553 Y138.413 E.2993
G1 X112.553 Y137.589 E.02814
G1 X117.447 Y132.696 E.2993
G1 X117.447 Y131.872 E.02814
G1 X112.553 Y136.766 E.2993
G1 X112.553 Y135.942 E.02814
G1 X117.447 Y131.049 E.2993
G1 X117.447 Y130.225 E.02814
G1 X112.553 Y135.119 E.2993
G1 X112.553 Y134.295 E.02814
G1 X117.447 Y129.402 E.2993
G1 X117.447 Y128.578 E.02814
G1 X112.553 Y133.472 E.2993
G1 X112.553 Y132.648 E.02814
G1 X117.447 Y127.754 E.2993
G1 X117.447 Y127.553 E.004
G1 X116.825 Y127.553 E.01979
G1 X112.553 Y131.825 E.25894
G1 X112.553 Y131.001 E.02814
G1 X116.001 Y127.553 E.20651
G1 X115.177 Y127.553 E.02814
G1 X112.553 Y130.177 E.15485
G1 X112.553 Y129.354 E.02814
G1 X114.354 Y127.553 E.10333
G1 X113.53 Y127.553 E.02814
G1 X112.294 Y128.79 E.06817
; stop printing object Part Studio 1 - Part 1 (14).step id:0 copy 0
;LAYER_CHANGE
;Z:0.6
;HEIGHT:0.2
;BEFORE_LAYER_CHANGE
;0.6
G92 E0

EXCLUDE_OBJECT_END NAME=Part_Studio_1_-_Part_1_14_.step_id_0_copy_0
 ; timelapse without wipe tower
TIMELAPSE_TAKE_FRAME

G92 E0
SET_PRINT_STATS_INFO CURRENT_LAYER=3
;_SET_FAN_SPEED_CHANGING_LAYER
; printing object Part Studio 1 - Part 1 (14).step id:0 copy 0
G1 E-.8 F1800
EXCLUDE_OBJECT_START NAME=Part_Studio_1_-_Part_1_14_.step_id_0_copy_0
G1 X152.063 Y127.063 Z.6 F30000
G1 E.8 F1800
SET_VELOCITY_LIMIT ACCEL=5000
;TYPE:Inner wall
;WIDTH:0.619999
G1 F12431.423
G1 X157.937 Y127.063 E.25934
G1 X157.937 Y142.937 E.70079
G1 X152.063 Y142.937 E.25934
G1 X152.063 Y127.123 E.69814
SET_VELOCITY_LIMIT ACCEL=10000
G1 X151.486 Y126.486 F30000
M73 P11 R5
SET_VELOCITY_LIMIT ACCEL=5000
G1 F12431.423
G1 X158.514 Y126.486 E.31029
G1 X158.514 Y143.514 E.75174
G1 X151.486 Y143.514 E.31029
G1 X151.486 Y126.546 E.7491
SET_VELOCITY_LIMIT ACCEL=10000
G1 X150.909 Y125.909 F30000
SET_VELOCITY_LIMIT ACCEL=5000
G1 F12431.423
G1 X159.091 Y125.909 E.36124
G1 X159.091 Y144.091 E.8027
G1 X150.909 Y144.091 E.36124
G1 X150.909 Y125.969 E.80005
SET_VELOCITY_LIMIT ACCEL=10000
G1 X150.31 Y125.31 F30000
SET_VELOCITY_LIMIT ACCEL=3000
;TYPE:Outer wall
G1 F12000
G1 X159.69 Y125.31 E.41409
G1 X159.69 Y144.69 E.85554
G1 X150.31 Y144.69 E.41409
G1 X150.31 Y125.37 E.85289
SET_VELOCITY_LIMIT ACCEL=10000
G1 E-.8 F1800
G1 X157.241 Y127.716 F30000
G1 E.8 F1800
;TYPE:Internal solid infill
;WIDTH:0.974054
G1 F7704.49
G1 X157.125 Y127.716 E.00236
G1 X157.067 Y127.817 E.00236
G1 X157.125 Y127.918 E.00236
G1 X157.241 Y127.918 E.00236
G1 X157.27 Y127.869 E.00057
G1 X157.706 Y129.329 F30000
;WIDTH:0.625246
G1 F12319.411
G1 X155.931 Y127.553 E.10176
G1 X155.107 Y127.553 E.02814
G1 X157.447 Y129.893 E.13701
G1 X157.447 Y130.716 E.02814
G1 X154.284 Y127.553 E.18861
G1 X153.46 Y127.553 E.02814
G1 X157.447 Y131.54 E.24068
G1 X157.447 Y132.363 E.02814
G1 X152.637 Y127.553 E.29384
G1 X152.553 Y127.553 E.00078
G1 X152.553 Y128.293 E.02466
G1 X157.447 Y133.187 E.2993
G1 X157.447 Y134.01 E.02814
G1 X152.553 Y129.117 E.2993
G1 X152.553 Y129.94 E.02814
G1 X157.447 Y134.834 E.2993
G1 X157.447 Y135.657 E.02814
G1 X152.553 Y130.764 E.2993
G1 X152.553 Y131.587 E.02814
G1 X157.447 Y136.481 E.2993
G1 X157.447 Y137.304 E.02814
G1 X152.553 Y132.411 E.2993
G1 X152.553 Y133.234 E.02814
G1 X157.447 Y138.128 E.2993
G1 X157.447 Y138.951 E.02814
G1 X152.553 Y134.058 E.2993
G1 X152.553 Y134.881 E.02814
G1 X157.447 Y139.775 E.2993
G1 X157.447 Y140.598 E.02814
G1 X152.553 Y135.705 E.2993
G1 X152.553 Y136.528 E.02814
G1 X157.447 Y141.422 E.2993
G1 X157.447 Y142.246 E.02814
G1 X152.553 Y137.352 E.2993
G1 X152.553 Y138.175 E.02814
G1 X156.825 Y142.447 E.25894
G1 X156.001 Y142.447 E.02814
G1 X152.553 Y138.999 E.20651
G1 X152.553 Y139.823 E.02814
G1 X155.177 Y142.447 E.15485
G1 X154.354 Y142.447 E.02814
G1 X152.553 Y140.646 E.10333
G1 X152.553 Y141.47 E.02814
G1 X153.79 Y142.706 E.06817
G1 X152.698 Y142.274 F30000
;WIDTH:0.658598
G1 F11652.053
G1 X152.621 Y142.274 E.0007
G1 X152.582 Y142.341 E.0007
G1 X152.621 Y142.408 E.0007
G1 X152.698 Y142.408 E.0007
