; HEADER_BLOCK_START
; generated by OrcaSlicer 2.3.0 on 2025-09-08 at 21:10:19
; total layer number: 905
;_GP_TOTAL_LAYER_NUMBER_PLACEHOLDER
; filament_density: 1.02,1.24,1.24,1.24,1.24,1.24
; filament_diameter: 1.75,1.75,1.75,1.75,1.75,1.75
; max_z_height: 181.00
; HEADER_BLOCK_END

; THUMBNAIL_BLOCK_START

;
; THUMBNAIL_BLOCK_END

; external perimeters extrusion width = 0.42mm
; perimeters extrusion width = 0.45mm
; infill extrusion width = 0.45mm
; solid infill extrusion width = 0.42mm
; top infill extrusion width = 0.42mm
; first layer extrusion width = 0.50mm

; EXECUTABLE_BLOCK_START
EXCLUDE_OBJECT_DEFINE NAME=PURGE_BIN_QIDI_Q2_v2.stl_id_0_copy_0 CENTER=135,135 POLYGON=[[11.7,58.95],[258.3,58.95],[258.3,180.15],[258.183,180.433],[228.183,210.433],[227.9,210.65],[221.5,211.05],[203.779,211.05],[197.1,210.65],[11.7,140.55],[11.7,58.95]]
M73 P0 R176
M106 S0
M106 P2 S0
;TYPE:Custom
PRINT_START BED=100 HOTEND=260 CHAMBER=60 EXTRUDER=0
SET_PRINT_STATS_INFO TOTAL_LAYER=905
M83
M140 S100
M104 S260
M141 S60
G4 P3000
T0
G1 X108.000 Y1 F30000
G0 Z0.2 F600
;G1 E3 F1800
G90
M83
G0 X128 E8  F904.991
G0 X133 E.3742  F1508.32
G0 X138 E.3742  F6033.27
G0 X143 E.3742  F1508.32
G0 X148 E.3742  F6033.27
G0 X153 E.3742  F1508.32
G91
G1 X1 Z-0.300
G1 X4
G1 Z1 F1200
G90
M400
G1 X108.000 Y2.5 F30000
G0 Z0.2 F600
M83
G0 X128 E10  F904.991
G0 X133 E.3742  F1508.32
G0 X138 E.3742  F6033.27
G0 X143 E.3742  F1508.32
G0 X148 E.3742  F6033.27
G0 X153 E.3742  F1508.32
G91
G1 X1 Z-0.300
G1 X4
G1 Z1 F1200
G90
M400
G1 Z1 F600
M106 P3 S178
G90
G21
M83 ; use relative distances for extrusion
; Filament gcode
SET_PRESSURE_ADVANCE ADVANCE=0.025; Override pressure advance value
T0
M106 P2 S0
;LAYER_CHANGE
;Z:0.2
;HEIGHT:0.2
;BEFORE_LAYER_CHANGE
;0.2
G92 E0

G1 E-.8 F1800
 ; timelapse without wipe tower
TIMELAPSE_TAKE_FRAME

G92 E0
SET_PRINT_STATS_INFO CURRENT_LAYER=1
;_SET_FAN_SPEED_CHANGING_LAYER
SET_VELOCITY_LIMIT ACCEL=500
G1 Z.6 F30000
G1 X30.468 Y56.721
G1 Z.2
G1 E.8 F1800
;TYPE:Skirt
;WIDTH:0.5
G1 F3000
G1 X258.3 Y56.721 E8.22609
G1 X259.561 Y57.112 E.04767
G1 X260.379 Y58.148 E.04767
G1 X260.529 Y58.95 E.02944
G1 X260.529 Y180.15 E4.37605
G1 X260.359 Y181.003 E.03139
G1 X259.759 Y182.009 E.04229
G1 X229.759 Y212.009 E1.53185
G1 X229.257 Y212.418 E.02337
G1 X227.9 Y212.879 E.05175
G1 X197.1 Y212.879 E1.11207
G1 X196.312 Y212.735 E.02893
G1 X10.912 Y142.635 E7.15657
G1 X9.871 Y141.823 E.04767
G1 X9.471 Y140.55 E.04816
G1 X9.471 Y58.95 E2.94625
G1 X9.862 Y57.689 E.04767
G1 X10.898 Y56.871 E.04767
G1 X11.7 Y56.721 E.02944
G1 X30.428 Y56.721 E.67621
; printing object PURGE BIN QIDI Q2 v2.stl id:0 copy 0
G1 E-.56 F1800
;WIPE_START
G1 F3000
G1 X31.428 Y56.721 E-.24
;WIPE_END
EXCLUDE_OBJECT_START NAME=PURGE_BIN_QIDI_Q2_v2.stl_id_0_copy_0
G1 Z.6 F30000
G1 X197.875 Y140.127 Z.6
G1 Z.2
G1 E.8 F1800
;TYPE:Inner wall
;WIDTH:0.499999
G1 F3000
G1 X197.768 Y139.819 E.01176
G1 X197.519 Y139.514 E.01423
G1 X197.168 Y139.307 E.01469
G1 X196.771 Y139.236 E.01455
G1 X13.014 Y139.236 E6.63473
G1 X13.014 Y60.264 E2.85135
G1 X256.986 Y60.264 E8.80883
G1 X256.986 Y179.237 E4.29563
G1 X256.869 Y179.295 E.0047
G1 X256.73 Y179.541 E.01021
G1 X256.567 Y180.026 E.01845
G1 X256.608 Y180.149 E.0047
G1 X227.899 Y208.858 E1.46592
G1 X227.776 Y208.817 E.0047
G1 X227.503 Y208.892 E.01021
G1 X227.042 Y209.122 E.0186
G1 X226.935 Y209.336 E.00863
G1 X198.148 Y209.336 E1.03939
G1 X198.079 Y209.171 E.00646
G1 X197.914 Y209.102 E.00646
G1 X197.914 Y140.241 E2.48631
G1 X197.888 Y140.165 E.0029
G1 X197.457 Y140.345 F30000
G1 F3000
G1 X197.457 Y140.269 E.00275
G1 X197.315 Y139.961 E.01225
G1 X197.07 Y139.761 E.01142
G1 X196.771 Y139.693 E.01105
G1 X12.557 Y139.693 E6.65124
G1 X12.557 Y59.807 E2.88436
M73 P0 R175
G1 X257.443 Y59.807 E8.84184
G1 X257.443 Y179.465 E4.32035
G1 X257.236 Y179.569 E.00837
G1 X257.152 Y179.716 E.00613
G1 X257.019 Y180.091 E.01437
G1 X257.092 Y180.311 E.00837
G1 X228.061 Y209.342 E1.48236
G1 X227.841 Y209.269 E.00837
G1 X227.678 Y209.314 E.00613
G1 X227.317 Y209.487 E.01446
G1 X227.164 Y209.793 E.01233
G1 X197.88 Y209.793 E1.05732
G1 X197.756 Y209.494 E.01169
G1 X197.457 Y209.37 E.01169
G1 X197.457 Y140.385 E2.49076
G1 X197 Y140.379 F30000
;TYPE:Outer wall
G1 F3000
G1 X196.936 Y140.219 E.0062
G1 X196.771 Y140.15 E.00643
G1 X12.1 Y140.15 E6.66774
G1 X12.1 Y59.35 E2.91736
G1 X257.9 Y59.35 E8.87484
G1 X257.9 Y179.75 E4.34716
G1 X257.785 Y179.75 E.00414
G1 X257.602 Y179.842 E.0074
G1 X257.472 Y180.157 E.01233
G1 X257.536 Y180.352 E.0074
G1 X257.617 Y180.433 E.00414
G1 X228.183 Y209.867 E1.50296
G1 X228.102 Y209.786 E.00414
G1 X227.907 Y209.722 E.0074
G1 X227.591 Y209.853 E.01235
G1 X227.5 Y210.035 E.00737
G1 X227.5 Y210.25 E.00775
G1 X197.5 Y210.25 E1.08318
G1 X197.5 Y209.979 E.0098
G1 X197.433 Y209.817 E.00632
G1 X197.271 Y209.75 E.00632
G1 X197 Y209.75 E.0098
G1 X197 Y140.419 E2.50328
G1 E-.56 F1800
;WIPE_START
G1 F3000
G1 X196.936 Y140.219 E-.05023
G1 X196.771 Y140.15 E-.04276
G1 X196.159 Y140.15 E-.14702
;WIPE_END
G1 Z.6 F30000
G1 X255.923 Y60.401 Z.6
G1 Z.2
G1 E.8 F1800
;TYPE:Bottom surface
;WIDTH:0.500816
G1 F6300
G1 X256.643 Y61.121 E.03683
G1 X256.643 Y61.769 E.02342
G1 X255.481 Y60.607 E.05943
G1 X254.834 Y60.607 E.02342
G1 X256.643 Y62.416 E.09256
G1 X256.643 Y63.064 E.02342
G1 X254.186 Y60.607 E.12568
G1 X253.538 Y60.607 E.02342
G1 X256.643 Y63.712 E.15881
G1 X256.643 Y64.359 E.02342
G1 X252.891 Y60.607 E.19193
G1 X252.243 Y60.607 E.02342
G1 X256.643 Y65.007 E.22506
G1 X256.643 Y65.654 E.02342
G1 X251.596 Y60.607 E.25818
G1 X250.948 Y60.607 E.02342
G1 X256.643 Y66.302 E.29131
G1 X256.643 Y66.949 E.02342
G1 X250.301 Y60.607 E.32443
G1 X249.653 Y60.607 E.02342
G1 X256.643 Y67.597 E.35756
G1 X256.643 Y68.244 E.02342
G1 X249.006 Y60.607 E.39068
G1 X248.358 Y60.607 E.02342
G1 X256.643 Y68.892 E.42381
G1 X256.643 Y69.54 E.02342
G1 X247.71 Y60.607 E.45693
G1 X247.063 Y60.607 E.02342
G1 X256.643 Y70.187 E.49005
G1 X256.643 Y70.835 E.02342
G1 X246.415 Y60.607 E.52318
G1 X245.768 Y60.607 E.02342
G1 X256.643 Y71.482 E.5563
G1 X256.643 Y72.13 E.02342
G1 X245.12 Y60.607 E.58943
G1 X244.473 Y60.607 E.02342
G1 X256.643 Y72.777 E.62255
G1 X256.643 Y73.425 E.02342
G1 X243.825 Y60.607 E.65568
G1 X243.177 Y60.607 E.02342
G1 X256.643 Y74.073 E.6888
G1 X256.643 Y74.72 E.02342
G1 X242.53 Y60.607 E.72193
G1 X241.882 Y60.607 E.02342
G1 X256.643 Y75.368 E.75505
G1 X256.643 Y76.015 E.02342
G1 X241.235 Y60.607 E.78818
G1 X240.587 Y60.607 E.02342
G1 X256.643 Y76.663 E.8213
G1 X256.643 Y77.31 E.02342
G1 X239.94 Y60.607 E.85443
G1 X239.292 Y60.607 E.02342
G1 X256.643 Y77.958 E.88755
G1 X256.643 Y78.605 E.02342
G1 X238.645 Y60.607 E.92068
G1 X237.997 Y60.607 E.02342
G1 X256.643 Y79.253 E.9538
G1 X256.643 Y79.901 E.02342
G1 X237.349 Y60.607 E.98692
G1 X236.702 Y60.607 E.02342
G1 X256.643 Y80.548 E1.02005
G1 X256.643 Y81.196 E.02342
G1 X236.054 Y60.607 E1.05317
G1 X235.407 Y60.607 E.02342
G1 X256.643 Y81.843 E1.0863
G1 X256.643 Y82.491 E.02342
G1 X234.759 Y60.607 E1.11942
G1 X234.112 Y60.607 E.02342
G1 X256.643 Y83.138 E1.15255
G1 X256.643 Y83.786 E.02342
G1 X233.464 Y60.607 E1.18567
G1 X232.816 Y60.607 E.02342
G1 X256.643 Y84.434 E1.2188
G1 X256.643 Y85.081 E.02342
G1 X232.169 Y60.607 E1.25192
G1 X231.521 Y60.607 E.02342
G1 X256.643 Y85.729 E1.28505
G1 X256.643 Y86.376 E.02342
G1 X230.874 Y60.607 E1.31817
G1 X230.226 Y60.607 E.02342
G1 X256.643 Y87.024 E1.3513
G1 X256.643 Y87.671 E.02342
G1 X229.579 Y60.607 E1.38442
G1 X228.931 Y60.607 E.02342
G1 X256.643 Y88.319 E1.41755
G1 X256.643 Y88.966 E.02342
G1 X228.284 Y60.607 E1.45067
G1 X227.636 Y60.607 E.02342
G1 X256.643 Y89.614 E1.48379
G1 X256.643 Y90.262 E.02342
G1 X226.988 Y60.607 E1.51692
G1 X226.341 Y60.607 E.02342
G1 X256.643 Y90.909 E1.55004
G1 X256.643 Y91.557 E.02342
G1 X225.693 Y60.607 E1.58317
G1 X225.046 Y60.607 E.02342
G1 X256.643 Y92.204 E1.61629
G1 X256.643 Y92.852 E.02342
G1 X224.398 Y60.607 E1.64942
G1 X223.751 Y60.607 E.02342
G1 X256.643 Y93.499 E1.68254
G1 X256.643 Y94.147 E.02342
G1 X223.103 Y60.607 E1.71567
G1 X222.455 Y60.607 E.02342
G1 X256.643 Y94.795 E1.74879
G1 X256.643 Y95.442 E.02342
G1 X221.808 Y60.607 E1.78192
G1 X221.16 Y60.607 E.02342
G1 X256.643 Y96.09 E1.81504
G1 X256.643 Y96.737 E.02342
G1 X220.513 Y60.607 E1.84817
G1 X219.865 Y60.607 E.02342
G1 X256.643 Y97.385 E1.88129
G1 X256.643 Y98.032 E.02342
G1 X219.218 Y60.607 E1.91441
G1 X218.57 Y60.607 E.02342
G1 X256.643 Y98.68 E1.94754
G1 X256.643 Y99.328 E.02342
G1 X217.922 Y60.607 E1.98066
G1 X217.275 Y60.607 E.02342
G1 X256.643 Y99.975 E2.01379
G1 X256.643 Y100.623 E.02342
G1 X216.627 Y60.607 E2.04691
G1 X215.98 Y60.607 E.02342
M73 P0 R174
G1 X256.643 Y101.27 E2.08004
G1 X256.643 Y101.918 E.02342
G1 X215.332 Y60.607 E2.11316
G1 X214.685 Y60.607 E.02342
G1 X256.643 Y102.565 E2.14629
G1 X256.643 Y103.213 E.02342
G1 X214.037 Y60.607 E2.17941
G1 X213.39 Y60.607 E.02342
G1 X256.643 Y103.86 E2.21254
G1 X256.643 Y104.508 E.02342
G1 X212.742 Y60.607 E2.24566
G1 X212.094 Y60.607 E.02342
M73 P1 R174
G1 X256.643 Y105.156 E2.27879
G1 X256.643 Y105.803 E.02342
G1 X211.447 Y60.607 E2.31191
G1 X210.799 Y60.607 E.02342
G1 X256.643 Y106.451 E2.34504
G1 X256.643 Y107.098 E.02342
G1 X210.152 Y60.607 E2.37816
G1 X209.504 Y60.607 E.02342
G1 X256.643 Y107.746 E2.41128
G1 X256.643 Y108.393 E.02342
G1 X208.857 Y60.607 E2.44441
G1 X208.209 Y60.607 E.02342
G1 X256.643 Y109.041 E2.47753
G1 X256.643 Y109.689 E.02342
G1 X207.561 Y60.607 E2.51066
G1 X206.914 Y60.607 E.02342
G1 X256.643 Y110.336 E2.54378
G1 X256.643 Y110.984 E.02342
G1 X206.266 Y60.607 E2.57691
G1 X205.619 Y60.607 E.02342
G1 X256.643 Y111.631 E2.61003
G1 X256.643 Y112.279 E.02342
G1 X204.971 Y60.607 E2.64316
G1 X204.324 Y60.607 E.02342
G1 X256.643 Y112.926 E2.67628
G1 X256.643 Y113.574 E.02342
G1 X203.676 Y60.607 E2.70941
G1 X203.029 Y60.607 E.02342
G1 X256.643 Y114.221 E2.74253
G1 X256.643 Y114.869 E.02342
G1 X202.381 Y60.607 E2.77566
G1 X201.733 Y60.607 E.02342
G1 X256.643 Y115.517 E2.80878
G1 X256.643 Y116.164 E.02342
G1 X201.086 Y60.607 E2.84191
G1 X200.438 Y60.607 E.02342
G1 X256.643 Y116.812 E2.87503
G1 X256.643 Y117.459 E.02342
G1 X199.791 Y60.607 E2.90815
G1 X199.143 Y60.607 E.02342
G1 X256.643 Y118.107 E2.94128
G1 X256.643 Y118.754 E.02342
G1 X198.496 Y60.607 E2.9744
G1 X197.848 Y60.607 E.02342
G1 X256.643 Y119.402 E3.00753
G1 X256.643 Y120.05 E.02342
G1 X197.2 Y60.607 E3.04065
G1 X196.553 Y60.607 E.02342
G1 X256.643 Y120.697 E3.07378
G1 X256.643 Y121.345 E.02342
G1 X195.905 Y60.607 E3.1069
G1 X195.258 Y60.607 E.02342
G1 X256.643 Y121.992 E3.14003
G1 X256.643 Y122.64 E.02342
G1 X194.61 Y60.607 E3.17315
G1 X193.963 Y60.607 E.02342
G1 X256.643 Y123.287 E3.20628
G1 X256.643 Y123.935 E.02342
G1 X193.315 Y60.607 E3.2394
G1 X192.668 Y60.607 E.02342
G1 X256.643 Y124.582 E3.27253
G1 X256.643 Y125.23 E.02342
G1 X192.02 Y60.607 E3.30565
G1 X191.372 Y60.607 E.02342
G1 X256.643 Y125.878 E3.33877
G1 X256.643 Y126.525 E.02342
G1 X190.725 Y60.607 E3.3719
G1 X190.077 Y60.607 E.02342
G1 X256.643 Y127.173 E3.40502
G1 X256.643 Y127.82 E.02342
G1 X189.43 Y60.607 E3.43815
G1 X188.782 Y60.607 E.02342
G1 X256.643 Y128.468 E3.47127
G1 X256.643 Y129.115 E.02342
G1 X188.135 Y60.607 E3.5044
G1 X187.487 Y60.607 E.02342
G1 X256.643 Y129.763 E3.53752
G1 X256.643 Y130.411 E.02342
G1 X186.839 Y60.607 E3.57065
G1 X186.192 Y60.607 E.02342
G1 X256.643 Y131.058 E3.60377
G1 X256.643 Y131.706 E.02342
G1 X185.544 Y60.607 E3.6369
G1 X184.897 Y60.607 E.02342
G1 X256.643 Y132.353 E3.67002
G1 X256.643 Y133.001 E.02342
G1 X184.249 Y60.607 E3.70315
G1 X183.602 Y60.607 E.02342
G1 X256.643 Y133.648 E3.73627
G1 X256.643 Y134.296 E.02342
G1 X182.954 Y60.607 E3.7694
G1 X182.307 Y60.607 E.02342
G1 X256.643 Y134.943 E3.80252
G1 X256.643 Y135.591 E.02342
G1 X181.659 Y60.607 E3.83564
G1 X181.011 Y60.607 E.02342
G1 X256.643 Y136.239 E3.86877
G1 X256.643 Y136.886 E.02342
G1 X180.364 Y60.607 E3.90189
G1 X179.716 Y60.607 E.02342
G1 X256.643 Y137.534 E3.93502
G1 X256.643 Y138.181 E.02342
G1 X179.069 Y60.607 E3.96814
G1 X178.421 Y60.607 E.02342
G1 X256.643 Y138.829 E4.00127
G1 X256.643 Y139.476 E.02342
M73 P1 R173
G1 X177.774 Y60.607 E4.03439
G1 X177.126 Y60.607 E.02342
G1 X256.643 Y140.124 E4.06752
G1 X256.643 Y140.772 E.02342
G1 X176.478 Y60.607 E4.10064
G1 X175.831 Y60.607 E.02342
G1 X256.643 Y141.419 E4.13377
G1 X256.643 Y142.067 E.02342
G1 X175.183 Y60.607 E4.16689
G1 X174.536 Y60.607 E.02342
G1 X256.643 Y142.714 E4.20002
G1 X256.643 Y143.362 E.02342
G1 X173.888 Y60.607 E4.23314
G1 X173.241 Y60.607 E.02342
G1 X256.643 Y144.009 E4.26626
G1 X256.643 Y144.657 E.02342
G1 X172.593 Y60.607 E4.29939
G1 X171.946 Y60.607 E.02342
G1 X256.643 Y145.304 E4.33251
G1 X256.643 Y145.952 E.02342
G1 X171.298 Y60.607 E4.36564
G1 X170.65 Y60.607 E.02342
G1 X256.643 Y146.6 E4.39876
G1 X256.643 Y147.247 E.02342
G1 X170.003 Y60.607 E4.43189
G1 X169.355 Y60.607 E.02342
G1 X256.643 Y147.895 E4.46501
G1 X256.643 Y148.542 E.02342
G1 X168.708 Y60.607 E4.49814
G1 X168.06 Y60.607 E.02342
G1 X256.643 Y149.19 E4.53126
G1 X256.643 Y149.837 E.02342
G1 X167.413 Y60.607 E4.56439
G1 X166.765 Y60.607 E.02342
G1 X256.643 Y150.485 E4.59751
G1 X256.643 Y151.133 E.02342
G1 X166.117 Y60.607 E4.63064
G1 X165.47 Y60.607 E.02342
G1 X256.643 Y151.78 E4.66376
G1 X256.643 Y152.428 E.02342
G1 X164.822 Y60.607 E4.69689
G1 X164.175 Y60.607 E.02342
G1 X256.643 Y153.075 E4.73001
G1 X256.643 Y153.723 E.02342
G1 X163.527 Y60.607 E4.76313
G1 X162.88 Y60.607 E.02342
G1 X256.643 Y154.37 E4.79626
G1 X256.643 Y155.018 E.02342
G1 X162.232 Y60.607 E4.82938
G1 X161.585 Y60.607 E.02342
G1 X256.643 Y155.665 E4.86251
G1 X256.643 Y156.313 E.02342
G1 X160.937 Y60.607 E4.89563
G1 X160.289 Y60.607 E.02342
G1 X256.643 Y156.961 E4.92876
G1 X256.643 Y157.608 E.02342
G1 X159.642 Y60.607 E4.96188
G1 X158.994 Y60.607 E.02342
G1 X256.643 Y158.256 E4.99501
G1 X256.643 Y158.903 E.02342
G1 X158.347 Y60.607 E5.02813
G1 X157.699 Y60.607 E.02342
G1 X256.643 Y159.551 E5.06126
G1 X256.643 Y160.198 E.02342
G1 X157.052 Y60.607 E5.09438
G1 X156.404 Y60.607 E.02342
G1 X256.643 Y160.846 E5.12751
G1 X256.643 Y161.494 E.02342
G1 X155.756 Y60.607 E5.16063
G1 X155.109 Y60.607 E.02342
G1 X256.643 Y162.141 E5.19376
G1 X256.643 Y162.789 E.02342
M73 P2 R173
G1 X154.461 Y60.607 E5.22688
G1 X153.814 Y60.607 E.02342
G1 X256.643 Y163.436 E5.26
G1 X256.643 Y164.084 E.02342
G1 X153.166 Y60.607 E5.29313
G1 X152.519 Y60.607 E.02342
G1 X256.643 Y164.731 E5.32625
G1 X256.643 Y165.379 E.02342
G1 X151.871 Y60.607 E5.35938
G1 X151.224 Y60.607 E.02342
G1 X256.643 Y166.026 E5.3925
G1 X256.643 Y166.674 E.02342
M73 P2 R172
G1 X150.576 Y60.607 E5.42563
G1 X149.928 Y60.607 E.02342
G1 X256.643 Y167.322 E5.45875
G1 X256.643 Y167.969 E.02342
G1 X149.281 Y60.607 E5.49188
G1 X148.633 Y60.607 E.02342
G1 X256.643 Y168.617 E5.525
G1 X256.643 Y169.264 E.02342
G1 X147.986 Y60.607 E5.55813
G1 X147.338 Y60.607 E.02342
G1 X256.643 Y169.912 E5.59125
G1 X256.643 Y170.559 E.02342
G1 X146.691 Y60.607 E5.62438
G1 X146.043 Y60.607 E.02342
G1 X256.643 Y171.207 E5.6575
G1 X256.643 Y171.855 E.02342
G1 X145.395 Y60.607 E5.69062
G1 X144.748 Y60.607 E.02342
G1 X256.643 Y172.502 E5.72375
G1 X256.643 Y173.15 E.02342
G1 X144.1 Y60.607 E5.75687
G1 X143.453 Y60.607 E.02342
G1 X256.643 Y173.797 E5.79
G1 X256.643 Y174.445 E.02342
G1 X142.805 Y60.607 E5.82312
G1 X142.158 Y60.607 E.02342
G1 X256.643 Y175.092 E5.85625
G1 X256.643 Y175.74 E.02342
G1 X141.51 Y60.607 E5.88937
G1 X140.863 Y60.607 E.02342
G1 X256.643 Y176.387 E5.9225
G1 X256.643 Y177.035 E.02342
G1 X140.215 Y60.607 E5.95562
G1 X139.567 Y60.607 E.02342
G1 X256.643 Y177.683 E5.98875
G1 X256.643 Y178.33 E.02342
G1 X138.92 Y60.607 E6.02187
G1 X138.272 Y60.607 E.02342
G1 X256.643 Y178.978 E6.055
G1 X256.643 Y179.053 E.00271
G1 X256.604 Y179.072 E.00158
G1 X256.418 Y179.4 E.01364
G1 X137.625 Y60.607 E6.0766
G1 X136.977 Y60.607 E.02342
G1 X256.253 Y179.882 E6.10128
G1 X256.221 Y179.996 E.00425
G1 X256.235 Y180.037 E.00158
G1 X255.998 Y180.275 E.01216
G1 X136.33 Y60.607 E6.12135
G1 X135.682 Y60.607 E.02342
G1 X255.674 Y180.599 E6.13791
G1 X255.35 Y180.922 E.01656
G1 X135.034 Y60.607 E6.15447
G1 X134.387 Y60.607 E.02342
