; HEADER_BLOCK_START
; generated by OrcaSlicer 2.3.1 on 2025-10-11 at 19:58:37
; total layer number: 25
; filament_density: 1.02,1.02,1.02,1.24,1.24,1.24
; filament_diameter: 1.75,1.75,1.75,1.75,1.75,1.75
; max_z_height: 5.00
; HEADER_BLOCK_END

; THUMBNAIL_BLOCK_START

;
; THUMBNAIL_BLOCK_END

; external perimeters extrusion width = 0.42mm
; perimeters extrusion width = 0.45mm
; infill extrusion width = 0.45mm
; solid infill extrusion width = 0.42mm
; top infill extrusion width = 0.42mm
; first layer extrusion width = 0.44mm

; external perimeters extrusion width = 0.42mm
; perimeters extrusion width = 0.45mm
; infill extrusion width = 0.45mm
; solid infill extrusion width = 0.42mm
; top infill extrusion width = 0.42mm
; first layer extrusion width = 0.44mm

; EXECUTABLE_BLOCK_START
EXCLUDE_OBJECT_DEFINE NAME=qidi-q2-riser-latch_1_.stl_id_0_copy_0 CENTER=135,141.6 POLYGON=[[124,141.6],[124.001,141.529],[124.004,141.401],[124.014,141.243],[124.017,141.203],[124.027,141.1],[124.039,141.006],[124.045,140.958],[124.068,140.809],[124.094,140.674],[124.107,140.614],[124.125,140.534],[124.154,140.421],[124.16,140.396],[124.209,140.23],[124.243,140.123],[124.272,140.042],[124.291,139.99],[124.343,139.856],[124.398,139.729],[124.423,139.674],[124.458,139.599],[124.51,139.496],[124.522,139.471],[124.604,139.321],[124.664,139.22],[124.706,139.15],[124.741,139.097],[124.816,138.985],[124.906,138.859],[124.932,138.824],[124.993,138.745],[125.056,138.668],[125.085,138.633],[125.186,138.518],[125.276,138.42],[125.322,138.373],[125.376,138.319],[125.464,138.234],[125.583,138.128],[125.613,138.102],[125.689,138.038],[125.766,137.976],[125.798,137.952],[125.926,137.857],[126.026,137.787],[126.09,137.745],[126.146,137.71],[126.258,137.641],[126.393,137.564],[126.432,137.543],[126.521,137.496],[126.609,137.453],[126.652,137.433],[126.79,137.371],[126.92,137.318],[126.974,137.297],[127.057,137.267],[127.161,137.231],[127.195,137.22],[127.351,137.173],[127.475,137.14],[127.544,137.123],[127.615,137.107],[127.738,137.081],[127.897,137.054],[127.934,137.048],[128.038,137.035],[128.131,137.024],[128.178,137.019],[128.329,137.008],[128.455,137.002],[128.528,137.001],[128.6,137],[141.4,137],[141.472,137.001],[141.541,137.002],[141.671,137.008],[141.823,137.019],[141.869,137.024],[141.965,137.035],[142.066,137.048],[142.107,137.055],[142.262,137.081],[142.392,137.108],[142.456,137.123],[142.534,137.142],[142.649,137.173],[142.674,137.18],[142.839,137.231],[142.952,137.27],[143.026,137.297],[143.089,137.321],[143.21,137.371],[143.355,137.436],[143.391,137.453],[143.485,137.5],[143.568,137.543],[143.612,137.566],[143.742,137.641],[143.856,137.711],[143.91,137.745],[143.974,137.787],[144.075,137.857],[144.199,137.95],[144.234,137.976],[144.309,138.037],[144.387,138.102],[144.417,138.127],[144.536,138.234],[144.626,138.321],[144.678,138.373],[144.726,138.423],[144.814,138.518],[144.919,138.637],[144.944,138.668],[145.01,138.749],[145.068,138.824],[145.098,138.864],[145.184,138.985],[145.263,139.102],[145.294,139.15],[145.339,139.224],[145.396,139.321],[145.411,139.348],[145.49,139.496],[145.543,139.6],[145.577,139.674],[145.602,139.728],[145.657,139.856],[145.709,139.99],[145.728,140.042],[145.757,140.125],[145.791,140.23],[145.801,140.261],[145.846,140.421],[145.876,140.538],[145.893,140.614],[145.907,140.679],[145.932,140.809],[145.956,140.962],[145.961,141.006],[145.973,141.104],[145.983,141.203],[145.986,141.246],[145.996,141.401],[145.999,141.529],[146,141.6],[145.999,141.671],[145.996,141.799],[145.986,141.957],[145.983,141.997],[145.973,142.1],[145.961,142.194],[145.955,142.242],[145.932,142.391],[145.906,142.526],[145.893,142.586],[145.875,142.666],[145.846,142.779],[145.84,142.804],[145.791,142.97],[145.757,143.077],[145.728,143.158],[145.709,143.21],[145.657,143.344],[145.602,143.471],[145.577,143.526],[145.542,143.601],[145.49,143.704],[145.478,143.729],[145.396,143.879],[145.336,143.98],[145.294,144.05],[145.259,144.103],[145.184,144.215],[145.094,144.341],[145.068,144.376],[145.007,144.455],[144.944,144.532],[144.915,144.567],[144.814,144.682],[144.724,144.78],[144.678,144.827],[144.624,144.881],[144.536,144.966],[144.417,145.072],[144.387,145.098],[144.311,145.162],[144.234,145.224],[144.202,145.248],[144.075,145.343],[143.974,145.413],[143.91,145.455],[143.854,145.49],[143.742,145.559],[143.607,145.636],[143.568,145.657],[143.478,145.704],[143.391,145.747],[143.348,145.767],[143.21,145.829],[143.08,145.882],[143.026,145.903],[142.943,145.933],[142.839,145.969],[142.805,145.98],[142.649,146.027],[142.525,146.06],[142.456,146.077],[142.385,146.093],[142.262,146.119],[142.103,146.146],[142.066,146.152],[141.962,146.165],[141.869,146.176],[141.822,146.181],[141.671,146.192],[141.545,146.198],[141.472,146.199],[141.4,146.2],[128.6,146.2],[128.528,146.199],[128.459,146.198],[128.329,146.192],[128.177,146.181],[128.131,146.176],[128.035,146.165],[127.934,146.152],[127.893,146.145],[127.738,146.119],[127.608,146.092],[127.544,146.077],[127.466,146.058],[127.351,146.027],[127.326,146.02],[127.161,145.969],[127.048,145.93],[126.974,145.903],[126.911,145.879],[126.79,145.829],[126.645,145.764],[126.609,145.747],[126.515,145.7],[126.432,145.657],[126.388,145.634],[126.258,145.559],[126.144,145.489],[126.09,145.455],[126.027,145.413],[125.926,145.343],[125.801,145.25],[125.766,145.224],[125.691,145.163],[125.613,145.098],[125.583,145.073],[125.464,144.966],[125.374,144.879],[125.322,144.827],[125.274,144.777],[125.186,144.682],[125.081,144.563],[125.056,144.532],[124.99,144.451],[124.932,144.376],[124.902,144.336],[124.816,144.215],[124.737,144.098],[124.706,144.05],[124.661,143.976],[124.604,143.879],[124.589,143.852],[124.51,143.704],[124.457,143.6],[124.423,143.526],[124.398,143.472],[124.343,143.344],[124.291,143.21],[124.272,143.158],[124.243,143.075],[124.209,142.97],[124.199,142.939],[124.154,142.779],[124.124,142.662],[124.107,142.586],[124.093,142.521],[124.068,142.391],[124.044,142.238],[124.039,142.194],[124.027,142.096],[124.017,141.997],[124.014,141.954],[124.004,141.799],[124.001,141.671],[124,141.6]]
EXCLUDE_OBJECT_DEFINE NAME=qidi-q2-riser-latch_1_.stl_id_1_copy_0 CENTER=135,128.4 POLYGON=[[124,128.4],[124.001,128.329],[124.004,128.201],[124.014,128.043],[124.017,128.003],[124.027,127.9],[124.039,127.806],[124.045,127.758],[124.068,127.609],[124.094,127.474],[124.107,127.414],[124.125,127.334],[124.154,127.221],[124.16,127.196],[124.209,127.03],[124.243,126.923],[124.272,126.842],[124.291,126.79],[124.343,126.656],[124.398,126.529],[124.423,126.474],[124.458,126.399],[124.51,126.296],[124.522,126.271],[124.604,126.121],[124.664,126.02],[124.706,125.95],[124.741,125.897],[124.816,125.785],[124.906,125.659],[124.932,125.624],[124.993,125.545],[125.056,125.468],[125.085,125.433],[125.186,125.318],[125.276,125.22],[125.322,125.173],[125.376,125.119],[125.464,125.034],[125.583,124.928],[125.613,124.902],[125.689,124.838],[125.766,124.776],[125.798,124.752],[125.926,124.657],[126.026,124.587],[126.09,124.545],[126.146,124.51],[126.258,124.441],[126.393,124.364],[126.432,124.343],[126.521,124.296],[126.609,124.253],[126.652,124.233],[126.79,124.171],[126.92,124.118],[126.974,124.097],[127.057,124.067],[127.161,124.031],[127.195,124.02],[127.351,123.973],[127.475,123.94],[127.544,123.923],[127.615,123.907],[127.738,123.881],[127.897,123.854],[127.934,123.848],[128.038,123.835],[128.131,123.824],[128.178,123.819],[128.329,123.808],[128.455,123.802],[128.528,123.801],[128.6,123.8],[141.4,123.8],[141.472,123.801],[141.541,123.802],[141.671,123.808],[141.823,123.819],[141.869,123.824],[141.965,123.835],[142.066,123.848],[142.107,123.855],[142.262,123.881],[142.392,123.908],[142.456,123.923],[142.534,123.942],[142.649,123.973],[142.674,123.98],[142.839,124.031],[142.952,124.07],[143.026,124.097],[143.089,124.121],[143.21,124.171],[143.355,124.236],[143.391,124.253],[143.485,124.3],[143.568,124.343],[143.612,124.366],[143.742,124.441],[143.856,124.511],[143.91,124.545],[143.974,124.587],[144.075,124.657],[144.199,124.75],[144.234,124.776],[144.309,124.837],[144.387,124.902],[144.417,124.927],[144.536,125.034],[144.626,125.121],[144.678,125.173],[144.726,125.223],[144.814,125.318],[144.919,125.437],[144.944,125.468],[145.01,125.549],[145.068,125.624],[145.098,125.664],[145.184,125.785],[145.263,125.902],[145.294,125.95],[145.339,126.024],[145.396,126.121],[145.411,126.148],[145.49,126.296],[145.543,126.4],[145.577,126.474],[145.602,126.528],[145.657,126.656],[145.709,126.79],[145.728,126.842],[145.757,126.925],[145.791,127.03],[145.801,127.061],[145.846,127.221],[145.876,127.338],[145.893,127.414],[145.907,127.479],[145.932,127.609],[145.956,127.762],[145.961,127.806],[145.973,127.904],[145.983,128.003],[145.986,128.046],[145.996,128.201],[145.999,128.329],[146,128.4],[145.999,128.471],[145.996,128.599],[145.986,128.757],[145.983,128.797],[145.973,128.9],[145.961,128.994],[145.955,129.042],[145.932,129.191],[145.906,129.326],[145.893,129.386],[145.875,129.466],[145.846,129.579],[145.84,129.604],[145.791,129.77],[145.757,129.877],[145.728,129.958],[145.709,130.01],[145.657,130.144],[145.602,130.271],[145.577,130.326],[145.542,130.401],[145.49,130.504],[145.478,130.529],[145.396,130.679],[145.336,130.78],[145.294,130.85],[145.259,130.903],[145.184,131.015],[145.094,131.141],[145.068,131.176],[145.007,131.255],[144.944,131.332],[144.915,131.367],[144.814,131.482],[144.724,131.58],[144.678,131.627],[144.624,131.681],[144.536,131.766],[144.417,131.872],[144.387,131.898],[144.311,131.962],[144.234,132.024],[144.202,132.048],[144.075,132.143],[143.974,132.213],[143.91,132.255],[143.854,132.29],[143.742,132.359],[143.607,132.436],[143.568,132.457],[143.478,132.504],[143.391,132.547],[143.348,132.567],[143.21,132.629],[143.08,132.682],[143.026,132.703],[142.943,132.733],[142.839,132.769],[142.805,132.78],[142.649,132.827],[142.525,132.86],[142.456,132.877],[142.385,132.893],[142.262,132.919],[142.103,132.946],[142.066,132.952],[141.962,132.965],[141.869,132.976],[141.822,132.981],[141.671,132.992],[141.545,132.998],[141.472,132.999],[141.4,133],[128.6,133],[128.528,132.999],[128.459,132.998],[128.329,132.992],[128.177,132.981],[128.131,132.976],[128.035,132.965],[127.934,132.952],[127.893,132.945],[127.738,132.919],[127.608,132.892],[127.544,132.877],[127.466,132.858],[127.351,132.827],[127.326,132.82],[127.161,132.769],[127.048,132.73],[126.974,132.703],[126.911,132.679],[126.79,132.629],[126.645,132.564],[126.609,132.547],[126.515,132.5],[126.432,132.457],[126.388,132.434],[126.258,132.359],[126.144,132.289],[126.09,132.255],[126.027,132.213],[125.926,132.143],[125.801,132.05],[125.766,132.024],[125.691,131.963],[125.613,131.898],[125.583,131.873],[125.464,131.766],[125.374,131.679],[125.322,131.627],[125.274,131.577],[125.186,131.482],[125.081,131.363],[125.056,131.332],[124.99,131.251],[124.932,131.176],[124.902,131.136],[124.816,131.015],[124.737,130.898],[124.706,130.85],[124.661,130.776],[124.604,130.679],[124.589,130.652],[124.51,130.504],[124.457,130.4],[124.423,130.326],[124.398,130.272],[124.343,130.144],[124.291,130.01],[124.272,129.958],[124.243,129.875],[124.209,129.77],[124.199,129.739],[124.154,129.579],[124.124,129.462],[124.107,129.386],[124.093,129.321],[124.068,129.191],[124.044,129.038],[124.039,128.994],[124.027,128.896],[124.017,128.797],[124.014,128.754],[124.004,128.599],[124.001,128.471],[124,128.4]]
M73 P0 R7
M106 S0
M106 P2 S0
;TYPE:Custom
PRINT_START BED=100 HOTEND=260 CHAMBER=60 EXTRUDER=0
SET_PRINT_STATS_INFO TOTAL_LAYER=25
M83
M140 S100
M104 S260
M141 S60
G4 P3000
T0
G1 X108.000 Y1 F30000
G0 Z0.2 F600
;G1 E3 F1800
G90
M83
G0 X128 E8  F600
G0 X133 E.3742  F1000
G0 X138 E.3742  F4000
G0 X143 E.3742  F1000
G0 X148 E.3742  F4000
G0 X153 E.3742  F1000
G91
G1 X1 Z-0.300
G1 X4
G1 Z1 F1200
G90
M400
G1 X108.000 Y2.5 F30000
G0 Z0.2 F600
M83
G0 X128 E10  F600
G0 X133 E.3742  F1000
M73 P1 R7
G0 X138 E.3742  F4000
G0 X143 E.3742  F1000
G0 X148 E.3742  F4000
G0 X153 E.3742  F1000
G91
G1 X1 Z-0.300
G1 X4
G1 Z1 F1200
G90
M400
G1 Z1 F600
M106 P3 S255
G90
G21
M83 ; use relative distances for extrusion
; Filament gcode
SET_PRESSURE_ADVANCE ADVANCE=0.025; Override pressure advance value
T0
M106 P2 S0
;LAYER_CHANGE
;Z:0.2
;HEIGHT:0.2
;BEFORE_LAYER_CHANGE
;0.2
G92 E0

G1 E-.8 F1800
 ; timelapse without wipe tower
TIMELAPSE_TAKE_FRAME

G92 E0
SET_PRINT_STATS_INFO CURRENT_LAYER=1
;_SET_FAN_SPEED_CHANGING_LAYER
SET_VELOCITY_LIMIT ACCEL=500
G1 X123.512 Y123.313 F30000
G1 Z.6
G1 Z.2
G1 E.8 F1800
;TYPE:Skirt
;WIDTH:0.44
G1 F3000
G1 X124.627 Y122.401 E.04516
G1 X125.821 Y121.763 E.04246
G1 X127.307 Y121.322 E.04863
G1 X128.528 Y121.205 E.03847
G1 X141.567 Y121.207 E.40898
G1 X142.693 Y121.322 E.03552
M73 P2 R7
G1 X143.891 Y121.65 E.03895
G1 X144.841 Y122.081 E.03274
G1 X145.876 Y122.767 E.03894
G1 X146.778 Y123.62 E.03894
G1 X147.46 Y124.521 E.03545
G1 X148.037 Y125.621 E.03895
G1 X148.369 Y126.61 E.03274
G1 X148.527 Y127.415 E.02572
G1 X148.595 Y128.344 E.02923
G1 X148.586 Y141.967 E.4273
G1 X148.478 Y142.892 E.02923
G1 X148.252 Y143.796 E.02922
G1 X147.911 Y144.663 E.02923
G1 X147.46 Y145.479 E.02923
G1 X146.98 Y146.143 E.02571
G1 X146.346 Y146.826 E.02923
G1 X145.111 Y147.765 E.04865
G1 X143.703 Y148.417 E.04866
G1 X142.078 Y148.763 E.05213
G1 X128.12 Y148.779 E.43779
G1 X127.193 Y148.656 E.02934
G1 X126.297 Y148.417 E.0291
G1 X125.533 Y148.109 E.02585
G1 X124.72 Y147.66 E.02911
G1 X123.432 Y146.606 E.05221
G1 X122.479 Y145.382 E.04867
G1 X121.811 Y143.984 E.04857
G1 X121.584 Y143.197 E.02571
G1 X121.437 Y142.28 E.02914
G1 X121.414 Y128.033 E.44686
G1 X121.522 Y127.107 E.02925
G1 X121.746 Y126.211 E.02898
G1 X122.089 Y125.337 E.02944
G1 X122.541 Y124.52 E.02929
G1 X123.487 Y123.344 E.04734
G1 X123.789 Y123.597 F30000
G1 F3000
G1 X124.93 Y122.678 E.04596
G1 X126.155 Y122.057 E.0431
G1 X127.569 Y121.68 E.04588
G1 X128.528 Y121.602 E.03018
G1 X141.552 Y121.604 E.40852
G1 X142.627 Y121.713 E.0339
G1 X143.759 Y122.024 E.0368
G1 X144.646 Y122.427 E.03059
G1 X145.625 Y123.074 E.0368
G1 X146.478 Y123.88 E.0368
G1 X147.179 Y124.82 E.0368
G1 X147.673 Y125.779 E.03383
G1 X148.03 Y126.897 E.0368
G1 X148.199 Y128.4 E.04744
G1 X148.19 Y141.941 E.42473
G1 X148.089 Y142.816 E.02762
G1 X147.875 Y143.67 E.02761
G1 X147.554 Y144.489 E.02761
G1 X147.129 Y145.26 E.02762
G1 X146.668 Y145.897 E.02464
G1 X146.069 Y146.541 E.02761
G1 X144.901 Y147.427 E.04597
G1 X143.571 Y148.042 E.04597
G1 X142.046 Y148.367 E.04892
G1 X128.152 Y148.383 E.43578
G1 X127.276 Y148.268 E.02773
G1 X126.429 Y148.042 E.02749
G1 X125.697 Y147.747 E.02476
G1 X124.93 Y147.322 E.0275
G1 X123.721 Y146.334 E.04899
G1 X122.819 Y145.178 E.04598
G1 X122.188 Y143.858 E.04589
G1 X121.97 Y143.103 E.02464
G1 X121.832 Y142.237 E.02753
G1 X121.81 Y128.059 E.44471
G1 X121.912 Y127.184 E.02763
G1 X122.123 Y126.337 E.02738
G1 X122.446 Y125.511 E.02782
G1 X122.872 Y124.738 E.02767
G1 X123.764 Y123.628 E.04466
; printing object qidi-q2-riser-latch (1).stl id:0 copy 0
G1 E-.56 F1800
;WIPE_START
G1 F3000
G1 X124.539 Y122.996 E-.24
;WIPE_END
EXCLUDE_OBJECT_START NAME=qidi-q2-riser-latch_1_.stl_id_0_copy_0
G1 X127.026 Y130.212 Z.6 F30000
G1 X131.725 Y143.844 Z.6
G1 Z.2
G1 E.8 F1800
;TYPE:Inner wall
;WIDTH:0.439999
G1 F3000
G1 X131.897 Y143.587 E.0097
G1 X132.213 Y142.936 E.02271
G1 X132.408 Y142.171 E.02476
G1 X132.449 Y141.455 E.0225
G1 X132.337 Y140.674 E.02474
G1 X132.101 Y139.993 E.0226
G1 X131.727 Y139.358 E.02314
G1 X141.339 Y139.363 E.3015
G1 X141.914 Y139.423 E.01812
M73 P3 R7
G1 X142.45 Y139.635 E.0181
G1 X142.925 Y139.964 E.0181
G1 X143.286 Y140.414 E.0181
G1 X143.535 Y140.934 E.0181
G1 X143.634 Y141.697 E.02412
G1 X143.527 Y142.263 E.0181
G1 X143.293 Y142.791 E.0181
G1 X142.919 Y143.23 E.0181
G1 X142.454 Y143.572 E.0181
G1 X141.912 Y143.768 E.0181
G1 X141.381 Y143.844 E.01682
G1 X131.765 Y143.844 E.3016
G1 E-.56 F1800
;WIPE_START
G1 F3000
G1 X131.897 Y143.587 E-.06935
G1 X132.207 Y142.947 E-.17065
;WIPE_END
G1 X130.819 Y144.242 Z.6 F30000
G1 Z.2
G1 E.8 F1800
G1 F3000
