; HEADER_BLOCK_START
; generated by OrcaSlicer 2.3.1 on 2025-10-15 at 21:45:26
; total layer number: 5
; filament_density: 1.24,1.02,1.02,1.24,1.24,1.24
; filament_diameter: 1.75,1.75,1.75,1.75,1.75,1.75
; max_z_height: 1.00
; HEADER_BLOCK_END

; THUMBNAIL_BLOCK_START

;
; THUMBNAIL_BLOCK_END

; external perimeters extrusion width = 0.42mm
; perimeters extrusion width = 0.45mm
; infill extrusion width = 0.45mm
; solid infill extrusion width = 0.42mm
; top infill extrusion width = 0.42mm
; first layer extrusion width = 0.44mm

; EXECUTABLE_BLOCK_START
EXCLUDE_OBJECT_DEFINE NAME=spacer.step_id_0_copy_0 CENTER=135,135 POLYGON=[[98.9258,152.375],[98.9309,152.139],[98.9315,152.113],[98.9469,151.878],[98.9486,151.852],[98.9771,151.591],[105.086,95.8814],[105.107,95.7204],[105.139,95.5611],[105.18,95.4041],[105.232,95.2502],[105.294,95.1],[105.365,94.9542],[126.776,54.544],[126.935,54.2552],[127.105,53.9722],[127.285,53.6955],[127.475,53.4254],[127.674,53.1622],[127.882,52.9063],[128.1,52.658],[128.326,52.4176],[128.349,52.3944],[128.56,52.1855],[128.803,51.9618],[128.828,51.9403],[129.054,51.747],[129.079,51.7264],[129.312,51.5412],[129.577,51.3447],[129.849,51.1579],[129.877,51.1402],[130.127,50.9808],[130.156,50.9641],[130.412,50.8138],[130.441,50.7982],[130.702,50.6571],[130.998,50.5108],[131.028,50.4973],[131.299,50.3752],[131.33,50.3627],[131.605,50.2504],[131.636,50.239],[131.914,50.1366],[132.228,50.0339],[132.26,50.0248],[132.545,49.9425],[132.577,49.9344],[132.865,49.8624],[133.188,49.7938],[133.221,49.7881],[133.513,49.7367],[133.84,49.6913],[134.168,49.6576],[134.498,49.6356],[134.828,49.6254],[135.158,49.627],[135.191,49.6283],[135.487,49.6403],[135.52,49.6428],[135.816,49.6653],[135.849,49.669],[136.144,49.7021],[136.471,49.7506],[136.503,49.7566],[136.795,49.8107],[137.118,49.8823],[137.149,49.8906],[137.437,49.9654],[137.753,50.0598],[138.066,50.1655],[138.375,50.2822],[138.679,50.4099],[138.709,50.4237],[138.978,50.5483],[139.273,50.6973],[139.562,50.8568],[139.845,51.0264],[140.122,51.2061],[140.392,51.3955],[140.655,51.5944],[140.912,51.8026],[141.16,52.0198],[141.401,52.2457],[144.247,55.0158],[169.864,79.9468],[170.013,80.0994],[170.153,80.2597],[170.166,80.2764],[170.285,80.4272],[170.297,80.4446],[170.407,80.6015],[170.52,80.7821],[170.53,80.8007],[170.623,80.9684],[170.717,81.16],[170.799,81.3563],[170.872,81.5566],[170.878,81.577],[170.933,81.7606],[170.938,81.7813],[170.984,81.9675],[171.023,82.1769],[171.052,82.388],[171.053,82.4093],[171.069,82.6004],[171.074,82.8133],[171.074,109.436],[170.926,208.718],[170.925,208.739],[170.92,208.927],[170.904,209.136],[170.901,209.157],[170.877,209.343],[170.873,209.364],[170.838,209.549],[170.833,209.57],[170.789,209.753],[170.73,209.954],[170.66,210.151],[170.588,210.325],[170.58,210.345],[170.49,210.534],[170.39,210.718],[170.28,210.896],[170.174,211.052],[170.162,211.069],[170.034,211.235],[169.912,211.378],[169.898,211.394],[169.769,211.531],[169.754,211.546],[162.097,219.203],[161.945,219.347],[161.93,219.361],[161.786,219.483],[161.62,219.611],[161.465,219.717],[161.447,219.729],[161.269,219.839],[161.103,219.929],[161.085,219.939],[160.896,220.029],[160.722,220.101],[160.702,220.109],[160.525,220.172],[160.505,220.179],[160.324,220.232],[160.304,220.238],[160.101,220.287],[159.895,220.325],[159.687,220.353],[159.499,220.367],[159.478,220.369],[159.269,220.375],[104.926,220.375],[104.9,220.374],[104.664,220.369],[104.403,220.352],[104.143,220.323],[103.884,220.283],[103.858,220.278],[103.627,220.232],[103.398,220.176],[103.373,220.17],[103.348,220.163],[103.122,220.097],[102.874,220.013],[102.654,219.927],[102.63,219.918],[102.39,219.812],[102.179,219.708],[102.155,219.697],[102.132,219.684],[101.926,219.571],[101.702,219.435],[101.68,219.42],[101.484,219.29],[101.294,219.15],[101.273,219.135],[101.089,218.987],[101.069,218.971],[100.872,218.798],[100.683,218.617],[100.502,218.428],[100.329,218.231],[100.182,218.048],[100.166,218.027],[100.011,217.816],[99.8654,217.598],[99.7296,217.375],[99.6037,217.145],[99.5921,217.122],[99.4879,216.91],[99.4774,216.886],[99.3825,216.671],[99.2876,216.427],[99.2035,216.179],[99.1302,215.928],[99.068,215.673],[99.0629,215.648],[99.0169,215.416],[98.9771,215.158],[98.9486,214.898],[98.9469,214.871],[98.9315,214.636],[98.9309,214.61],[98.9258,214.375],[98.9258,152.375]]
M73 P0 R12
M106 S0
M106 P2 S0
;TYPE:Custom
PRINT_START BED=55 HOTEND=220 CHAMBER=0 EXTRUDER=0
SET_PRINT_STATS_INFO TOTAL_LAYER=5
M83
M140 S55
M104 S220
M141 S0
G4 P3000
T0
G1 X108.000 Y1 F30000
G0 Z0.2 F600
;G1 E3 F1800
G90
M83
G0 X128 E8  F904.991
G0 X133 E.3742  F1508.32
G0 X138 E.3742  F6033.27
G0 X143 E.3742  F1508.32
G0 X148 E.3742  F6033.27
G0 X153 E.3742  F1508.32
G91
G1 X1 Z-0.300
G1 X4
G1 Z1 F1200
G90
M400
G1 X108.000 Y2.5 F30000
G0 Z0.2 F600
M83
G0 X128 E10  F904.991
G0 X133 E.3742  F1508.32
G0 X138 E.3742  F6033.27
G0 X143 E.3742  F1508.32
G0 X148 E.3742  F6033.27
G0 X153 E.3742  F1508.32
G91
G1 X1 Z-0.300
G1 X4
G1 Z1 F1200
G90
M400
G1 Z1 F600
G90
G21
M83 ; use relative distances for extrusion
; Filament gcode
T0
M106 P2 S0
;LAYER_CHANGE
;Z:0.2
;HEIGHT:0.2
;BEFORE_LAYER_CHANGE
;0.2
G92 E0

G1 E-.8 F1800
 ; timelapse without wipe tower
TIMELAPSE_TAKE_FRAME

G92 E0
SET_PRINT_STATS_INFO CURRENT_LAYER=1
;_SET_FAN_SPEED_CHANGING_LAYER
SET_VELOCITY_LIMIT ACCEL=500
G1 X106.495 Y88.125 F30000
G1 Z.6
G1 Z.2
G1 E.8 F1800
;TYPE:Skirt
;WIDTH:0.44
G1 F3000
G1 X124.833 Y53.515 E1.22856
G1 X125.442 Y52.497 E.03719
G1 X126.205 Y51.486 E.03974
G1 X127.313 Y50.345 E.04988
G1 X128.332 Y49.533 E.04088
M73 P1 R12
G1 X129.658 Y48.722 E.04875
G1 X130.846 Y48.187 E.04088
G1 X132.332 Y47.73 E.04875
G1 X133.616 Y47.504 E.04088
G1 X135.168 Y47.428 E.04875
G1 X137.196 Y47.649 E.06398
G1 X139.152 Y48.226 E.06398
G1 X140.975 Y49.141 E.06398
G1 X142.607 Y50.364 E.06398
G1 X171.439 Y78.413 E1.26169
G1 X172.014 Y79.069 E.02737
G1 X172.444 Y79.718 E.02443
G1 X172.867 Y80.61 E.03097
G1 X173.119 Y81.446 E.02737
G1 X173.273 Y82.813 E.04317
G1 X173.273 Y109.436 E.83505
G1 X173.124 Y208.721 E3.11423
G1 X173.038 Y209.744 E.03221
G1 X172.802 Y210.688 E.0305
G1 X172.422 Y211.583 E.03051
G1 X171.906 Y212.407 E.03051
G1 X171.309 Y213.101 E.02871
G1 X163.214 Y221.155 E.35818
G1 X162.596 Y221.604 E.02395
G1 X161.842 Y222.013 E.02691
G1 X161.129 Y222.287 E.02395
G1 X160.306 Y222.485 E.02658
G1 X159.269 Y222.573 E.03263
G1 X104.926 Y222.573 E1.70455
G1 X103.455 Y222.44 E.04632
G1 X102.077 Y222.062 E.04482
G1 X100.785 Y221.45 E.04482
G1 X99.619 Y220.624 E.04483
G1 X98.615 Y219.607 E.04482
G1 X97.802 Y218.432 E.04482
G1 X97.206 Y217.133 E.04482
G1 X96.844 Y215.751 E.04482
G1 X96.727 Y214.375 E.04333
G1 X96.738 Y151.969 E1.95744
G1 X102.95 Y95.295 E1.78833
G1 X103.15 Y94.546 E.0243
M73 P2 R12
G1 X103.422 Y93.925 E.02127
G1 X106.477 Y88.16 E.20463
; printing object spacer.step id:0 copy 0
G1 E-.56 F1800
;WIPE_START
G1 F3000
G1 X106.945 Y87.276 E-.24
;WIPE_END
EXCLUDE_OBJECT_START NAME=spacer.step_id_0_copy_0
G1 X110.782 Y93.875 Z.6 F30000
G1 X140.828 Y145.549 Z.6
G1 Z.2
G1 E.8 F1800
;TYPE:Inner wall
;WIDTH:0.439999
G1 F3000
G1 X141.116 Y145.933 E.01504
G1 X141.493 Y146.348 E.01759
G1 X142.341 Y147.039 E.03432
G1 X143.161 Y147.485 E.02927
G1 X144.055 Y147.786 E.02959
G1 X144.948 Y147.933 E.0284
G1 X145.397 Y147.957 E.01412
G1 X150.905 Y147.959 E.17275
G1 X150.695 Y148.165 E.00921
G1 X150.295 Y148.653 E.0198
G1 X149.857 Y149.374 E.02647
G1 X149.617 Y149.957 E.01978
G1 X149.405 Y150.815 E.02773
G1 X149.348 Y151.45 E.01999
G1 X149.369 Y151.931 E.01509
G1 X149.459 Y152.613 E.02157
G1 X149.81 Y153.67 E.03492
G1 X150.267 Y154.458 E.02857
G1 X150.841 Y155.131 E.02776
G1 X151.419 Y155.621 E.02377
G1 X151.849 Y155.896 E.01602
G1 X152.215 Y156.074 E.01274
G1 X152.809 Y156.319 E.02018
G1 X153.38 Y156.465 E.01849
G1 X154.116 Y156.547 E.02321
G1 X154.739 Y156.529 E.01954
G1 X155.473 Y156.42 E.02328
G1 X156.311 Y156.141 E.02771
G1 X157.054 Y155.742 E.02646
G1 X157.528 Y155.39 E.01851
G1 X157.983 Y154.952 E.01982
G1 X158.504 Y154.286 E.02652
G1 X158.794 Y153.776 E.01842
G1 X159.035 Y153.192 E.0198
G1 X159.242 Y152.374 E.02647
G1 X159.302 Y151.746 E.01978
G1 X159.261 Y150.903 E.02647
G1 X159.135 Y150.285 E.0198
G1 X158.902 Y149.605 E.02253
G1 X158.636 Y149.123 E.0173
G1 X158.209 Y148.459 E.02474
G1 X157.751 Y147.962 E.02121
G1 X159.298 Y147.963 E.04854
G1 X159.794 Y148.032 E.01571
G1 X160.287 Y148.199 E.01633
G1 X160.611 Y148.376 E.01157
G1 X161.019 Y148.706 E.01649
G1 X168.516 Y156.204 E.33256
G1 X168.866 Y156.6 E.01658
G1 X169.127 Y157.051 E.01635
G1 X169.283 Y157.53 E.0158
G1 X169.343 Y158.107 E.01819
G1 X169.343 Y208.703 E1.587
G1 X169.263 Y209.324 E.01967
G1 X169.04 Y209.866 E.01836
G1 X168.707 Y210.347 E.01836
G1 X161.534 Y217.528 E.31836
G1 X160.755 Y218.269 E.03371
G1 X160.287 Y218.557 E.01725
G1 X159.713 Y218.742 E.01891
G1 X159.211 Y218.792 E.01583
G1 X157.744 Y218.792 E.04599
G1 X157.983 Y218.552 E.01061
G1 X158.504 Y217.886 E.02652
G1 X158.811 Y217.336 E.01975
G1 X159.035 Y216.792 E.01846
G1 X159.242 Y215.974 E.02647
G1 X159.302 Y215.387 E.01849
G1 X159.287 Y214.756 E.0198
G1 X159.147 Y213.924 E.02647
G1 X158.949 Y213.326 E.01978
G1 X158.572 Y212.57 E.02647
G1 X158.207 Y212.056 E.01978
G1 X157.595 Y211.419 E.02772
G1 X156.88 Y210.901 E.0277
G1 X156.22 Y210.566 E.02318
G1 X155.708 Y210.389 E.01699
G1 X155.126 Y210.27 E.01865
G1 X154.473 Y210.2 E.0206
G1 X153.802 Y210.233 E.02106
G1 X153.179 Y210.33 E.01978
G1 X152.302 Y210.629 E.02907
G1 X151.562 Y211.037 E.02649
G1 X151.069 Y211.422 E.01964
G1 X150.668 Y211.796 E.01719
G1 X150.266 Y212.292 E.02002
G1 X149.978 Y212.769 E.0175
G1 X149.721 Y213.281 E.01797
G1 X149.465 Y214.085 E.02647
G1 X149.369 Y214.709 E.01978
G1 X149.365 Y215.594 E.02777
G1 X149.505 Y216.427 E.0265
G1 X149.686 Y216.986 E.01842
G1 X149.954 Y217.557 E.0198
G1 X150.417 Y218.263 E.02647
G1 X150.912 Y218.792 E.02272
G1 X111.933 Y218.792 E1.22264
G1 X112.353 Y218.363 E.01882
G1 X112.703 Y217.889 E.01849
G1 X112.994 Y217.376 E.01851
G1 X113.235 Y216.792 E.0198
G1 X113.449 Y215.895 E.02894
G1 X113.488 Y214.781 E.03496
G1 X113.335 Y213.885 E.02849
G1 X113.05 Y213.091 E.02647
G1 X112.749 Y212.537 E.01978
G1 X112.244 Y211.86 E.02647
G1 X111.794 Y211.419 E.01978
G1 X111.079 Y210.9 E.02773
G1 X110.321 Y210.528 E.02646
G1 X109.642 Y210.327 E.02222
G1 X108.885 Y210.207 E.02404
G1 X108.256 Y210.203 E.01975
G1 X107.38 Y210.329 E.02777
G1 X106.577 Y210.591 E.02647
G1 X106.015 Y210.875 E.01978
G1 X105.293 Y211.388 E.02775
G1 X104.699 Y211.986 E.02645
G1 X104.349 Y212.46 E.01848
G1 X104.041 Y213.012 E.01982
G1 X103.801 Y213.604 E.02003
G1 X103.638 Y214.213 E.01977
G1 X103.577 Y214.729 E.01632
G1 X103.557 Y215.399 E.021
G1 X103.638 Y216.137 E.02329
G1 X103.802 Y216.746 E.0198
G1 X104.042 Y217.338 E.02003
G1 X104.35 Y217.891 E.01985
G1 X104.741 Y218.396 E.02003
G1 X105.107 Y218.792 E.01691
G1 X104.531 Y218.772 E.01808
G1 X103.783 Y218.64 E.02382
G1 X103.293 Y218.468 E.01628
G1 X102.832 Y218.26 E.01585
G1 X102.314 Y217.931 E.01926
G1 X101.896 Y217.584 E.01705
G1 X101.536 Y217.198 E.01655
G1 X101.173 Y216.698 E.0194
G1 X100.872 Y216.12 E.02042
G1 X100.698 Y215.641 E.01598
G1 X100.588 Y215.146 E.01592
G1 X100.508 Y214.342 E.02535
G1 X100.508 Y152.423 E1.94217
G1 X100.545 Y151.865 E.01755
G1 X100.631 Y151.356 E.01618
G1 X100.825 Y150.743 E.02019
M73 P3 R12
G1 X101.045 Y150.279 E.01608
G1 X101.362 Y149.778 E.01862
G1 X101.727 Y149.339 E.01788
G1 X102.144 Y148.952 E.01786
G1 X102.638 Y148.606 E.01891
G1 X103.106 Y148.356 E.01666
G1 X103.754 Y148.127 E.02156
G1 X104.551 Y147.975 E.02543
G1 X105.119 Y147.957 E.01783
G1 X104.835 Y148.233 E.01239
G1 X104.543 Y148.602 E.01479
G1 X104.195 Y149.113 E.01939
G1 X103.91 Y149.715 E.02089
G1 X103.665 Y150.485 E.02535
G1 X103.57 Y151.075 E.01873
G1 X103.545 Y151.657 E.01827
G1 X103.598 Y152.286 E.0198
G1 X103.802 Y153.147 E.02775
G1 X104.154 Y153.958 E.02774
G1 X104.617 Y154.663 E.02644
G1 X105.01 Y155.103 E.01849
G1 X105.486 Y155.517 E.0198
G1 X106.194 Y155.976 E.02647
G1 X106.73 Y156.221 E.01849
G1 X107.333 Y156.408 E.0198
G1 X108.166 Y156.543 E.02647
G1 X108.797 Y156.546 E.01978
G1 X109.433 Y156.47 E.02009
G1 X109.92 Y156.344 E.01579
G1 X110.512 Y156.14 E.01962
G1 X111.255 Y155.742 E.02645
G1 X111.758 Y155.362 E.01978
G1 X112.28 Y154.851 E.0229
G1 X112.611 Y154.425 E.01692
G1 X112.872 Y153.983 E.01609
G1 X113.117 Y153.506 E.01682
G1 X113.313 Y152.95 E.01849
G1 X113.446 Y152.333 E.0198
G1 X113.503 Y151.451 E.02773
G1 X113.413 Y150.613 E.02646
G1 X113.265 Y150.041 E.01851
G1 X113.031 Y149.455 E.0198
G1 X112.585 Y148.691 E.02775
G1 X112.182 Y148.196 E.02002
G1 X111.939 Y147.957 E.01067
G1 X122.891 Y147.953 E.34352
G1 X123.826 Y147.852 E.02948
G1 X124.911 Y147.531 E.03548
G1 X125.489 Y147.25 E.02017
G1 X126.269 Y146.721 E.02957
G1 X127.077 Y145.931 E.03546
G1 X127.456 Y145.411 E.02017
G1 X127.864 Y144.669 E.02658
G1 X128.242 Y143.501 E.03848
G1 X128.332 Y142.903 E.01899
G1 X128.358 Y142.376 E.01656
G1 X128.353 Y138.981 E.10647
G1 X128.322 Y138.157 E.02588
G1 X128.187 Y137.352 E.02559
G1 X127.81 Y136.289 E.03538
G1 X115.296 Y112.663 E.83858
;WIDTH:0.480849
G1 X115.089 Y112.122 E.02005
;WIDTH:0.521698
G1 X114.882 Y111.581 E.02193
G1 X114.316 Y110.646 E.04132
;WIDTH:0.49069
G1 X113.744 Y109.663 E.04024
;WIDTH:0.46172
G1 X113.19 Y108.672 E.03755
;WIDTH:0.445242
G1 X112.655 Y107.673 E.03603
;WIDTH:0.449467
G1 X112.14 Y106.671 E.03616
;WIDTH:0.459644
G1 X111.867 Y106.123 E.02018
;WIDTH:0.485161
G1 X111.39 Y105.132 E.03842
;WIDTH:0.52457
G1 X110.894 Y104.055 E.04511
G1 X110.585 Y103.62 E.02029
;WIDTH:0.482285
G1 X110.276 Y103.185 E.01851
;WIDTH:0.439999
G1 X106.824 Y96.667 E.23135
G1 X106.694 Y96.341 E.01101
G1 X106.679 Y96.035 E.00963
G1 X106.797 Y95.631 E.01317
G1 X110.545 Y88.559 E.25105
;WIDTH:0.48456
G1 X110.72 Y88.378 E.0088
;WIDTH:0.52912
G1 X110.896 Y88.198 E.00968
G1 X111.166 Y87.599 E.02521
;WIDTH:0.502996
G1 X111.635 Y86.604 E.03997
;WIDTH:0.471633
G1 X112.133 Y85.593 E.03818
;WIDTH:0.450067
G1 X112.411 Y85.048 E.01968
;WIDTH:0.443386
G1 X112.921 Y84.076 E.03471
;WIDTH:0.450429
G1 X113.466 Y83.082 E.03651
;WIDTH:0.472246
G1 X114.029 Y82.095 E.03852
;WIDTH:0.506528
G1 X114.59 Y81.149 E.04029
;WIDTH:0.529034
G1 X114.881 Y80.677 E.02127
G1 X114.911 Y80.468 E.00812
;WIDTH:0.484517
G1 X114.942 Y80.259 E.00737
;WIDTH:0.439999
G1 X128.156 Y55.32 E.88525
G1 X128.605 Y54.572 E.02737
G1 X128.919 Y54.14 E.01675
G1 X129.264 Y53.732 E.01676
G1 X129.865 Y53.137 E.02652
G1 X130.277 Y52.797 E.01675
G1 X130.712 Y52.486 E.01676
G1 X131.43 Y52.065 E.02612
G1 X132.189 Y51.723 E.02613
G1 X132.694 Y51.547 E.01676
G1 X133.222 Y51.405 E.01716
G1 X133.759 Y51.301 E.01716
G1 X134.289 Y51.237 E.01676
G1 X135.122 Y51.211 E.02612
G1 X135.952 Y51.275 E.02613
G1 X136.479 Y51.362 E.01675
G1 X136.999 Y51.488 E.01675
G1 X137.788 Y51.754 E.02613
G1 X138.544 Y52.104 E.02612
G1 X139.007 Y52.37 E.01676
G1 X139.45 Y52.669 E.01675
G1 X140.106 Y53.202 E.02653
G1 X168.791 Y81.124 E1.25562
G1 X169.145 Y81.572 E.01791
G1 X169.37 Y82.096 E.01788
G1 X169.452 Y82.517 E.01345
G1 X169.492 Y83.048 E.01671
G1 X169.492 Y109.359 E.82526
G1 X169.437 Y109.873 E.01623
G1 X169.337 Y110.26 E.01254
G1 X169.11 Y110.716 E.01597
G1 X168.718 Y111.209 E.01976
G1 X141.351 Y137.852 E1.19801
G1 X140.967 Y138.32 E.01899
G1 X140.674 Y138.732 E.01585
G1 X140.165 Y139.764 E.03608
G1 X139.972 Y140.404 E.02097
G1 X139.901 Y140.844 E.014
G1 X139.818 Y141.698 E.02692
G1 X139.837 Y142.789 E.0342
G1 X139.928 Y143.462 E.02133
G1 X140.067 Y143.976 E.01668
G1 X140.277 Y144.578 E.01999
G1 X140.705 Y145.384 E.02864
G1 X140.805 Y145.517 E.0052
G1 X141.093 Y145.234 F30000
G1 F3000
G1 X141.156 Y145.35 E.00415
G1 X141.75 Y146.046 E.0287
G1 X142.537 Y146.694 E.03199
G1 X143.298 Y147.112 E.02721
G1 X144.119 Y147.395 E.02724
G1 X145.012 Y147.541 E.0284
G1 X145.398 Y147.56 E.0121
G1 X152.11 Y147.563 E.21054
G1 X151.391 Y148.052 E.02728
G1 X150.996 Y148.424 E.01702
G1 X150.63 Y148.865 E.01796
G1 X150.22 Y149.534 E.02463
G1 X150 Y150.062 E.01794
G1 X149.801 Y150.851 E.02552
G1 X149.744 Y151.486 E.01999
G1 X149.765 Y151.896 E.01289
